<?xml version="1.0" encoding="UTF-8"?>
<map version="1.10" tiledversion="1.12.1" orientation="orthogonal" renderorder="right-down" width="100" height="100" tilewidth="16" tileheight="16" infinite="0" nextlayerid="13" nextobjectid="1">
 <tileset firstgid="1" source="../Floor.tsx"/>
 <tileset firstgid="2201" source="трава.tsx"/>
 <tileset firstgid="2204" name="TilesetHouse" tilewidth="16" tileheight="16" tilecount="759" columns="33">
  <image source="../Ninja Adventure - Asset Pack/Backgrounds/Tilesets/TilesetHouse.png" width="528" height="368"/>
 </tileset>
 <layer id="7" name="границы" width="100" height="100">
  <data encoding="csv">
2684356099,2684356099,2684356099,2684356099,2684356099,2684356099,2684356099,2684356099,2684356099,2684356099,2684356099,2684356099,2684356099,2684356099,2684356099,2684356099,2684356099,2684356099,2684356099,2684356099,2684356099,2684356099,2684356099,2684356099,2684356099,2684356099,2684356099,2684356099,2684356099,2684356099,2684356099,2684356099,2684356099,2684356099,2684356099,2684356099,2684356099,2684356099,2684356099,2684356099,2684356099,2684356099,2684356099,2684356099,2684356099,2684356099,2684356099,2684356099,2684356099,2684356099,2684356099,2684356099,2684356099,2684356099,2684356099,2684356099,2684356099,2684356099,2684356099,2684356099,2684356099,2684356099,2684356099,2684356099,2684356099,2684356099,2684356099,2684356099,2684356099,2684356099,2684356099,2684356099,2684356099,2684356099,2684356099,2684356099,2684356099,2684356099,2684356099,2684356099,2684356099,2684356099,2684356099,2684356099,2684356099,2684356099,2684356099,2684356099,2684356099,2684356099,2684356099,2684356099,2684356099,2684356099,2684356099,2684356099,2684356099,2684356099,2684356099,2684356099,
2684356099,0,0,0,0,0,0,0,0,0,0,0,0,0,0,0,0,0,0,0,0,0,0,0,0,0,0,0,0,0,0,0,0,0,0,0,0,0,0,0,0,0,0,0,0,0,0,0,0,0,0,0,0,0,0,0,0,0,0,0,0,0,0,0,0,0,0,0,0,0,0,0,0,0,0,0,0,0,0,0,0,0,0,0,1583,0,0,1583,0,0,0,0,0,0,0,0,0,0,0,2684356099,
2684356099,0,0,0,0,0,0,0,0,0,0,0,0,0,0,0,0,0,0,0,0,0,0,0,0,0,0,0,0,0,0,0,0,0,0,0,0,0,0,0,0,0,0,0,0,0,0,0,0,0,0,0,0,0,0,0,0,0,0,0,0,0,0,0,0,0,0,0,0,0,0,0,0,0,0,0,0,0,0,0,0,0,0,0,1583,0,0,1583,0,0,0,0,0,0,0,0,0,0,0,2684356099,
2684356099,0,0,0,0,0,0,0,0,0,0,0,0,0,0,0,0,0,0,0,0,0,0,0,0,0,0,0,0,0,0,0,0,0,0,0,0,0,0,0,0,0,0,0,0,0,0,0,0,0,0,0,0,0,0,0,0,0,0,0,0,0,0,0,0,0,0,0,0,0,0,0,0,0,0,0,0,0,0,0,0,0,0,0,1583,0,0,1583,0,0,0,0,0,0,0,0,0,0,0,2684356099,
2684356099,0,0,0,0,0,0,0,0,0,0,0,0,0,0,0,0,0,0,0,0,0,0,0,0,0,0,0,0,0,0,0,0,0,0,0,0,0,0,0,0,0,0,0,0,0,0,0,0,0,0,0,0,0,0,0,0,0,0,0,0,0,0,0,0,0,0,0,0,0,0,0,0,0,0,0,0,0,0,0,0,0,0,0,1583,0,0,1583,0,0,0,0,0,0,0,0,0,0,0,2684356099,
2684356099,0,0,0,0,0,0,0,0,0,0,0,0,0,0,0,0,0,0,0,0,0,0,0,0,0,0,0,0,0,0,0,0,0,0,0,0,0,0,0,0,0,0,0,0,0,0,0,0,0,0,0,0,0,0,0,0,0,0,0,0,0,0,0,0,0,0,0,0,0,0,0,0,0,0,0,0,0,0,0,0,0,0,0,1583,0,0,1583,1583,0,0,0,0,0,0,0,0,0,0,2684356099,
2684356099,0,0,0,0,0,0,0,0,0,0,0,0,0,0,0,0,0,0,0,0,0,0,0,0,0,0,0,0,0,0,0,0,0,0,0,0,0,0,0,0,0,0,0,0,0,0,0,0,0,0,0,0,0,0,0,0,0,0,0,0,0,0,0,0,0,0,0,0,0,0,0,0,0,0,0,0,0,0,0,0,0,0,0,1583,0,0,0,1583,0,0,0,0,0,0,0,0,0,0,2684356099,
2684356099,0,0,0,0,0,0,0,0,0,0,0,0,0,0,0,0,0,0,0,0,0,0,0,0,0,0,0,0,0,0,0,0,0,0,0,0,0,0,0,0,0,0,0,0,0,0,0,0,0,0,0,0,0,0,0,0,0,0,0,0,0,0,0,0,0,0,0,0,0,0,0,0,0,0,0,0,0,0,0,0,0,0,1583,1583,0,0,0,1583,0,0,0,0,0,0,0,0,0,0,2684356099,
2684356099,0,0,0,0,0,0,0,0,0,0,0,0,0,0,0,0,0,0,0,0,0,0,0,0,0,0,0,0,0,0,0,0,0,0,0,0,0,0,0,0,0,0,0,0,0,0,0,0,0,0,0,0,0,0,0,0,0,0,0,0,0,0,0,0,0,0,0,0,0,0,0,0,0,0,0,0,0,0,0,0,0,1583,1583,0,0,0,0,1583,0,0,0,0,0,0,0,0,0,0,2684356099,
2684356099,0,0,0,0,0,0,0,0,0,0,0,0,0,0,0,0,0,0,0,0,0,0,0,0,0,0,0,0,0,0,0,0,0,0,0,0,0,0,0,0,0,0,0,0,0,0,0,0,0,0,0,0,0,0,0,0,0,0,0,0,0,0,0,0,0,0,0,0,0,0,0,0,0,0,0,0,0,0,0,1583,1583,1583,0,0,0,0,0,1583,0,0,0,0,0,0,0,0,0,0,2684356099,
2684356099,0,0,0,0,0,0,0,0,0,0,0,0,0,0,0,0,0,0,0,0,0,0,0,0,0,0,0,0,0,0,0,0,0,0,0,0,0,0,0,0,0,0,0,0,0,0,0,0,0,0,0,0,0,0,0,0,0,0,0,0,0,0,0,0,0,0,0,0,0,0,0,0,0,0,0,0,0,1583,1583,1583,0,0,0,0,0,1583,1583,1583,0,0,0,0,0,0,0,0,0,0,2684356099,
2684356099,0,0,0,0,0,0,0,0,0,0,0,0,0,0,0,0,0,0,0,0,0,0,0,0,0,0,0,0,0,0,0,0,0,0,0,0,0,0,0,0,0,0,0,0,0,0,0,0,0,0,0,0,0,0,0,0,0,0,0,0,0,0,0,0,0,0,0,0,0,0,0,0,0,1583,1583,1583,1583,1583,0,0,0,0,0,0,1583,1583,0,0,0,0,0,0,0,0,0,0,0,0,2684356099,
2684356099,0,0,0,0,0,0,0,0,0,0,0,0,0,0,0,0,0,0,0,0,0,0,0,0,0,0,0,0,0,0,0,0,0,0,0,0,0,0,0,0,0,0,0,0,0,0,0,0,0,0,0,0,0,0,0,0,0,0,0,0,0,0,0,0,0,0,0,0,0,1583,1583,1583,1583,1583,0,0,0,0,0,0,0,0,1583,1583,1583,0,0,0,0,0,0,0,0,0,0,0,0,0,2684356099,
2684356099,0,0,0,0,0,0,0,0,0,0,0,0,0,0,0,0,0,0,0,0,0,0,0,0,0,0,0,0,0,0,0,0,0,0,0,0,0,0,0,0,0,0,0,0,0,0,0,0,0,0,0,0,0,0,0,0,0,0,0,0,0,0,0,0,1583,1583,1583,1583,1583,1583,0,0,0,0,0,0,0,0,0,0,1583,1583,1583,0,0,0,0,0,0,0,0,0,0,0,0,0,0,0,2684356099,
2684356099,0,0,0,0,0,0,0,0,0,0,0,0,0,0,0,0,0,0,0,0,0,0,0,0,0,0,0,0,0,0,0,0,0,0,0,0,0,0,0,0,0,0,0,0,0,0,0,0,0,0,0,0,0,0,0,0,0,0,0,0,0,0,1583,1583,1583,0,0,0,0,0,0,0,0,0,0,0,1583,1583,1583,1583,1583,0,0,0,0,0,0,0,0,0,0,0,0,0,0,0,0,0,2684356099,
2684356099,0,0,0,0,0,0,0,0,0,0,0,0,0,0,0,0,0,0,0,0,0,0,0,0,0,0,0,0,0,0,0,0,0,0,0,0,0,0,0,0,0,0,0,0,0,0,0,0,0,0,0,0,0,0,0,0,0,0,0,0,0,1583,1583,0,0,0,0,0,0,0,0,1583,1583,1583,1583,1583,1583,0,0,0,0,0,0,0,0,0,0,0,0,0,0,0,0,0,0,0,0,0,2684356099,
2684356099,0,0,0,0,0,0,0,0,0,0,0,0,0,0,0,0,0,0,0,0,0,0,0,0,0,0,0,0,0,0,0,0,0,0,0,0,0,0,0,0,0,0,0,0,0,0,0,0,0,0,0,0,0,0,0,0,0,0,0,0,0,1583,0,0,0,0,1583,1583,1583,1583,1583,1583,0,0,0,0,0,0,0,0,0,0,0,0,0,0,0,0,0,0,0,0,0,0,0,0,0,0,2684356099,
2684356099,0,0,0,0,0,0,0,0,0,0,0,0,0,0,0,0,0,0,0,0,0,0,0,0,0,0,0,0,0,0,0,0,0,0,0,0,0,0,0,0,0,0,0,0,0,0,0,0,0,0,0,0,0,0,0,0,0,0,0,0,0,1583,0,0,1583,1583,0,0,0,0,0,0,0,0,0,0,0,0,0,0,0,0,0,0,0,0,0,0,0,0,0,0,0,0,0,0,0,0,2684356099,
2684356099,0,0,0,0,0,0,0,0,0,0,0,0,0,0,0,0,0,0,0,0,0,0,0,0,0,0,0,0,0,0,0,0,0,0,0,0,0,0,0,0,0,0,0,0,0,0,0,0,0,0,0,0,0,0,0,0,0,0,0,0,0,1583,0,0,1583,0,0,0,0,0,0,0,0,0,0,0,0,0,0,0,0,0,0,0,0,0,0,0,0,0,0,0,0,0,0,0,0,0,2684356099,
2684356099,0,0,0,0,0,0,0,0,0,0,0,0,0,0,0,0,0,0,0,0,0,0,0,0,0,0,0,0,0,0,0,0,0,0,0,0,0,0,0,0,0,0,0,0,0,0,0,0,0,0,0,0,0,0,0,0,0,0,0,0,0,1583,0,0,1583,0,0,0,0,0,0,0,0,0,0,0,0,0,0,0,0,0,0,0,0,0,0,0,0,0,0,0,0,0,0,0,0,0,2684356099,
2684356099,0,0,0,0,0,0,0,0,0,0,0,0,0,0,0,0,0,0,0,0,0,0,0,0,0,0,0,0,0,0,0,0,0,0,0,0,0,0,0,0,0,0,0,0,0,0,0,0,0,0,0,0,0,0,0,0,0,0,0,0,0,1583,0,0,1583,1583,0,0,0,0,0,0,0,0,0,0,0,0,0,0,0,0,0,0,0,0,0,0,0,0,0,0,0,0,0,0,0,0,2684356099,
2684356099,0,0,0,0,0,0,0,0,0,0,0,0,0,0,0,0,0,0,0,0,0,0,0,0,0,0,0,0,0,0,0,0,0,0,0,0,0,0,0,0,0,0,0,0,0,0,0,0,0,0,0,0,0,0,0,0,0,0,0,0,0,1583,0,0,0,1583,0,0,0,0,0,0,0,0,0,0,0,0,0,0,0,0,0,0,0,0,0,0,0,0,0,0,0,0,0,0,0,0,2684356099,
2684356099,0,0,0,0,0,0,0,0,0,0,0,0,0,0,0,0,0,0,0,0,0,0,0,0,0,0,0,0,0,0,0,0,0,0,0,0,0,0,0,0,0,0,0,0,0,0,0,0,0,0,0,0,0,0,0,0,0,0,0,0,0,1583,1583,0,0,0,1583,0,0,0,0,0,0,0,0,0,0,0,0,0,0,0,0,0,0,0,0,0,0,0,0,0,0,0,0,0,0,0,2684356099,
2684356099,0,0,0,0,0,0,0,0,0,0,0,0,0,0,0,0,0,0,0,0,0,0,0,0,0,0,0,0,0,0,0,0,0,0,0,0,0,0,0,0,0,0,0,0,0,0,0,0,0,0,0,0,0,0,0,0,0,0,0,0,0,0,1583,0,0,0,1583,0,0,0,0,0,0,0,0,0,0,0,0,0,0,0,0,0,0,0,0,0,0,0,0,0,0,0,0,0,0,0,2684356099,
2684356099,0,0,0,0,0,0,0,0,0,0,0,0,0,0,0,0,0,0,0,0,0,0,0,0,0,0,0,0,0,0,0,0,0,0,0,0,0,0,0,0,0,0,0,0,0,0,0,0,0,0,0,0,0,0,0,0,0,0,0,0,0,0,1583,1583,0,0,1583,1583,0,0,0,0,0,0,0,0,0,0,0,0,0,0,0,0,0,0,0,0,0,0,0,0,0,0,0,0,0,0,2684356099,
2684356099,0,0,0,0,0,0,0,0,0,0,0,0,0,0,0,0,0,0,0,0,0,0,0,0,0,0,0,0,0,0,0,0,0,0,0,0,0,0,0,0,0,0,0,0,0,0,0,0,0,0,0,0,0,0,0,0,0,0,0,0,0,0,0,1583,0,0,0,1583,0,0,0,0,0,0,0,0,0,0,0,0,0,0,0,0,0,0,0,0,0,0,0,0,0,0,0,0,0,0,2684356099,
2684356099,0,0,0,0,0,0,0,0,0,0,0,0,0,0,0,0,0,0,0,0,0,0,0,0,0,0,0,0,0,0,0,0,0,0,0,0,0,0,0,0,0,0,0,0,0,0,0,0,0,0,0,0,0,0,0,0,0,0,0,0,0,0,0,1583,1583,0,0,1583,0,0,0,0,0,0,0,0,0,0,0,0,0,0,0,0,0,0,0,0,0,0,0,0,0,0,0,0,0,0,2684356099,
2684356099,0,0,0,0,0,0,0,0,0,0,0,0,0,0,0,0,0,0,0,0,0,0,0,0,0,0,0,0,0,0,0,0,0,0,0,0,0,0,0,0,0,0,0,0,0,0,0,0,0,0,0,0,0,0,0,0,0,0,0,0,0,0,0,0,1583,0,0,1583,0,0,0,0,0,0,0,0,0,0,0,0,0,0,0,0,0,0,0,0,0,0,0,0,0,0,0,0,0,0,2684356099,
2684356099,0,0,0,0,0,0,0,0,0,0,0,0,0,0,0,0,0,0,0,0,0,0,0,0,0,0,0,0,0,0,0,0,0,0,0,0,0,0,0,0,0,0,0,0,0,0,0,0,0,0,0,0,0,0,0,0,0,0,0,0,0,0,0,0,1583,0,0,1583,0,0,0,0,0,0,0,0,0,0,0,0,0,0,0,0,0,0,0,0,0,0,0,0,0,0,0,0,0,0,2684356099,
2684356099,0,0,0,0,0,0,0,0,0,0,0,0,0,0,0,0,0,0,0,0,0,0,0,0,0,0,0,0,0,0,0,0,0,0,0,0,0,0,0,0,0,0,0,0,0,0,0,0,0,0,0,0,0,0,0,0,0,0,0,0,0,0,0,0,1583,0,0,1583,0,0,0,0,0,0,0,0,0,0,0,0,0,0,0,0,0,0,0,0,0,0,0,0,0,0,0,0,0,0,2684356099,
2684356099,0,0,0,0,0,0,0,0,0,0,0,0,0,0,0,0,0,0,0,0,0,0,0,0,0,0,0,0,0,0,0,0,0,0,0,0,0,0,0,0,0,0,0,0,0,0,0,0,0,0,0,0,0,0,0,0,0,0,0,0,0,0,0,0,1583,0,0,1583,0,0,0,0,0,0,0,0,0,0,0,0,0,0,0,0,0,0,0,0,0,0,0,0,0,0,0,0,0,0,2684356099,
2684356099,0,0,0,0,0,0,0,0,0,0,0,0,0,0,0,0,0,0,0,0,0,0,0,0,0,0,0,0,0,0,0,0,0,0,0,0,0,0,0,0,0,0,0,0,0,0,0,0,0,0,0,0,0,0,0,0,0,0,0,0,0,0,0,1583,1583,0,0,1583,0,0,0,0,0,0,0,0,0,0,0,0,0,0,0,0,0,0,0,0,0,0,0,0,0,0,0,0,0,0,2684356099,
2684356099,0,0,0,0,0,0,0,0,0,0,0,0,0,0,0,0,0,0,0,0,0,0,0,0,0,0,0,0,0,0,0,0,0,0,0,0,0,0,0,0,0,0,0,0,0,0,0,0,0,0,0,0,0,0,0,0,0,0,0,0,0,0,0,1583,0,0,0,1583,0,0,0,0,0,0,0,0,0,0,0,0,0,0,0,0,0,0,0,0,0,0,0,0,0,0,0,0,0,0,2684356099,
2684356099,0,0,0,0,0,0,0,0,0,0,0,0,0,0,0,0,0,0,0,0,0,0,0,0,0,0,0,0,0,0,0,0,0,0,0,0,0,0,0,0,0,0,0,0,0,0,0,0,0,0,0,0,0,0,0,0,0,0,0,0,0,1583,1583,1583,0,0,1583,1583,0,0,0,0,0,0,0,0,0,0,0,0,0,0,0,0,0,0,0,0,0,0,0,0,0,0,0,0,0,0,2684356099,
2684356099,0,0,0,0,0,0,0,0,0,0,0,0,0,0,0,0,0,0,0,0,0,0,0,0,0,0,0,0,0,0,0,0,0,0,0,0,0,0,0,0,0,0,0,0,0,0,0,0,0,0,0,0,0,0,0,0,0,0,0,1583,1583,1583,0,0,0,0,1583,0,0,0,0,0,0,0,0,0,0,0,0,0,0,0,0,0,0,0,0,0,0,0,0,0,0,0,0,0,0,0,2684356099,
2684356099,0,0,0,0,0,0,0,0,0,0,0,0,0,0,0,0,0,0,0,0,0,0,0,0,0,0,0,0,0,0,0,0,0,0,0,0,0,0,0,0,0,0,0,0,0,0,0,0,0,0,0,0,0,0,0,0,0,1583,1583,1583,0,0,0,0,0,0,1583,0,0,0,0,0,0,0,0,0,0,0,0,0,0,0,0,0,0,0,0,0,0,0,0,0,0,0,0,0,0,0,2684356099,
2684356099,0,0,0,0,0,0,0,0,0,0,0,0,0,0,0,0,0,0,0,0,0,0,0,0,0,0,0,0,0,0,0,0,0,0,0,0,0,0,0,0,0,0,0,0,0,0,0,0,0,0,0,0,0,0,0,0,1583,1583,0,0,0,0,0,0,1583,1583,1583,0,0,0,0,0,0,0,0,0,0,0,0,0,0,0,0,0,0,0,0,0,0,0,0,0,0,0,0,0,0,0,2684356099,
2684356099,0,0,0,0,0,0,0,0,0,0,0,0,0,0,0,0,0,0,0,0,0,0,0,0,0,0,0,0,0,0,0,0,0,0,0,0,2684356143,1583,1583,1583,1583,1583,1583,1583,1583,1583,1583,0,0,0,0,0,0,0,0,1583,1583,0,0,0,0,0,1583,1583,1583,0,0,0,0,0,0,0,0,0,0,0,0,0,0,0,0,0,0,0,0,0,0,0,0,0,0,0,0,0,0,0,0,0,2684356099,
2684356099,0,0,0,0,0,0,0,0,0,0,0,0,0,0,0,0,0,0,0,0,0,0,0,0,0,0,0,0,0,0,2684356143,2684356143,2684356143,2684356143,2684356143,2684356143,2684356143,0,0,0,0,0,0,0,0,0,1583,1583,1583,0,0,0,0,0,1583,1583,0,0,0,0,1583,1583,1583,0,0,0,0,0,0,0,0,0,0,0,0,0,0,0,0,0,0,0,0,0,0,0,0,0,0,0,0,0,0,0,0,0,0,0,2684356099,
2684356099,0,0,0,0,0,0,0,0,0,0,0,0,0,0,0,0,0,0,0,0,0,0,0,0,0,0,0,0,2684356143,2684356143,2684356143,0,0,0,0,0,0,0,0,0,0,0,0,0,0,0,0,1583,1583,1583,0,1583,1583,1583,1583,0,0,0,0,1583,1583,0,0,0,0,0,0,0,0,0,0,0,0,0,0,0,0,0,0,0,0,0,0,0,0,0,0,0,0,0,0,0,0,0,0,0,0,0,2684356099,
2684356099,0,0,0,0,0,0,0,0,0,0,0,0,0,0,0,0,0,0,0,0,0,0,0,0,0,0,2684356143,2684356143,2684356143,0,0,0,0,0,0,0,0,0,1583,1583,1583,1583,1583,1583,1583,0,0,0,0,1583,1583,1583,1583,0,0,0,0,0,1583,0,0,0,0,0,0,0,0,0,0,0,0,0,0,0,0,0,0,0,0,0,0,0,0,0,0,0,0,0,0,0,0,0,0,0,0,0,0,0,2684356099,
2684356099,0,0,0,0,0,0,0,0,0,0,0,0,0,0,0,0,0,0,0,0,0,0,0,0,2684356143,2684356143,2684356143,0,0,0,0,0,0,2684356143,2684356143,2684356143,2684356143,2684356143,2684356143,0,0,0,0,0,1583,1583,0,0,0,1583,1583,0,0,0,0,0,0,1583,1583,0,0,0,0,0,0,0,0,0,0,0,0,0,0,0,0,0,0,0,0,0,0,0,0,0,0,0,0,0,0,0,0,0,0,0,0,0,0,0,2684356099,
2684356099,0,0,0,0,0,0,0,0,0,0,0,0,0,0,0,0,0,0,0,0,0,0,2684356143,2684356143,2684356143,0,0,0,0,0,2684356143,2684356143,2684356143,2684356143,0,0,0,0,0,0,0,0,0,0,0,1583,1583,0,0,1583,0,0,0,0,0,1583,1583,1583,0,0,0,0,0,0,0,0,0,0,0,0,0,0,0,0,0,0,0,0,0,0,0,0,0,0,0,0,0,0,0,0,0,0,0,0,0,0,0,0,2684356099,
2684356099,0,0,0,0,0,0,0,0,0,0,0,0,0,0,0,0,0,0,2684356143,2684356143,2684356143,2684356143,2684356143,0,0,0,0,0,0,2684356143,2684356143,0,0,0,0,0,0,0,0,0,0,0,0,0,0,0,1583,0,0,0,0,0,0,1583,1583,1583,0,0,0,0,0,0,0,0,0,0,0,0,0,0,0,0,0,0,0,0,0,0,0,0,0,0,0,0,0,0,0,0,0,0,0,0,0,0,0,0,0,0,2684356099,
2684356099,0,0,0,0,0,0,0,0,0,0,0,0,0,0,0,2684356143,2684356143,2684356143,2684356143,0,0,0,0,0,0,0,2684356143,2684356143,2684356143,2684356143,0,0,0,0,0,0,0,0,0,0,0,0,0,0,0,0,1583,0,0,0,0,0,1583,1583,0,0,0,0,0,0,0,0,0,0,0,0,0,0,0,0,0,0,0,0,0,0,0,0,0,0,0,0,0,0,0,0,0,0,0,0,0,0,0,0,0,0,0,0,2684356099,
2684356099,0,0,0,0,0,0,0,0,0,0,0,0,0,2684356143,2684356143,2684356143,0,0,0,0,0,0,0,0,2684356143,2684356143,2684356143,0,0,0,0,0,0,0,0,0,0,0,0,0,0,0,0,0,0,0,1583,1583,0,0,0,1583,1583,0,0,0,0,0,0,0,0,0,0,0,0,0,0,0,0,0,0,0,0,0,0,0,0,0,0,0,0,0,0,0,0,0,0,0,0,0,0,0,0,0,0,0,0,0,2684356099,
2684356099,0,0,0,0,0,0,0,0,0,0,0,0,2684356143,2684356143,0,0,0,0,0,0,2684356143,2684356143,2684356143,2684356143,2684356143,0,0,0,0,0,0,0,0,0,0,0,0,0,0,0,0,0,0,0,0,0,0,1583,0,0,0,1583,0,0,0,0,0,0,0,0,0,0,0,0,0,0,0,0,0,0,0,0,0,0,0,0,0,0,0,0,0,0,0,0,0,0,0,0,0,0,0,0,0,0,0,0,0,0,2684356099,
2684356099,0,0,0,0,0,0,0,0,0,2684356143,2684356143,2684356143,2684356143,0,0,0,0,2684356143,2684356143,2684356143,2684356143,0,0,0,0,0,0,0,0,0,0,0,0,0,0,0,0,0,0,0,0,0,0,0,0,0,1583,0,0,0,0,1583,0,0,0,0,0,0,0,0,0,0,0,0,0,0,0,0,0,0,0,0,0,0,0,0,0,0,0,0,0,0,0,0,0,0,0,0,0,0,0,0,0,0,0,0,0,0,2684356099,
2684356099,0,0,0,0,0,0,2684356143,2684356143,2684356143,2684356143,0,0,0,0,0,0,2684356143,2684356143,0,0,0,0,0,0,0,0,0,0,0,0,0,0,0,0,0,0,0,0,0,0,0,0,0,0,0,1583,1583,0,0,0,0,1583,0,0,0,0,0,0,0,0,0,0,0,0,0,0,0,0,0,0,0,0,0,0,0,0,0,0,0,0,0,0,0,0,0,0,0,0,0,0,0,0,0,0,0,0,0,0,2684356099,
2684356099,0,0,0,2684356143,2684356143,2684356143,2684356143,0,0,0,0,0,0,0,2684356143,2684356143,2684356143,2684356143,0,0,0,0,0,0,0,0,0,0,0,0,0,0,0,0,0,0,0,0,0,0,0,0,0,0,0,1583,0,0,0,0,0,1583,0,0,0,0,0,0,0,0,0,0,0,0,0,0,0,0,0,0,0,0,0,0,0,0,0,0,0,0,0,0,0,0,0,0,0,0,0,0,0,0,0,0,0,0,0,0,2684356099,
2684356099,2684356143,2684356143,2684356143,2684356143,0,0,0,0,0,0,0,0,2684356143,2684356143,2684356143,0,0,0,0,0,0,0,0,0,0,0,0,0,0,0,0,0,0,0,0,0,0,0,0,0,0,0,0,0,1583,1583,0,0,0,0,1583,1583,0,0,0,0,0,0,0,0,0,0,0,0,0,0,0,0,0,0,0,0,0,0,0,0,0,0,0,0,0,0,0,0,0,0,0,0,0,0,0,0,0,0,0,0,0,0,2684356099,
2684356099,2684356143,0,0,0,0,0,0,0,2684356143,2684356143,2684356143,2684356143,2684356143,0,0,0,0,0,0,0,0,0,0,0,0,0,0,0,0,0,0,0,0,0,0,0,0,0,0,0,0,0,0,0,1583,0,0,0,1583,1583,1583,0,0,0,0,0,0,0,0,0,0,0,0,0,0,0,0,0,0,0,0,0,0,0,0,0,0,0,0,0,0,0,0,0,0,0,0,0,0,0,0,0,0,0,0,0,0,0,2684356099,
2684356099,0,0,0,0,0,2684356143,2684356143,2684356143,2684356143,0,0,0,0,0,0,0,0,0,0,0,0,0,0,0,0,0,0,0,0,0,0,0,0,0,0,0,0,0,0,0,0,0,0,0,1583,0,0,1583,1583,0,0,0,0,0,0,0,0,0,0,0,0,0,0,0,0,0,0,0,0,0,0,0,0,0,0,0,0,0,0,0,0,0,0,0,0,0,0,0,0,0,0,0,0,0,0,0,0,0,2684356099,
2684356099,0,0,2684356143,2684356143,2684356143,2684356143,0,0,0,0,0,0,0,0,0,0,0,0,0,0,0,0,0,0,0,0,0,0,0,0,0,0,0,0,0,0,0,0,0,0,0,0,0,0,1583,0,0,1583,0,0,0,0,0,0,0,0,0,0,0,0,0,0,0,0,0,0,0,0,0,0,0,0,0,0,0,0,0,0,0,0,0,0,0,0,0,0,0,0,0,0,0,0,0,0,0,0,0,0,2684356099,
2684356099,0,2684356143,2684356143,2684356143,0,0,0,0,0,0,0,0,0,0,0,0,0,0,0,0,0,0,0,0,0,0,0,0,0,0,0,0,0,0,0,0,0,0,0,0,0,0,0,0,1583,0,0,1583,0,0,0,0,0,0,0,0,0,0,0,0,0,0,0,0,0,0,0,0,0,0,0,0,0,0,0,0,0,0,0,0,0,0,0,0,0,0,0,0,0,0,0,0,0,0,0,0,0,0,2684356099,
2684356099,2684356143,2684356143,0,0,0,0,0,0,0,0,0,0,0,0,0,0,0,0,0,0,0,0,0,0,0,0,0,0,0,0,0,0,0,0,0,0,0,0,0,0,0,0,0,0,1583,0,0,1583,0,0,0,0,0,0,0,0,0,0,0,0,0,0,0,0,0,0,0,0,0,0,0,0,0,0,0,0,0,0,0,0,0,0,0,0,0,0,0,0,0,0,0,0,0,0,0,0,0,0,2684356099,
2684356099,0,0,0,0,0,0,0,0,0,0,0,0,0,0,0,0,0,0,0,0,0,0,0,0,0,0,0,0,0,0,0,0,0,0,0,0,0,0,0,0,0,0,0,0,1583,0,0,1583,1583,0,0,0,0,0,0,0,0,0,0,0,0,0,0,0,0,0,0,0,0,0,0,0,0,0,0,0,0,0,0,0,0,0,0,0,0,0,0,0,0,0,0,0,0,0,0,0,0,0,2684356099,
2684356099,0,0,0,0,0,0,0,0,0,0,0,0,0,0,0,0,0,0,0,0,0,0,0,0,0,0,0,0,0,0,0,0,0,0,0,0,0,0,0,0,0,0,0,0,1583,0,0,0,1583,1583,1583,0,0,0,0,0,0,0,0,0,0,0,0,0,0,0,0,0,0,0,0,0,0,0,0,0,0,0,0,0,0,0,0,0,0,0,0,0,0,0,0,0,0,0,0,0,0,0,2684356099,
2684356099,0,0,0,0,0,0,0,0,0,0,0,0,0,0,0,0,0,0,0,0,0,0,0,0,0,0,0,0,0,0,0,0,0,0,0,0,0,0,0,0,0,0,0,0,1583,1583,0,0,0,0,1583,1583,1583,1583,1583,1583,1583,0,0,0,0,0,0,0,0,0,0,0,0,0,0,0,0,0,0,0,0,0,0,0,0,0,0,0,0,0,0,0,0,0,0,0,0,0,0,0,0,0,2684356099,
2684356099,0,0,0,0,0,0,0,0,0,0,0,0,0,0,0,0,0,0,0,0,0,0,0,0,0,0,0,0,0,0,0,0,0,0,0,0,0,0,0,0,0,0,0,0,0,1583,0,0,0,0,0,0,0,0,0,0,1583,1583,1583,1583,1583,1583,0,0,0,0,0,0,0,0,0,0,0,0,0,0,0,0,0,0,0,0,0,0,0,0,0,0,0,0,0,0,0,0,0,0,0,0,2684356099,
2684356099,0,0,0,0,0,0,0,0,0,0,0,0,0,0,0,0,0,0,0,0,0,0,0,0,0,0,0,0,0,0,0,0,0,0,0,0,0,0,0,0,0,0,0,0,0,1583,1583,1583,0,0,0,0,0,0,0,0,0,0,0,0,0,1583,1583,0,0,0,0,0,0,0,0,0,0,0,0,0,0,0,0,0,0,0,0,0,0,0,0,0,0,0,0,0,0,0,0,0,0,0,2684356099,
2684356099,0,0,0,0,0,0,0,0,0,0,0,0,0,0,0,0,0,0,0,0,0,0,0,0,0,0,0,0,0,0,0,0,0,0,0,0,0,0,0,0,0,0,0,0,0,0,0,0,1583,1583,1583,1583,1583,1583,1583,0,0,0,0,0,0,0,1583,1583,0,0,0,0,0,0,0,0,0,0,0,0,0,0,0,0,0,0,0,0,0,0,0,0,0,0,0,0,0,0,0,0,0,0,2684356099,
2684356099,0,0,0,0,0,0,0,0,0,0,0,0,0,0,0,0,0,0,0,0,0,0,0,0,0,0,0,0,0,0,0,0,0,0,0,0,0,0,0,0,0,0,0,0,0,0,0,0,0,0,0,0,0,0,1583,1583,1583,1583,1583,0,0,0,0,1583,2684356143,2684356143,0,0,0,0,0,0,0,0,0,0,0,0,0,0,0,0,0,0,0,0,0,0,0,0,0,0,0,0,0,0,0,0,2684356099,
2684356099,0,0,0,0,0,0,0,0,0,0,0,0,0,0,0,0,0,0,0,0,0,0,0,0,0,0,0,0,0,0,0,0,0,0,0,0,0,0,0,0,0,0,0,0,0,0,0,0,0,0,0,0,0,0,0,0,0,0,1583,1583,0,0,0,0,0,2684356143,2684356143,0,0,0,0,0,0,0,0,0,0,0,0,0,0,0,0,0,0,0,0,0,0,0,0,0,0,0,0,0,0,0,2684356099,
2684356099,0,0,0,0,0,0,0,0,0,0,0,0,0,0,0,0,0,0,0,0,0,0,0,0,0,0,0,0,0,0,0,0,0,0,0,0,0,0,0,0,0,0,0,0,0,0,0,0,0,0,0,0,0,0,0,0,0,0,0,1583,1583,0,0,0,0,0,2684356143,2684356143,2684356143,0,0,0,0,0,0,0,0,0,0,0,0,0,0,0,0,0,0,0,0,0,0,0,0,0,0,0,0,0,2684356099,
2684356099,0,0,0,0,0,0,0,0,0,0,0,0,0,0,0,0,0,0,0,0,0,0,0,0,0,0,0,0,0,0,0,0,0,0,0,0,0,0,0,0,0,0,0,0,0,0,0,0,0,0,0,0,0,0,0,0,0,0,0,0,1583,1583,1583,0,0,0,0,0,2684356143,2684356143,0,0,0,0,0,0,0,0,0,0,0,0,0,0,0,0,0,0,0,0,0,0,0,0,0,0,0,0,2684356099,
2684356099,0,0,0,0,0,0,0,0,0,0,0,0,0,0,0,0,0,0,0,0,0,0,0,0,0,0,0,0,0,0,0,0,0,0,0,0,0,0,0,0,0,0,0,0,0,0,0,0,0,0,0,0,0,0,0,0,0,0,0,0,0,0,1583,1583,0,0,0,0,0,2684356143,0,0,0,0,0,0,0,0,0,0,0,0,0,0,0,0,0,0,0,0,0,0,0,0,0,0,0,0,2684356099,
2684356099,0,0,0,0,0,0,0,0,0,0,0,0,0,0,0,0,0,0,0,0,0,0,0,0,0,0,0,0,0,0,0,0,0,0,0,0,0,0,0,0,0,0,0,0,0,0,0,0,0,0,0,0,0,0,0,0,0,0,0,0,0,0,0,1583,1583,1583,0,0,0,2684356143,0,0,0,0,0,0,0,0,0,0,0,0,0,0,0,0,0,0,0,0,0,0,0,0,0,0,0,0,2684356099,
2684356099,0,0,0,0,0,0,0,0,0,0,0,0,0,0,0,0,0,0,0,0,0,0,0,0,0,0,0,0,0,0,0,0,0,0,0,0,0,0,0,0,0,0,0,0,0,0,0,0,0,0,0,0,0,0,0,0,0,0,0,0,0,0,0,0,0,0,1583,0,0,2684356143,2684356143,0,0,0,0,0,0,0,0,0,0,0,0,0,0,0,0,0,0,0,0,0,0,0,0,0,0,0,2684356099,
2684356099,0,0,0,0,0,0,0,0,0,0,0,0,0,0,0,0,0,0,0,0,0,0,0,0,0,0,0,0,0,0,0,0,0,0,0,0,0,0,0,0,0,0,0,0,0,0,0,0,0,0,0,0,0,0,0,0,0,0,0,0,0,0,0,0,0,0,1583,0,0,0,2684356143,0,0,0,0,0,0,0,0,0,0,0,0,0,0,0,0,0,0,0,0,0,0,0,0,0,0,0,2684356099,
2684356099,0,0,0,0,0,0,0,0,0,0,0,0,0,0,0,0,0,0,0,0,0,0,0,0,0,0,0,0,0,0,0,0,0,0,0,0,0,0,0,0,0,0,0,0,0,0,0,0,0,0,0,0,0,0,0,0,0,0,0,0,0,0,0,0,0,0,1583,1583,0,0,2684356143,0,0,0,0,0,0,0,0,0,0,0,0,0,0,0,0,0,0,0,0,0,0,0,0,0,0,0,2684356099,
2684356099,0,0,0,0,0,0,0,0,0,0,0,0,0,0,0,0,0,0,0,0,0,0,0,0,0,0,0,0,0,0,0,0,0,0,0,0,0,0,0,0,0,0,0,0,0,0,0,0,0,0,0,0,0,0,0,0,0,0,0,0,0,0,0,0,0,0,0,1583,0,0,2684356143,2684356143,0,0,0,0,0,0,0,0,0,0,0,0,0,0,0,0,0,0,0,0,0,0,0,0,0,0,2684356099,
2684356099,0,0,0,0,0,0,0,0,0,0,0,0,0,0,0,0,0,0,0,0,0,0,0,0,0,0,0,0,0,0,0,0,0,0,0,0,0,0,0,0,0,0,0,0,0,0,0,0,0,0,0,0,0,0,0,0,0,0,0,0,0,0,0,0,0,0,0,1583,0,0,0,2684356143,0,0,0,0,0,0,0,0,0,0,0,0,0,0,0,0,0,0,0,0,0,0,0,0,0,0,2684356099,
2684356099,0,0,0,0,0,0,0,0,0,0,0,0,0,0,0,0,0,0,0,0,0,0,0,0,0,0,0,0,0,0,0,0,0,0,0,0,0,0,0,0,0,0,0,0,0,0,0,0,0,0,0,0,0,0,0,0,0,0,0,0,0,0,0,0,0,0,0,1583,0,0,0,2684356143,2684356143,0,0,0,0,0,0,0,0,0,0,0,0,0,0,0,0,0,0,0,0,0,0,0,0,0,2684356099,
2684356099,0,0,0,0,0,0,0,0,0,0,0,0,0,0,0,0,0,0,0,0,0,0,0,0,0,0,0,0,0,0,0,0,0,0,0,0,0,0,0,0,0,0,0,0,0,0,0,0,0,0,0,0,0,0,0,0,0,0,0,0,0,0,0,0,0,0,0,1583,1583,0,0,0,2684356143,2684356143,0,0,0,0,0,0,0,0,0,0,0,0,0,0,0,0,0,0,0,0,0,0,0,0,2684356099,
2684356099,0,0,0,0,0,0,0,0,0,0,0,0,0,0,0,0,0,0,0,0,0,0,0,0,0,0,0,0,0,0,0,0,0,0,0,0,0,0,0,0,0,0,0,0,0,0,0,0,0,0,0,0,0,0,0,0,0,0,0,0,0,0,0,0,0,0,0,0,1583,1583,0,0,0,2684356143,2684356143,0,0,0,0,0,0,0,0,0,0,0,0,0,0,0,0,0,0,0,0,0,0,0,2684356099,
2684356099,0,0,0,0,0,0,0,0,0,0,0,0,0,0,0,0,0,0,0,0,0,0,0,0,0,0,0,0,0,0,0,0,0,0,0,0,0,0,0,0,0,0,0,0,0,0,0,0,0,0,0,0,0,0,0,0,0,0,0,0,0,0,0,0,0,0,0,0,0,1583,0,0,0,0,2684356143,2684356143,2684356143,0,0,0,0,0,0,0,0,0,0,0,0,0,0,0,0,0,0,0,0,0,2684356099,
2684356099,0,0,0,0,0,0,0,0,0,0,0,0,0,0,0,0,0,0,0,0,0,0,0,0,0,0,0,0,0,0,0,0,0,0,0,0,0,0,0,0,0,0,0,0,0,0,0,0,0,0,0,0,0,0,0,0,0,0,0,0,0,0,0,0,0,0,0,0,0,1583,1583,0,0,0,0,0,2684356143,2684356143,2684356143,0,0,0,0,0,0,0,0,0,0,0,0,0,0,0,0,0,0,0,2684356099,
2684356099,0,0,0,0,0,0,0,0,0,0,0,0,0,0,0,0,0,0,0,0,0,0,0,0,0,0,0,0,0,0,0,0,0,0,0,0,0,0,0,0,0,0,0,0,0,0,0,0,0,0,0,0,0,0,0,0,0,0,0,0,0,0,0,0,0,0,0,0,0,0,1583,1583,1583,0,0,0,0,0,2684356143,2684356143,2684356143,0,0,0,0,0,0,0,0,0,0,0,0,0,0,0,0,0,2684356099,
2684356099,0,0,0,0,0,0,0,0,0,0,0,0,0,0,0,0,0,0,0,0,0,0,0,0,0,0,0,0,0,0,0,0,0,0,0,0,0,0,0,0,0,0,0,0,0,0,0,0,0,0,0,0,0,0,0,0,0,0,0,0,0,0,0,0,0,0,0,0,0,0,0,0,1583,1583,0,0,0,0,0,0,2684356143,2684356143,2684356143,2684356143,0,0,0,0,0,0,0,0,0,0,0,0,0,0,2684356099,
2684356099,0,0,0,0,0,0,0,0,0,0,0,0,0,0,0,0,0,0,0,0,0,0,0,0,0,0,0,0,0,0,0,0,0,0,0,0,0,0,0,0,0,0,0,0,0,0,0,0,0,0,0,0,0,0,0,0,0,0,0,0,0,0,0,0,0,0,0,0,0,0,0,0,0,1583,1583,1583,0,0,0,0,0,0,0,1583,1583,0,0,0,0,0,0,0,0,0,0,0,0,0,2684356099,
2684356099,0,0,0,0,0,0,0,0,0,0,0,0,0,0,0,0,0,0,0,0,0,0,0,0,0,0,0,0,0,0,0,0,0,0,0,0,0,0,0,0,0,0,0,0,0,0,0,0,0,0,0,0,0,0,0,0,0,0,0,0,0,0,0,0,0,0,0,0,0,0,0,0,0,0,0,1583,1583,1583,1583,0,0,0,0,0,1583,1583,0,0,0,0,0,0,0,0,0,0,0,0,2684356099,
2684356099,0,0,0,0,0,0,0,0,0,0,0,0,0,0,0,0,0,0,0,0,0,0,0,0,0,0,0,0,0,0,0,0,0,0,0,0,0,0,0,0,0,0,0,0,0,0,0,0,0,0,0,0,0,0,0,0,0,0,0,0,0,0,0,0,0,0,0,0,0,0,0,0,0,0,0,0,0,0,1583,1583,1583,0,0,0,0,1583,1583,1583,0,0,0,0,0,0,0,0,0,0,2684356099,
2684356099,0,0,0,0,0,0,0,0,0,0,0,0,0,0,0,0,0,0,0,0,0,0,0,0,0,0,0,0,0,0,0,0,0,0,0,0,0,0,0,0,0,0,0,0,0,0,0,0,0,0,0,0,0,0,0,0,0,0,0,0,0,0,0,0,0,0,0,0,0,0,0,0,0,0,0,0,0,0,0,0,1583,1583,0,0,0,0,0,1583,1583,0,0,0,0,0,0,0,0,0,2684356099,
2684356099,0,0,0,0,0,0,0,0,0,0,0,0,0,0,0,0,0,0,0,0,0,0,0,0,0,0,0,0,0,0,0,0,0,0,0,0,0,0,0,0,0,0,0,0,0,0,0,0,0,0,0,0,0,0,0,0,0,0,0,0,0,0,0,0,0,0,0,0,0,0,0,0,0,0,0,0,0,0,0,0,0,1583,1583,0,0,0,0,0,1583,1583,1583,0,0,0,0,0,0,0,2684356099,
2684356099,0,0,0,0,0,0,0,0,0,0,0,0,0,0,0,0,0,0,0,0,0,0,0,0,0,0,0,0,0,0,0,0,0,0,0,0,0,0,0,0,0,0,0,0,0,0,0,0,0,0,0,0,0,0,0,0,0,0,0,0,0,0,0,0,0,0,0,0,0,0,0,0,0,0,0,0,0,0,0,0,0,0,1583,1583,1583,0,0,0,0,0,1583,0,0,0,0,0,0,0,2684356099,
2684356099,0,0,0,0,0,0,0,0,0,0,0,0,0,0,0,0,0,0,0,0,0,0,0,0,0,0,0,0,0,0,0,0,0,0,0,0,0,0,0,0,0,0,0,0,0,0,0,0,0,0,0,0,0,0,0,0,0,0,0,0,0,0,0,0,0,0,0,0,0,0,0,0,0,0,0,0,0,0,0,0,0,0,0,0,1583,1583,0,0,0,0,1583,1583,0,0,0,0,0,0,2684356099,
2684356099,0,0,0,0,0,0,0,0,0,0,0,0,0,0,0,0,0,0,0,0,0,0,0,0,0,0,0,0,0,0,0,0,0,0,0,0,0,0,0,0,0,0,0,0,0,0,0,0,0,0,0,0,0,0,0,0,0,0,0,0,0,0,0,0,0,0,0,0,0,0,0,0,0,0,0,0,0,0,0,0,0,0,0,0,0,1583,1583,1583,0,0,0,1583,0,0,0,0,0,0,2684356099,
2684356099,0,0,0,0,0,0,0,0,0,0,0,0,0,0,0,0,0,0,0,0,0,0,0,0,0,0,0,0,0,0,0,0,0,0,0,0,0,0,0,0,0,0,0,0,0,0,0,0,0,0,0,0,0,0,0,0,0,0,0,0,0,0,0,0,0,0,0,0,0,0,0,0,0,0,0,0,0,0,0,0,0,0,0,0,0,0,0,1583,0,0,0,1583,1583,0,0,0,0,0,2684356099,
2684356099,0,0,0,0,0,0,0,0,0,0,0,0,0,0,0,0,0,0,0,0,0,0,0,0,0,0,0,0,0,0,0,0,0,0,0,0,0,0,0,0,0,0,0,0,0,0,0,0,0,0,0,0,0,0,0,0,0,0,0,0,0,0,0,0,0,0,0,0,0,0,0,0,0,0,0,0,0,0,0,0,0,0,0,0,0,0,0,1583,1583,0,0,0,1583,1583,0,0,0,0,2684356099,
2684356099,0,0,0,0,0,0,0,0,0,0,0,0,0,0,0,0,0,0,0,0,0,0,0,0,0,0,0,0,0,0,0,0,0,0,0,0,0,0,0,0,0,0,0,0,0,0,0,0,0,0,0,0,0,0,0,0,0,0,0,0,0,0,0,0,0,0,0,0,0,0,0,0,0,0,0,0,0,0,0,0,0,0,0,0,0,0,0,0,1583,0,0,0,0,1583,1583,1583,1583,0,2684356099,
2684356099,0,0,0,0,0,0,0,0,0,0,0,0,0,0,0,0,0,0,0,0,0,0,0,0,0,0,0,0,0,0,0,0,0,0,0,0,0,0,0,0,0,0,0,0,0,0,0,0,0,0,0,0,0,0,0,0,0,0,0,0,0,0,0,0,0,0,0,0,0,0,0,0,0,0,0,0,0,0,0,0,0,0,0,0,0,0,0,0,1583,1583,1583,0,0,0,0,0,1583,1583,2684356099,
2684356099,0,0,0,0,0,0,0,0,0,0,0,0,0,0,0,0,0,0,0,0,0,0,0,0,0,0,0,0,0,0,0,0,0,0,0,0,0,0,0,0,0,0,0,0,0,0,0,0,0,0,0,0,0,0,0,0,0,0,0,0,0,0,0,0,0,0,0,0,0,0,0,0,0,0,0,0,0,0,0,0,0,0,0,0,0,0,0,0,0,0,1583,1583,0,0,0,0,0,1583,2684356099,
2684356099,0,0,0,0,0,0,0,0,0,0,0,0,0,0,0,0,0,0,0,0,0,0,0,0,0,0,0,0,0,0,0,0,0,0,0,0,0,0,0,0,0,0,0,0,0,0,0,0,0,0,0,0,0,0,0,0,0,0,0,0,0,0,0,0,0,0,0,0,0,0,0,0,0,0,0,0,0,0,0,0,0,0,0,0,0,0,0,0,0,0,0,1583,1583,1583,0,0,0,1583,2684356099,
2684356099,0,0,0,0,0,0,0,0,0,0,0,0,0,0,0,0,0,0,0,0,0,0,0,0,0,0,0,0,0,0,0,0,0,0,0,0,0,0,0,0,0,0,0,0,0,0,0,0,0,0,0,0,0,0,0,0,0,0,0,0,0,0,0,0,0,0,0,0,0,0,0,0,0,0,0,0,0,0,0,0,0,0,0,0,0,0,0,0,0,0,0,0,0,1583,1583,0,0,1583,2684356099,
2684356099,0,0,0,0,0,0,0,0,0,0,0,0,0,0,0,0,0,0,0,0,0,0,0,0,0,0,0,0,0,0,0,0,0,0,0,0,0,0,0,0,0,0,0,0,0,0,0,0,0,0,0,0,0,0,0,0,0,0,0,0,0,0,0,0,0,0,0,0,0,0,0,0,0,0,0,0,0,0,0,0,0,0,0,0,0,0,0,0,0,0,0,0,0,0,1583,0,0,0,2684356099,
2684356099,0,0,0,0,0,0,0,0,0,0,0,0,0,0,0,0,0,0,0,0,0,0,0,0,0,0,0,0,0,0,0,0,0,0,0,0,0,0,0,0,0,0,0,0,0,0,0,0,0,0,0,0,0,0,0,0,0,0,0,0,0,0,0,0,0,0,0,0,0,0,0,0,0,0,0,0,0,0,0,0,0,0,0,0,0,0,0,0,0,0,0,0,0,0,1583,1583,0,0,2684356099,
2684356099,0,0,0,0,0,0,0,0,0,0,0,0,0,0,0,0,0,0,0,0,0,0,0,0,0,0,0,0,0,0,0,0,0,0,0,0,0,0,0,0,0,0,0,0,0,0,0,0,0,0,0,0,0,0,0,0,0,0,0,0,0,0,0,0,0,0,0,0,0,0,0,0,0,0,0,0,0,0,0,0,0,0,0,0,0,0,0,0,0,0,0,0,0,0,0,1583,1583,0,2684356099,
2684356099,0,0,0,0,0,0,0,0,0,0,0,0,0,0,0,0,0,0,0,0,0,0,0,0,0,0,0,0,0,0,0,0,0,0,0,0,0,0,0,0,0,0,0,0,0,0,0,0,0,0,0,0,0,0,0,0,0,0,0,0,0,0,0,0,0,0,0,0,0,0,0,0,0,0,0,0,0,0,0,0,0,0,0,0,0,0,0,0,0,0,0,0,0,0,0,0,1583,0,2684356099,
2684356099,2684356099,2684356099,2684356099,2684356099,2684356099,2684356099,2684356099,2684356099,2684356099,2684356099,2684356099,2684356099,2684356099,2684356099,2684356099,2684356099,2684356099,2684356099,2684356099,2684356099,2684356099,2684356099,2684356099,2684356099,2684356099,2684356099,2684356099,2684356099,2684356099,2684356099,2684356099,2684356099,2684356099,2684356099,2684356099,2684356099,2684356099,2684356099,2684356099,2684356099,2684356099,2684356099,2684356099,2684356099,2684356099,2684356099,2684356099,2684356099,2684356099,2684356099,2684356099,2684356099,2684356099,2684356099,2684356099,2684356099,2684356099,2684356099,2684356099,2684356099,2684356099,2684356099,2684356099,2684356099,2684356099,2684356099,2684356099,2684356099,2684356099,2684356099,2684356099,2684356099,2684356099,2684356099,2684356099,2684356099,2684356099,2684356099,2684356099,2684356099,2684356099,2684356099,2684356099,2684356099,2684356099,2684356099,2684356099,2684356099,2684356099,2684356099,2684356099,2684356099,2684356099,2684356099,2684356099,2684356099,2684356099,2684356099,2684356099
</data>
 </layer>
 <layer id="6" name="земля" width="100" height="100">
  <data encoding="csv">
1106,1105,1102,1110,1104,1058,1059,1066,1105,1101,1061,1057,1101,1101,1103,1109,1062,1065,1106,1063,1110,1059,1062,1107,1104,1107,1061,1061,1064,1066,1064,1106,1057,1109,1102,1102,1063,1105,1057,1106,1109,1064,1062,1101,1108,1066,1106,1062,1057,1104,1105,1057,1063,1103,1108,1103,1063,1064,1103,1057,1107,1063,1108,1101,1064,1057,1062,1058,1106,1107,1108,1063,1057,1064,1109,1101,1062,1059,1061,1106,1105,1107,1062,1066,1062,641,642,1105,1066,1103,1101,1058,1105,1102,1062,1063,1061,1102,1061,1063,
1059,1062,1101,1107,1057,1058,1065,1066,1105,1107,1059,1109,1058,1062,1106,1105,1110,1057,1109,1058,1103,1104,1108,1063,1109,1105,1102,1106,1059,1101,1059,1107,1066,1103,1109,1057,1060,1103,1064,1058,1066,1063,1064,1057,1110,1063,1066,1057,1102,1105,1065,1109,1102,1101,1059,1104,1058,1058,1062,1105,1060,1110,1059,1059,1058,1063,1057,1108,1108,1109,1104,1109,1065,1105,1110,1102,1110,1108,1105,1064,1065,1058,1109,1106,1101,641,642,1106,1058,1057,1106,1109,1058,1108,1110,1064,1103,1107,1064,1058,
1105,1061,1101,1064,1057,1102,1107,1102,1063,1108,1102,1058,1057,1108,1103,1063,1065,1108,1063,1060,1065,1063,1059,1101,1107,1059,1060,1108,617,618,619,620,621,622,1058,1110,1060,1105,1102,1066,1104,1058,1058,1065,1059,1104,1110,1110,1063,1103,1107,1102,1106,1063,1060,1106,1062,1058,1062,1107,1107,1064,1103,1065,1061,1062,1063,1102,1064,1065,1066,1064,1107,1061,1102,1102,1058,1062,1102,1109,1105,1065,1057,1109,1105,641,642,1060,1059,1102,1110,1064,1104,1065,1105,1101,1110,1058,1058,1065,
1057,1102,1102,1065,1109,1109,1106,1101,1059,1064,1101,1063,1102,1059,1065,1057,1058,1110,1063,1059,1104,1103,1062,1102,1062,1102,1106,1105,661,662,663,664,665,666,1106,1106,1066,1106,1103,1061,1109,1062,1106,1061,1066,1060,1061,1104,1106,1062,1104,1102,1057,1060,1103,1101,1062,617,618,619,620,621,622,1063,1110,1104,1108,1063,1065,1104,1104,1103,1102,1101,1101,1107,1059,1066,1103,1101,1107,1109,1110,1059,1063,641,642,1101,1101,1101,1110,1102,1063,1110,1103,1104,1065,1109,1106,1105,
1060,1066,1058,1101,1102,1103,1105,1066,1059,1103,1107,1104,1104,1110,1104,1110,1063,1065,1110,1105,1109,1064,1101,1062,1105,1066,1105,1058,705,706,707,708,709,710,1107,1109,1101,1105,1106,1062,1060,1063,1066,1106,1058,1058,1102,1106,1104,1062,1060,1061,1108,1101,1057,1058,1103,661,662,663,664,665,666,1101,1110,1057,1101,1106,1106,1107,1108,1107,1106,1057,1102,1066,1060,1058,1104,1101,1107,1101,1104,1061,1107,641,642,1103,1063,1104,1101,1101,1059,1058,1057,1060,1108,1104,1107,1061,
1107,1065,1108,1105,1101,1061,1106,1110,1110,1109,1063,1102,1065,1104,1064,1105,1064,1107,1105,1063,1057,1106,1101,1059,1063,1110,1102,1057,749,750,751,752,753,754,1109,1102,1060,1105,1065,1059,1109,1061,1063,1109,1109,1062,1105,1104,1105,1104,1104,1106,1063,1066,1057,1064,1064,705,706,707,708,709,710,1059,1101,1102,1062,1108,1108,1105,1061,1065,1064,1065,1101,1063,1110,1105,1106,1066,1061,1102,1057,1108,1105,641,642,1105,1108,1064,1110,1061,1108,1058,1065,1062,1066,1061,1110,1102,
617,618,619,620,621,622,1066,1103,1059,1102,1057,1063,1107,1063,1061,1104,1058,1103,1102,1064,1104,1105,1106,1101,1105,1105,1057,1103,793,794,795,796,797,798,1065,1102,1110,1066,1102,1101,1104,1104,1108,1107,1058,1104,1104,1101,1059,1106,1066,1063,1106,1062,1059,1109,1104,749,750,751,752,753,754,1061,1065,1063,1057,1060,1107,1107,1106,1057,1110,1108,1063,1110,1109,1105,1064,1059,1105,1110,1107,1108,1103,641,642,642,1060,1105,1060,1058,1101,1107,1107,1101,1066,1104,1062,1060,
661,662,663,664,665,666,1063,1101,1105,1110,1109,1102,1104,1101,1066,1107,1061,1110,1108,1103,1057,1060,1104,1058,1106,1102,1057,1057,837,838,839,840,841,842,1106,1106,1057,1057,1059,1109,1109,1103,1102,1107,1063,1065,1058,1063,1066,1060,1059,1104,1104,1105,1101,1101,1109,793,794,795,796,797,798,1110,1063,1102,1060,1101,1105,1062,1107,1108,1109,1105,1058,1106,1107,1065,1059,1102,1060,1102,1105,1063,1104,685,686,642,1103,1105,1102,1109,1109,1104,1057,1110,1058,1109,1108,1061,
705,706,707,708,709,710,1060,1059,1106,1064,1061,1105,1062,1108,1110,1065,1066,1110,1061,1103,1107,1064,1059,1101,1108,1110,1065,1062,1109,1103,1065,1061,1110,1060,1062,1101,1061,1110,1066,1103,1059,1061,1103,1108,1105,1103,1104,1107,1062,1058,1063,1104,1104,1106,1063,1062,1065,837,838,839,840,841,842,1109,1103,1064,1105,1109,1066,1066,1065,1061,1106,1103,1066,1063,1063,1105,1103,1106,1105,1059,1106,1109,641,642,642,642,1058,1061,1057,1057,1110,1064,1059,1110,1058,1109,1065,1110,
749,750,751,752,753,754,1104,1062,1066,1105,1108,1108,1108,1059,1066,1102,1105,1102,1061,1106,1102,1061,1063,1101,1060,1058,1110,1103,1108,1064,1106,1101,1106,1066,1103,1106,1066,1064,1062,1103,1066,1062,1057,1110,1110,1058,1063,1104,1103,1059,1064,1065,1057,1066,1107,1107,1102,1065,1057,1104,1058,1066,1107,1060,1107,1101,1109,1062,1059,1105,1065,1063,1065,1063,1107,1060,1105,1102,1106,1104,1109,1107,1107,641,642,642,686,686,1107,1059,1063,1061,1102,1062,1101,1063,1066,1064,1109,1066,
793,794,795,796,797,798,1108,1065,1058,1060,1103,1104,1065,1101,1103,1062,1108,1109,1102,1058,1102,1110,1060,1058,1066,1103,1102,1061,1109,1065,1105,1065,1101,1066,1062,1065,1064,1106,1062,1103,1107,1066,1106,1108,1101,1061,1107,1109,1106,1102,1065,1061,1062,1064,1061,1106,1102,1057,1102,1108,1059,1066,1109,1061,1064,1062,1103,1058,1103,1064,1062,1107,1104,1064,1063,1065,1060,1103,1103,1102,1065,641,642,642,642,686,1060,1063,1101,1103,1064,1058,1061,1104,1104,1064,1110,1107,1064,1109,
837,838,839,840,841,842,1103,1108,1104,1066,1058,1060,1062,1110,1107,1103,1102,1110,1065,1107,1109,1064,1061,1110,1064,1059,1058,1102,1106,1108,1101,1060,1063,1060,1060,1059,1061,1101,1057,1059,1063,1106,1108,1058,1061,1057,1061,1106,1107,1061,1058,1057,1109,1064,1102,1101,1063,1066,1060,1058,1063,1104,1102,1106,1101,1058,1058,1110,1110,1109,1059,1101,1057,1103,1060,1061,1106,1108,1109,641,642,642,642,686,686,1101,1102,1106,1106,1107,1057,1061,1102,1104,1104,1061,1102,1105,1104,1057,
1103,1107,1066,1105,1106,1058,1065,1105,1062,1063,1101,1064,1062,1066,1109,1104,1105,1064,1057,1106,1059,1102,1108,1059,1061,1063,1105,1057,1066,1105,1064,1106,1062,1058,1106,1063,1101,1066,1065,1060,1063,1062,1060,1061,1104,1066,1106,1106,1058,1059,1061,1107,1059,1108,1062,1110,1110,1060,1058,1064,1060,1063,1060,1104,1105,1110,1109,1108,1063,1065,1103,1110,1064,1063,1106,641,642,642,642,642,642,686,686,1104,1108,1106,1105,1064,1106,1060,1105,1057,1058,1062,1101,1065,1057,1104,1108,1058,
1105,1060,1063,1108,1064,1104,1105,1109,1057,1105,1064,1061,1106,1109,1063,1058,1058,1063,1061,1106,1064,1102,1109,1066,1104,1060,1064,1103,1063,1057,1105,1110,1057,1061,1062,1106,1058,1062,1101,1103,1102,1058,1101,1060,1066,1057,1107,1063,1060,1058,1107,1063,1107,1102,1059,1106,1065,1110,1110,1057,1105,1064,1063,1066,1101,1108,1107,1063,1109,1104,1064,641,642,642,642,642,642,686,686,686,686,1108,1065,1060,1061,1110,1105,1065,1103,1062,1104,1064,1110,1064,1064,1059,1101,1105,1066,1103,
1106,1064,1105,1108,1065,1065,1106,1065,1061,1066,1102,1101,1106,1064,1061,1059,1063,1066,1105,1109,1102,1102,1060,1101,1058,1060,1101,1058,1108,1060,1106,1060,1109,1064,1101,1063,1104,1058,1057,1103,1103,1102,1102,1106,1108,1101,1104,1061,1101,1108,1066,1063,1066,1061,1108,1059,1110,1104,1108,1107,1059,1106,1061,1065,1057,1106,641,642,642,642,642,642,686,686,686,686,686,1059,1102,1110,1103,1059,1065,1105,1061,1105,1105,1066,1107,1103,1064,1066,1065,1101,1106,1103,1058,1060,1063,1109,
1110,1107,1065,1061,1062,1057,1106,1103,1102,1101,1102,1103,1104,1101,1106,1109,1062,1063,1058,1109,1065,1109,1064,1061,1109,1109,617,618,619,620,621,622,1101,1062,1103,1062,1106,1064,1107,1066,1103,1101,1109,1110,1105,1057,1061,1104,1107,1109,1104,1110,1057,1057,1103,1107,1061,1110,1062,1107,1101,1104,1065,1062,641,642,642,686,686,686,686,686,1065,1107,1062,1109,1107,1103,1064,1108,1105,1062,1108,1110,1064,1061,1061,1059,1058,1059,1065,1059,1101,1107,1066,1104,1103,1063,1057,1110,
1109,1060,1065,1110,1063,1101,1062,1108,1063,1103,1109,1059,1064,1057,1064,1103,1102,1061,1103,1109,1109,1064,1106,1061,1062,1103,661,662,663,664,665,666,1105,1059,1106,1109,1059,1064,1103,1061,1109,1063,1061,1064,1104,1063,1058,1107,1064,1064,1109,1062,1057,1104,1065,1061,1059,1105,1062,1059,1105,1064,1060,641,642,686,686,1062,1060,1057,1064,1108,1109,1058,1066,1104,1066,1101,1062,1066,1059,1065,1065,1104,1110,1104,1061,1104,1103,1058,1064,1102,1108,1104,1063,1107,1104,1106,1102,1064,
1062,1065,1110,1063,1102,1107,1060,1105,1108,1062,1105,1106,1104,1059,1106,1101,1105,1060,1110,1101,1062,1108,1066,1103,1106,1102,705,706,707,708,709,710,1057,1109,1106,1102,1059,1060,1106,1101,1063,1059,1061,1104,1106,1103,1061,1058,1060,1109,1109,1061,1061,1105,1065,1066,1057,1057,1107,1106,1058,1106,1062,641,642,1109,1057,1110,1105,1101,1107,1109,1109,1060,1109,1110,1060,1106,1110,1061,1104,1057,1065,1104,1064,1063,1103,1060,1065,1060,1102,1062,1103,1066,1061,1110,1064,1102,1058,1102,
1065,1102,1107,1061,1108,1109,1061,1110,1060,1059,1060,1107,1063,1105,1066,1109,1063,1064,1057,1061,1063,1109,1063,1061,1107,1064,749,750,751,752,753,754,1109,1065,1059,1104,1062,1103,1107,1066,1064,1064,1062,1066,1101,1060,1102,1101,1102,1063,1103,1059,1064,1063,1063,1104,1060,1066,1110,1061,1102,1058,1103,641,642,1058,1106,1058,1064,1105,1060,1065,1106,1063,1108,1102,1103,1062,1108,1104,1109,1060,1107,1058,1059,1063,1065,1106,1102,1065,1064,1109,1101,1102,1062,1063,1058,1109,1104,1062,
1062,1062,1060,1058,1060,1102,1061,1103,1061,1058,1060,1110,1063,1110,1058,1061,1061,1101,1105,1065,1110,1109,1065,1110,1107,1061,793,794,795,796,797,798,1066,1060,1061,1063,1064,1065,1059,1103,1110,1063,1060,1109,1106,1108,1106,1105,1103,1063,1102,1062,1105,1064,1103,1063,1108,1060,1102,1057,1109,1066,1063,641,642,1110,1105,1063,1057,1064,1059,1063,1058,1102,1109,1105,1108,1064,1104,1065,1104,1106,1063,1057,1108,1107,1109,1057,1064,1060,1104,1064,1109,1106,1066,1061,1107,1061,1061,1108,
1101,1106,1102,1063,1106,1058,1061,1059,1105,1102,1063,1101,1060,1103,1108,1060,1105,1107,1103,1106,1102,1110,1108,1103,1101,1066,837,838,839,840,841,842,1109,1065,1057,1108,1059,1058,1058,1058,1110,1104,1104,1109,1103,1108,1102,1064,1106,1066,1059,1064,1109,1062,1057,1108,1104,1108,1104,1064,1064,1106,1059,641,641,642,1064,1109,1064,1064,1064,1059,1110,1101,1102,1064,1065,1108,1059,1103,1109,1063,1063,1061,1107,1062,1063,1060,1109,1109,1101,1061,1103,1101,1059,1059,1057,1106,1065,1103,
1101,1106,1101,1110,1108,1108,1102,1064,1063,1058,1057,1108,1060,1062,1106,1063,1110,1101,1062,1105,1062,1062,1104,1103,1059,1061,1060,1102,1058,1108,1105,1102,1106,1106,1105,1057,1059,1104,1058,1106,1066,1107,1101,1058,1059,1103,1059,1065,1108,1066,1107,1062,1060,1063,1102,1066,1065,1106,1064,1106,1107,1110,1101,685,641,642,1104,1062,1110,1110,1103,1109,1102,1109,1101,1064,1109,1110,1062,1101,1105,1106,1101,1065,1062,1104,1063,1064,1058,1107,1058,1060,1064,1063,1101,1108,1064,1102,1062,1066,
1065,1108,1106,1059,1104,1102,1057,1109,1107,1106,1061,1057,1062,1101,1064,1107,1110,1104,1107,1057,1065,1108,1063,1057,1057,1105,1064,1109,1064,1108,1063,1104,1066,1065,1066,1064,1062,1110,1101,1105,1061,1063,1064,1064,1108,1059,1109,1064,1110,1061,1065,1059,1060,1101,1109,1064,1110,1101,1110,1063,1104,1103,1062,1107,641,641,642,1064,1106,1108,1110,1105,1109,1062,1108,1060,1104,1110,1102,1106,1106,1057,1066,1104,1058,1109,1066,1062,1066,1104,1060,1101,1066,1109,1108,1104,1102,1107,1065,1064,
1057,1104,1101,1107,1103,1106,1108,1104,1057,1064,1109,1108,1109,1057,1059,1106,1109,1102,1063,1064,1060,1061,1105,1109,1104,1104,1063,1060,1107,1106,1064,1103,1061,1106,1059,1101,1066,1063,1108,1101,1062,1058,1109,1107,1106,1110,1110,1107,1057,1064,1060,1066,1103,1059,1110,1059,1063,1065,1107,1060,1106,1057,1059,1064,685,641,642,1060,1063,1105,1104,1107,1103,1057,1108,1103,1102,1063,1101,1110,1102,1108,1063,1061,1109,1101,1057,1057,1109,1102,1057,1064,1104,1066,1109,1059,1065,1066,1108,1063,
1066,1101,1061,1107,1059,1105,1110,1110,1104,1060,1060,1107,1107,1059,1060,1059,1066,1110,1103,1061,1108,1060,1060,1064,1066,1066,1102,1061,1107,1103,1104,1060,1101,1107,1066,1107,1107,1060,1104,1057,1103,1107,1108,1062,1103,1101,1058,1102,1064,1108,1066,1059,1064,1060,1102,1060,1102,1105,1107,1110,1102,1062,1062,1058,1103,641,642,1066,1108,1108,1059,1106,1108,1105,1058,1065,1057,1057,1064,1061,1107,1103,1107,1102,1106,1062,1060,1064,1104,1101,1110,1065,1064,1063,1105,1108,1060,1110,1108,1066,
1107,1058,1066,1102,1058,1107,1066,1066,1065,1102,1061,1063,1106,1107,1065,1063,1108,1065,1108,1106,1102,1063,1108,1066,1059,1108,1060,1061,1066,1104,1063,1101,1102,1057,1058,1101,1109,1057,1101,1103,1063,1057,1107,1057,1101,1102,1106,1058,1108,1106,1106,1060,1104,1102,1103,1058,1063,1064,1060,1110,1107,1060,1105,1106,1101,685,641,642,1103,1057,1102,1105,1057,1064,1063,1058,1106,1101,1066,1110,1103,1060,1104,617,618,619,620,621,622,1108,1102,1101,1105,1101,1110,1103,1064,1106,1106,1057,
1062,1063,1058,1110,1066,1103,1109,617,618,619,620,621,622,1110,1060,1108,1063,1107,1058,1059,1106,1060,1066,1060,1057,1058,1104,1101,1060,1102,1104,1107,1105,1109,1106,1061,1102,1106,1103,1064,1108,1108,1106,1103,1058,1066,1110,1101,1103,1108,1101,1103,1102,1107,1106,1060,1103,1063,1103,1066,1061,1062,1108,1059,1058,1060,641,642,1058,1105,1065,1104,1106,1063,1105,1062,1103,1065,1107,1105,1063,1105,1061,661,662,663,664,665,666,1060,1110,1105,1101,1057,1058,1060,1108,1109,1063,1101,
1107,1105,1108,1106,1105,1058,1103,661,662,663,664,665,666,1063,1106,1061,1101,1058,1109,1102,1109,1065,1108,1107,1109,1058,1058,1104,1062,1106,1057,1102,1101,1065,1103,1059,1066,1064,1101,1063,1063,1059,1105,1104,617,618,619,620,621,622,1061,1104,1106,1065,1065,1058,1107,1060,1060,1060,1061,1105,1106,1107,1104,1061,641,642,1060,1104,1106,1102,1105,1058,1104,1110,1061,1066,1066,1062,1108,1060,1107,705,706,707,708,709,710,1102,1101,1059,1109,1058,1109,1059,1102,1063,1064,1061,
1059,1107,1103,1065,1063,1061,1109,705,706,707,708,709,710,1064,1062,1104,1107,1107,1058,1058,1064,1103,1104,1108,1060,1066,1101,1060,1058,1101,1061,1105,1060,1066,1110,1102,1058,1105,1102,1108,1106,1059,1060,1103,661,662,663,664,665,666,1104,1107,1101,1104,1109,1101,1057,1107,1066,1061,1109,1101,1057,1059,1104,1061,641,642,1105,1061,1065,1066,1059,1062,1108,1105,1061,1061,1060,1057,1064,1101,1107,749,750,751,752,753,754,1061,1064,1103,1058,1065,1064,1064,1062,1063,1102,1057,
1109,1107,1106,1061,1060,1059,1062,749,750,751,752,753,754,1104,1108,1057,1059,1102,1060,1102,1063,1108,1106,1064,1058,1059,1104,1102,1064,1066,1057,1107,1104,1057,1061,1066,1103,1103,1102,1058,1062,1061,1063,1065,705,706,707,708,709,710,1107,1105,1062,1060,1101,1102,1110,1058,1061,1062,1061,1105,1059,1102,1058,1057,641,642,1057,1061,1064,1060,1062,1059,1104,1106,1064,1110,1059,1066,1109,1065,1058,793,794,795,796,797,798,1107,1106,1059,1104,1105,1058,1102,1060,1110,1110,1063,
1107,1061,1065,1059,1059,1058,1107,793,794,795,796,797,798,1105,1066,1104,1061,1060,1103,1062,1058,1102,1109,1064,1066,1063,1104,1106,1057,1058,1108,1066,1104,1059,1059,1106,1106,1057,1107,1105,1106,1066,1061,1102,749,750,751,752,753,754,1057,1066,1107,1110,1110,1102,1101,1109,1058,1101,1109,1110,1110,1059,1103,1066,641,642,1106,1066,1110,1062,1102,1058,1101,1064,1065,1058,1102,1103,1057,1065,1065,837,838,839,840,841,842,1108,1104,1057,1107,1065,1103,1110,1066,1110,1103,1108,
1061,1064,1107,1061,1064,1064,1057,837,838,839,840,841,842,1057,1107,1106,1103,1064,1065,1058,1105,1066,1102,1062,1061,1059,1060,1064,1104,1105,1062,1061,1104,1101,1058,1110,1109,1057,1064,1058,1107,1060,1066,1108,793,794,795,796,797,798,1058,1107,1105,1058,1064,1101,1058,1059,1104,1065,1061,1104,1106,1066,1105,1057,641,642,1107,1101,1102,1060,1106,1060,1110,1063,1066,1065,1102,1103,1109,1106,1106,1107,1060,1062,1106,1101,1058,1064,1058,1058,1064,1059,1059,1103,1057,1065,1110,1064,
1060,1105,1057,1061,1108,1066,1108,1060,1105,1108,1064,1065,1057,1059,1108,1109,1059,1105,1110,1062,1065,1107,1107,1102,1101,1108,1058,1110,1101,1105,1061,1066,1058,1064,1107,1109,1057,1102,1102,1105,1105,1057,1108,1105,837,838,839,840,841,842,1107,1064,1106,1063,1103,1101,1109,1064,1101,1057,1108,1107,1058,1105,1066,641,642,686,1065,1104,1059,1060,1104,1102,1065,1063,1064,1061,1102,1101,1107,1108,1066,1107,1106,1102,1102,1061,1057,1059,1057,1058,1064,1101,1104,1109,1058,1103,1058,1109,
1058,1107,1059,1107,1102,1101,1058,1101,1062,1062,1107,1063,1110,1060,1106,1066,1062,1061,1061,1058,1058,1110,1105,1066,1106,1104,1102,1057,1103,1107,1109,1108,1106,1108,1105,1110,1061,1059,1063,1104,1104,1103,1064,1110,1065,1102,1109,1058,1107,1061,1066,1103,1060,1105,1060,1062,1064,1065,1061,1102,1062,1103,1105,1108,1105,641,642,1103,1061,1104,1108,1101,1063,1057,1060,1106,1101,1106,1110,1102,1105,1065,1106,1107,1059,1063,1104,1062,1059,1106,1101,1060,1102,1060,1104,1106,1110,1064,1104,1065,
1106,1066,1103,1065,1057,1107,1060,1066,1057,1057,1065,1059,1110,1107,1110,1102,1064,1105,1061,1062,1060,1102,1062,1058,1060,1106,1106,1109,1059,1104,1058,1104,1066,1107,1108,1106,1104,1063,1066,1062,1108,1105,1062,1104,1109,1104,1066,1102,1062,1064,1107,1060,1101,1062,1101,1106,1105,1110,1107,1103,1060,1104,1057,641,642,642,642,1106,1101,1059,1104,1101,1110,1060,1107,1102,1105,1065,1107,1065,1059,1057,1061,1065,1106,1063,1065,1066,1106,1063,1110,1062,1061,1060,1064,1103,1110,1103,1106,1103,
1064,1062,1066,1103,1057,1104,1062,1064,1066,1061,1106,1106,1101,1058,1102,1106,1064,1059,1104,1106,1107,1105,1057,1059,1057,1107,1101,1104,1109,1064,1058,1110,1102,1102,1108,1062,1063,1108,1064,1110,1102,1058,1059,1063,1110,1065,1110,1104,1109,1065,1108,1065,1108,1064,1059,1062,1108,1110,1057,1057,1104,641,642,642,642,686,686,1060,1059,1109,1109,1065,1063,1107,1063,1061,1062,1064,1064,1104,1059,1104,1107,1060,1102,1058,1109,1066,1061,1110,1101,1066,1108,1110,1058,1061,1101,1105,1060,1107,
1109,1103,1101,1066,1065,1104,1106,1102,1065,1108,1110,1060,1059,1103,1105,1061,1059,1102,1064,1109,1059,1065,1062,1057,1060,1105,1102,1062,1102,1109,1108,1101,1101,1107,1107,1063,1109,1060,1058,1061,1109,1061,1062,1102,1105,1101,1064,1060,1062,1104,1063,1104,1105,1102,1057,1105,1062,1102,1057,641,642,642,642,686,686,1104,1063,1057,1059,1059,1107,1057,1061,1066,1063,1108,1106,1065,1062,1108,1058,1059,1066,1059,1106,1104,1061,1060,1063,1110,1101,1104,1059,1106,1063,1108,1063,1107,1104,1110,
1102,1065,1061,1065,1058,1057,1064,1101,1065,1106,1062,1059,1107,1061,1058,1063,1058,1110,1108,1057,1109,1110,1105,1064,1059,1066,1105,1058,1101,1104,1105,1066,1059,1063,1109,1060,1110,1106,1104,1109,1058,1106,1058,1057,1103,1103,1066,1102,1109,1105,1101,1106,1105,1102,1108,1107,1058,1105,641,642,642,686,686,1103,1110,1108,1063,1106,1105,1058,1106,1102,1059,1102,1059,1105,1101,1104,1064,1104,1109,1102,1106,1059,1101,1103,1064,1060,1110,1106,1101,1066,1059,1106,1061,1102,1062,1058,1106,1108,
1102,1104,1106,1103,1105,1102,1110,1108,1058,1108,1062,1103,1106,1106,1063,1065,1058,1066,1059,1107,1104,1103,1060,1104,1066,1105,1109,1059,1107,1106,1101,1107,1110,1110,1060,1108,1057,1107,641,641,641,641,641,641,641,641,642,1065,1101,1062,1105,1101,1104,1057,1105,1058,1110,641,642,642,686,1110,1061,1060,1106,1101,1062,1106,1057,1062,1104,1061,1102,1063,1110,1105,1062,1105,1107,1059,1059,1065,1102,1105,1106,1110,1105,1062,1062,1105,1101,1060,1106,1107,1061,1106,1058,1106,1106,1110,
1064,1103,1062,1059,1104,1064,1108,1103,1108,1063,1101,1108,1104,1109,1104,1101,1105,1103,1103,1065,1108,1108,1058,1064,1110,1104,1061,1109,1106,1065,1103,1102,641,641,641,641,641,641,685,685,685,685,685,685,685,685,641,641,642,1059,1066,1103,1058,1066,1101,1105,641,642,642,686,1063,1102,1108,1059,1066,1061,1057,1109,1109,1059,1104,1110,1105,1110,1103,1063,1102,1106,1110,1102,1057,1065,1106,1064,1102,1101,1062,1101,1057,1104,1104,1063,1059,1108,1109,1065,1102,1059,1065,1109,
1066,1105,1106,1063,1061,1060,1103,1106,1101,1059,1063,1103,1105,1065,1105,1108,1110,1064,1105,1066,1102,1062,1106,1104,1103,1064,1106,1058,1062,1102,641,641,685,685,685,685,685,685,686,1062,1059,1108,1108,1059,1062,1102,685,641,641,642,1063,1106,1066,1103,641,642,642,642,686,1063,1060,1062,1063,1104,1059,1059,1105,1108,1066,1058,1105,1102,1106,1102,1108,1064,1057,1106,1058,1058,1107,1061,1107,1110,1060,1060,1066,1062,1101,1108,1105,1064,1065,1060,1105,1110,1108,1059,1105,1110,
1058,1066,1065,1064,1109,1106,1058,1060,1058,1103,1063,1106,1064,1058,1063,1106,1105,1105,1110,1062,1060,1063,1103,1104,1065,1106,1107,1060,641,641,685,685,685,686,1104,1063,1109,1107,1106,1105,1108,1059,1062,1105,1108,1064,1066,685,641,642,1110,1061,641,642,642,642,686,686,1104,1058,1102,1062,1063,1057,1059,1066,1061,1065,1066,1059,1108,1101,1101,1101,1058,1101,1103,1107,1104,1063,1102,1105,1107,1104,1059,1062,1109,617,618,619,620,621,622,1062,1065,1105,1064,1058,1066,1059,
1066,1110,1103,1065,1109,1057,1109,1109,1065,1065,1107,1104,1064,1065,1105,1109,1061,1064,1060,1104,1105,1062,1109,1104,1104,1109,641,641,685,685,686,1058,1107,1101,1061,1108,1107,1109,1062,1058,1063,1064,1062,1066,1110,1058,1105,1102,641,642,1101,641,642,642,686,686,1104,1063,1105,1065,1059,1063,1103,1060,1107,1106,1104,1060,1105,1102,1064,1064,1110,1058,1104,1103,1057,1057,1063,1058,1103,1104,1106,1101,1062,1106,1061,661,662,663,664,665,666,1102,1059,1063,1108,1065,1058,1103,
1109,1063,1066,1110,1062,1106,1064,1064,1064,1065,1105,1060,1105,1103,1103,1101,1104,1105,1060,1102,1105,1057,1063,1109,641,641,685,685,685,686,1057,1102,1059,1061,1102,1065,1103,1101,1109,1057,1104,1104,1061,1063,1107,1060,1066,1101,641,642,641,642,642,686,1063,1110,1103,1109,1108,1063,1065,1063,1061,1104,1109,1102,1101,1106,1063,1103,1104,1102,1058,1110,1065,1104,1066,1108,1057,1104,1066,1060,1102,1106,1109,1106,1102,705,706,707,708,709,710,1109,1058,1107,1106,1102,1066,1059,
1103,1062,1109,1060,1065,1109,1057,1103,1105,1107,1104,1057,1060,1058,1061,1066,1109,1105,1107,1103,641,641,641,641,685,685,686,1066,1065,1057,1059,1062,1065,1105,1108,1058,1062,1063,1104,1065,1058,1060,1063,1057,1104,1059,1104,1110,685,641,641,642,686,1062,1102,1106,1061,1058,1106,1058,1065,1065,1064,1057,1063,1105,1060,1061,1062,1057,617,618,619,620,621,622,1060,1064,1103,1058,1110,1108,1106,1057,1107,1062,1110,749,750,751,752,753,754,1061,1110,1110,1059,1065,1104,1105,
1063,1063,1106,1106,1104,1066,1106,1101,1064,1104,1064,1108,1103,1060,1106,1102,1059,641,641,641,685,685,685,685,686,1104,1102,1063,1063,1065,1110,1058,1063,1110,1057,1060,1105,1102,1104,1061,1059,1107,1064,1060,1102,1059,1108,1108,1062,641,641,642,1057,1105,1066,1101,1059,1064,1110,1062,1101,1058,1062,1103,1103,1064,1066,1109,1060,1062,661,662,663,664,665,666,1060,1105,1107,1060,1058,1104,1108,1060,1057,1058,1062,793,794,795,796,797,798,1057,1063,1065,1106,1109,1066,1064,
1105,1065,1107,1065,1061,1108,1063,1110,1110,1103,1109,1058,1101,1103,1102,641,641,685,685,685,686,1108,1066,1106,1107,1059,1106,1065,1106,1063,1065,1110,1061,1058,1065,1107,1057,1103,1107,1110,1058,1060,1058,1109,1065,1057,1103,1064,1063,641,641,642,1057,1059,1109,1061,1061,1107,1063,1065,1105,1104,1110,1059,1060,1060,1062,1107,1106,1066,705,706,707,708,709,710,1060,1104,1061,1057,1107,1062,1106,1105,1060,1105,1101,837,838,839,840,841,842,1065,1062,1101,1106,1101,1058,1106,
1066,1059,1065,1060,1105,1104,1057,1104,1059,1106,1058,1107,1106,641,641,685,685,686,1058,1062,1057,1058,1057,1063,1060,1103,1105,1066,1105,1058,1058,1102,1057,1101,1066,1066,1064,1103,1101,1058,1106,1058,1066,1063,1101,1058,1104,1106,641,642,641,642,1062,1063,1062,1104,1110,1109,1106,1101,1060,1105,1104,1062,1102,1101,1102,1108,1110,1060,749,750,751,752,753,754,1110,1104,1062,1104,1102,1064,1109,1057,1063,1104,1108,1063,1105,1060,1101,1062,1102,1059,1104,1103,1060,1110,1103,1109,
1104,1063,1057,1064,1065,1109,1066,1109,1103,1063,1106,641,641,685,685,685,686,1065,1110,1104,1101,1063,1104,1059,1103,1109,1103,1105,1105,1066,1106,1105,1062,1060,1057,1058,1064,1062,1110,1064,1059,1059,1065,1105,1061,1101,1102,1057,641,641,642,642,1103,1107,1102,1109,1110,1065,1066,1101,1107,1104,1106,1103,1106,1065,1062,1065,1060,1065,793,794,795,796,797,798,1057,1061,1064,1107,1107,1108,1106,1103,1103,1105,1064,1110,1059,1104,1109,1064,1104,1062,1058,1066,1110,1110,1059,1057,
1108,1064,1105,1108,1109,1108,1063,1108,641,641,641,685,685,685,686,1104,1058,1106,1066,1109,1108,1066,1065,1066,1103,1104,1103,1060,1103,1061,1110,1109,1058,1108,1060,1059,1103,1106,1103,1063,1063,1064,1063,1064,1101,1059,1104,641,641,642,642,686,1108,1105,1066,1104,1103,1058,1065,1109,1104,1108,1057,1105,1065,1101,1064,1103,1065,1057,837,838,839,840,841,842,1103,1108,1101,1107,1101,1065,1063,1061,1060,1057,1058,1110,1066,1064,1065,1061,1102,1110,1061,1102,1108,1065,1103,1060,
1108,1110,1065,1064,641,641,641,641,685,685,685,685,686,1102,1061,1064,1061,1059,1109,1103,1057,1063,1059,1104,1107,1060,1108,1059,1057,617,618,619,620,621,622,1058,1107,1108,1061,1101,1106,1110,1106,1064,1109,1104,1103,641,685,686,686,1104,1102,1109,1059,1065,1105,1104,1108,1110,1103,1102,1057,1107,1105,1057,1059,1063,1105,1064,1102,1108,1061,1063,1059,1106,1064,1101,1106,1063,1057,1064,1104,1109,1104,1057,1065,1059,1066,1063,1106,1066,1061,1060,1057,1108,1108,1101,1058,1060,
1105,1102,641,641,685,685,685,685,686,1057,1105,1106,1109,1102,1103,1061,1101,1109,1064,1106,1103,1064,1110,1058,1105,1105,1108,1061,1062,661,662,663,664,665,666,1065,1064,1102,1104,1064,1106,1108,1064,1101,1101,1108,641,642,642,1107,1063,1060,1063,1108,1065,1109,1058,1062,1107,1057,1057,1110,1104,1064,1058,1061,1062,1062,1063,1107,1060,1106,1059,1104,1061,1107,1064,1057,1064,1059,1106,1066,1106,1057,1061,1109,1106,1110,1057,1064,1062,1107,1057,1059,1062,1057,1060,1059,1058,1065,
641,641,685,685,685,686,1065,1105,1110,1058,1060,1103,1108,1058,1108,1105,1060,1107,1109,1102,1065,1066,1107,1105,1066,1061,1104,1061,1066,705,706,707,708,709,710,1110,1105,1103,1060,1060,1101,1107,1103,1062,1110,1060,641,642,686,1059,1106,1105,1057,1102,1058,1110,1101,1103,1061,1105,1062,1108,1063,1063,1107,1059,1102,1066,1058,1060,1106,1103,1057,1057,1110,1064,1065,1109,1061,1103,1103,1066,1059,1065,1065,1063,1105,1060,1066,1110,1103,1109,1057,1109,1107,1104,1060,1110,1061,1059,
685,685,686,1108,1058,1103,1059,1109,1103,1103,1057,1101,1066,1110,1060,1057,1109,1106,1062,1103,1061,1110,1101,1066,1061,1064,1107,1108,1065,749,750,751,752,753,754,1060,1065,1061,1058,1105,1060,1066,1060,1065,1104,1103,641,642,1061,1105,1105,1063,1105,1062,1065,1102,1107,1057,1103,1058,1061,1062,1101,1110,1107,1109,1060,1065,1110,1110,1058,1102,1061,1105,1057,1107,1109,1066,1110,1060,1058,1103,1061,1063,1061,1061,1110,1101,1107,1059,1105,1110,1064,1060,1059,1102,1065,1063,1108,1106,
685,686,1102,1101,1061,1103,1060,1105,1105,1066,1062,1106,1065,1102,1109,1105,1107,1108,1106,1110,1057,1059,1109,1105,1104,1061,1058,1058,1101,793,794,795,796,797,798,1058,1062,1104,1060,1066,1105,1102,1065,1063,1105,1058,641,642,1058,1108,1107,1065,1061,1058,1061,1064,1057,1104,1109,1104,1065,1064,1108,1106,1106,1109,1104,1063,1104,1109,1060,1066,1108,1060,1101,1101,1061,1107,1109,1105,1104,1108,1103,1109,1102,1107,1062,1104,1059,1058,1066,1061,1106,1063,1057,1065,1058,1058,1102,1061,
1102,1065,1063,1106,1102,1107,1058,1065,1064,1060,1108,1060,1066,1058,1057,1106,1101,1060,1063,1110,1057,1101,1110,1057,1066,1106,1103,1058,1103,837,838,839,840,841,842,1066,1105,1110,1060,1063,1066,1108,1057,1060,1062,1062,641,642,1062,1063,1103,1102,1063,1105,1103,1108,1107,1057,1110,1063,1101,1104,1065,1058,1107,1059,1108,1103,1057,1108,1104,1104,1109,1106,1107,1061,1059,1108,1059,1063,1107,1110,1110,1105,1063,1064,1057,1060,1063,1105,1106,1103,1109,1106,1107,1065,1058,1108,1058,1102,
1108,1105,1108,1063,1107,1061,1106,1109,1108,1063,1063,1109,1101,1065,1058,1062,1102,1108,1106,1060,1057,1103,1101,1107,1063,1104,1064,1058,1106,1110,1102,1110,1064,1066,1106,1104,1062,1061,1066,1059,1104,1104,1107,1064,1057,1109,641,642,1064,1064,1057,1066,1065,1060,1109,1063,1064,1065,1057,1061,1058,1107,1107,1059,1058,1102,1102,1058,1057,1060,1110,1060,1064,1062,1062,1106,1110,1110,1061,1101,1061,1104,1103,1109,1104,1065,1103,1059,1107,1108,1103,1105,1107,1103,1057,1063,1059,1066,1062,1105,
1107,1058,1059,1059,1064,1061,1061,1103,1058,1108,1064,1102,1062,1110,1057,1065,1066,1102,1059,1059,1063,1107,1061,1103,1110,1058,1059,1106,1062,1104,1057,1104,1066,1107,1103,1063,1104,1062,1059,1104,1058,1062,1066,1101,1057,1104,685,641,642,1065,1057,1104,1065,1105,1065,1064,1101,1104,1106,1061,1059,1102,1110,1107,1061,1065,1064,1065,1104,1058,1102,1104,1110,1062,1066,1057,1064,1110,1058,1104,1064,1104,1061,1106,1059,1058,1110,1109,1065,1108,1108,1109,1103,1101,1107,1108,1105,1061,1061,1103,
1060,1060,1103,1061,617,618,619,620,621,622,1059,1105,1064,1101,1104,1058,1103,1104,1101,1058,1059,1105,1103,1063,1106,1060,1064,1065,1102,1057,1110,1101,1108,1065,1066,1066,1105,1105,1107,1065,1066,1108,1059,1106,1104,1104,1105,641,641,641,642,1104,1061,1108,1105,1104,1107,1059,1109,1064,1110,1107,1103,1106,1065,1065,1110,1101,1060,1101,1103,1060,1102,1104,1064,1107,1063,1062,1057,1063,1103,1101,1108,1058,617,618,619,620,621,622,1064,1103,1066,1109,1101,1106,1102,1064,1059,1057,
1064,1108,1060,1103,661,662,663,664,665,666,1066,1103,1058,1066,1060,1103,1101,1066,1060,1106,1102,1057,1101,1057,1110,1109,1061,1062,1110,1102,1108,1101,1101,1104,1063,1057,1058,1108,1105,1058,1110,1109,1101,1064,1066,1108,1065,685,685,641,641,641,641,641,641,641,642,1103,1060,1110,1109,1101,1107,1102,1108,1105,1103,1063,1109,1059,1110,1109,1108,1061,1109,1101,1065,1057,1105,1065,1063,1062,1110,1107,661,662,663,664,665,666,1105,1065,1066,1104,1058,1103,1057,1057,1107,1109,
1066,1057,1057,1106,705,706,707,708,709,710,1102,1102,1062,1059,1065,1057,1108,1108,1059,1110,1110,1066,1105,1106,1066,1109,1104,1063,1106,1106,1064,1057,1104,1065,1063,1066,1105,1107,1110,1105,1063,1109,1110,1101,1066,1104,1105,1059,1101,685,685,685,685,685,685,685,641,641,641,641,641,642,1065,1105,1058,1058,1057,1060,1103,1110,1066,1060,1060,1060,1103,1058,1063,1059,1066,1106,1104,1104,1064,1109,705,706,707,708,709,710,1108,1103,1061,1107,1058,1061,1062,1065,1105,1063,
1064,1104,1066,1108,749,750,751,752,753,754,1109,1102,1061,1059,1108,1109,1110,1101,1061,1065,1059,1102,1058,1101,1059,1105,1104,1062,1110,1104,1108,1103,1109,1057,1059,1105,1061,1102,1104,1110,1108,1059,1106,1101,1101,1066,1063,1066,1066,1057,1102,1066,1060,1062,1060,1108,685,685,685,685,641,641,642,1058,1057,1108,1104,1061,1105,1104,1102,1065,1106,1109,1104,1066,1058,1102,1105,1058,1059,1105,1059,1059,749,750,751,752,753,754,1105,1063,1065,1103,1065,1057,1107,1107,1066,1058,
1064,1065,1108,1109,793,794,795,796,797,798,1109,1104,1101,1105,1061,1060,1102,1101,1104,1107,1108,1062,1109,1060,1062,1106,1062,1101,1059,1102,1106,1066,1057,1105,1058,1062,1061,1060,1109,1109,1104,1105,1059,1065,1101,1065,1065,1065,1063,1066,1066,1060,1101,1066,1103,1102,1101,1065,1065,1103,685,641,641,642,1061,1107,1063,1106,1101,1061,1109,1066,1107,1109,1109,1110,1065,1104,1110,1060,1104,1066,1104,1108,793,794,795,796,797,798,1106,1065,1059,1062,1110,1101,1059,1064,1062,1110,
1101,1110,1059,1109,837,838,839,840,841,842,1066,1063,1110,1104,1060,1063,1104,1059,1060,1059,1108,1103,1105,1107,1103,1059,1057,1066,1104,1057,1065,1058,1066,1060,1104,1102,1109,1065,1057,1061,1066,1109,1060,1060,1064,1103,1102,1057,1060,1065,1063,1110,1066,1104,1106,1102,1107,1110,1066,1064,1103,685,641,641,641,642,1062,1102,1065,1060,1065,1108,1064,1059,1106,1109,1064,1058,1110,1105,1059,1103,1066,1064,837,838,839,840,841,842,1061,1104,1109,1059,1059,1104,1110,1110,1103,1101,
1063,1059,1102,1058,1110,1063,1061,1060,1066,1101,1104,1058,1103,1109,1063,1065,1103,1102,1062,1105,1057,1108,1104,1062,1102,1101,1065,1106,1061,1101,1103,1059,1105,1101,1106,1108,1104,1060,1062,1060,1061,1062,1108,1063,1060,1058,1057,1061,1057,1061,1057,1103,1103,1062,1057,1110,1106,1102,1107,1063,1065,1107,685,685,641,641,642,1103,1057,1104,1107,1103,1110,1065,1063,1108,1108,1059,1057,1062,1103,1106,1057,1060,1057,1101,1061,1109,1102,1103,1105,1057,1063,1057,1105,1063,1102,1057,1062,1109,
1065,1107,1106,1104,1106,1062,1064,1110,1108,1102,1066,1109,1064,1061,1105,1102,1105,1108,1061,1064,1058,1103,1106,1065,1107,1061,1059,1108,1105,1110,1066,1101,1101,1108,1066,1108,1061,1105,1105,1064,1058,1106,1062,1058,1064,1105,1064,1101,1107,1064,1064,1105,1065,1110,1066,1109,1106,1061,1108,1102,1066,1109,1061,1109,685,641,641,641,642,1057,1066,1058,1108,1059,1061,1062,1104,1108,1104,1102,1106,1063,1065,1058,1102,1060,1104,1102,1061,1106,1105,1101,1103,1063,1063,1101,1060,1066,1063,1065,
1107,1108,1101,1110,1063,1107,1107,1109,1109,1110,1104,1058,1101,1107,1064,1108,1108,1106,1110,1102,1059,1059,1105,1110,1058,1103,1108,1057,1103,1103,1103,1103,1063,1106,1065,1060,1104,1064,1108,1107,1107,1061,1065,1057,1066,1058,1063,1061,1059,1061,1102,1061,1064,1105,1106,1102,1063,1109,1101,1110,1102,1058,1063,1062,1059,685,685,641,641,642,1106,1061,1066,1107,1058,1103,1110,1060,1058,1105,1107,1106,1101,1062,1107,1062,1103,1057,1110,1104,1059,1057,1058,1101,1057,1057,1102,1106,1102,1109,
1104,1104,1060,1063,1109,1066,1101,1066,1106,1105,1063,1062,1102,1109,1109,1061,1106,1058,1101,1059,1061,1060,1058,1101,1101,1064,1110,1109,1109,1058,1106,1104,1058,1057,1059,1103,1061,1103,1066,1109,1109,1063,1057,1108,1108,1105,1109,1060,1106,1102,1061,1107,1103,1066,1058,1103,1059,1060,1057,1101,1104,1065,1066,1059,1065,1101,1110,685,641,642,1063,1062,1057,1059,1060,1101,1065,1066,1064,1110,1061,1058,1107,1059,1063,1101,1057,1105,1064,1058,1102,1107,1110,1064,1105,1057,1060,1101,1066,1101,
1106,1104,1101,1102,1063,1110,1109,1109,1059,1103,1109,1063,1065,1106,1060,1059,1106,1107,1102,1059,1104,1062,1109,1107,1101,1105,1060,1101,1103,1066,1062,1064,1110,1106,1101,1110,1062,1063,1101,1105,1105,1108,1108,1102,1110,1101,1104,1103,1062,1057,1106,1059,1101,1103,1059,1063,1110,1102,1102,1109,1109,1101,1066,1066,1104,1057,1064,1059,641,642,1107,1104,1059,1108,1060,1105,1057,1107,1107,1060,1060,1060,1065,1103,1058,1110,1066,1060,1105,1109,1101,1065,1061,1105,1065,1109,1057,1108,1109,1063,
1065,1060,1109,1108,1066,1105,1104,1061,1101,1066,1106,1063,1058,1103,1066,1110,1061,1106,1060,1061,1109,1104,1105,1109,1109,1103,1062,1109,1102,1106,1103,1103,1065,1101,1105,1058,1066,1063,1058,1109,1061,1064,1102,1058,1104,1103,1057,1102,1065,1060,1109,1103,1059,1108,1104,1103,1061,1103,1102,1057,1104,1066,1064,1106,1058,1060,1109,1062,685,641,642,1105,1101,1107,1107,1066,1060,1065,1109,1109,1108,1064,1066,1058,1062,1106,1058,1058,1106,1065,1063,1103,1102,1101,1103,1064,1110,1104,1063,1107,
1065,1063,1103,1107,1101,1106,1061,1060,1101,1106,1060,1102,1106,1065,1060,1059,1106,1066,1107,1102,1061,1106,1109,1109,1066,1059,1066,1106,1108,1104,1105,1105,1063,1061,1106,1104,1103,1060,1108,1108,1103,1103,1064,1062,1102,1066,1061,1109,1110,1109,1059,1064,1060,1061,1106,1106,1109,1104,1106,1061,1107,1106,1063,1102,1105,1058,1059,1107,1065,641,642,1109,1064,1110,1102,1062,1108,1102,1059,1062,1061,1106,1108,1106,1101,1063,1060,1101,1064,1061,1110,1057,1065,1061,1101,1066,1064,1064,1057,1059,
1064,1102,1110,1062,1104,1059,1059,1107,617,618,619,620,621,622,1058,1066,1107,1065,1065,1064,1066,1104,1060,1109,1102,1103,1057,1060,1103,1102,1064,1058,1109,1106,1105,1106,1101,1109,1103,1108,1057,1102,1110,1106,1058,1106,1102,1104,1066,1061,1103,1063,1105,1102,1065,1057,1107,1106,1109,1106,1105,1058,1059,1106,1060,1060,1105,1066,1109,641,642,1101,1110,1102,1106,1063,1103,1060,1059,1104,1062,1060,1110,1109,1065,1101,1065,1063,1110,1108,1066,1106,1104,1110,1066,1109,1107,1057,1103,1103,
1110,1059,1057,1101,1101,1109,1101,1062,661,662,663,664,665,666,1062,1105,1105,1110,1064,1106,1058,1065,1066,1060,1110,1107,1057,1107,1064,1065,617,618,619,620,621,622,1101,1063,1060,1103,1062,1061,1102,1109,1059,1057,1065,1057,1102,1108,1101,1060,1103,1065,1064,1101,1057,1104,1104,1058,1108,1060,1061,1064,1057,1064,1106,1107,1106,641,641,642,1102,1057,1066,1065,1103,1103,1106,1104,1108,1110,1057,1109,1105,1058,1104,1110,1064,1108,1064,1105,1066,1105,1063,1109,1065,1060,1108,1058,
1108,1066,1103,1066,1107,1062,1106,1066,705,706,707,708,709,710,1101,1057,1064,1103,1103,1059,1064,1065,1110,1061,1058,1059,1062,1061,1064,1066,661,662,663,664,665,666,1109,1058,1101,1061,1110,1109,1065,1058,1063,1066,1058,1057,1107,1105,1058,1064,1109,1102,1063,1058,1063,1102,1060,1058,1057,1064,1102,1060,1105,1063,1063,1104,1101,685,641,642,1058,1104,1106,1110,1066,1109,1064,1063,1109,1064,1105,1061,1101,1106,1106,1106,1064,1064,1106,1065,1104,1107,1105,1063,1062,1102,1065,1065,
1102,1058,1102,1059,1103,1105,1066,1062,749,750,751,752,753,754,1062,1066,1108,1063,1057,1057,1060,1063,1108,1060,1102,1063,1106,1101,1105,1064,705,706,707,708,709,710,1066,1104,1101,1065,1060,1105,1065,1107,1107,1065,1062,1061,1066,1057,1106,1062,1066,1105,1107,1059,1059,1103,1066,1063,1064,1103,1064,1063,1106,1059,1058,1064,1065,1103,685,641,642,1103,1109,1064,1066,1107,1062,1059,1107,1104,1110,1058,1106,1110,1057,1059,1108,1062,1101,1066,1105,1060,1107,1104,1062,1106,1102,1060,
1106,1059,1103,1064,1058,1106,1061,1058,793,794,795,796,797,798,1104,1062,1110,1062,1109,1108,1058,1061,1065,1105,1105,1062,1061,1066,1060,1060,749,750,751,752,753,754,1066,1062,1059,1062,1065,1108,1057,1059,1109,1062,1104,1101,1060,1103,1104,1061,1105,1061,1104,1101,1059,1064,1058,1063,1108,1103,1105,1063,1066,1105,1104,1061,1107,1062,1059,641,641,642,1110,1109,1062,1105,1064,1105,1063,1061,1058,1064,1058,1107,1101,1108,1106,1102,1058,1108,1063,1062,1104,1107,1063,1057,1058,1064,
1105,1059,1059,1064,1104,1102,1104,1103,837,838,839,840,841,842,1107,1105,1105,1065,1106,1102,1101,1058,1101,1059,1105,1110,1101,1057,1110,1063,793,794,795,796,797,798,1105,1066,1060,1059,1061,1106,1064,1104,1060,1109,1104,1107,1107,1060,1060,1105,1062,1101,1108,1061,1104,1057,1060,1057,1062,1059,1063,1063,1064,1061,1058,1057,1065,1110,1058,685,641,641,642,1057,1058,1104,1058,1063,1063,1110,1061,1060,1058,1103,1101,1103,1101,1061,1065,1065,1063,1102,1102,1106,1103,1109,1061,1064,
1102,1109,1063,1105,1104,1110,1103,1062,1064,1110,1063,1107,1062,1064,1060,1103,1066,1110,1107,1110,1110,1065,1109,1110,1058,1060,1066,1104,1066,1063,837,838,839,840,841,842,1108,1060,1066,1109,1106,1101,1104,1101,1063,1106,1107,1057,1065,1107,1106,1109,1059,1063,1103,1101,1105,1105,1064,1107,1064,1065,1064,1063,1102,1104,1102,1110,1058,1059,1064,1059,685,685,641,641,642,1102,1066,1101,1103,1107,1062,1063,1108,1105,1058,1108,1105,1102,1102,1101,1063,1109,1106,1107,1066,1061,1066,1110,
1101,1107,1109,1110,1058,1059,1104,1060,1066,1062,1066,1057,1066,1057,1066,1066,1066,1103,1061,1063,1110,1105,1060,1104,1060,1107,1061,1102,1062,1106,1065,1101,1108,1109,1059,1108,1058,1062,1108,1063,1060,1066,1058,1101,1103,1060,1062,1108,1104,1059,1103,1104,1109,1102,1063,1104,1107,1063,1105,1107,1065,1057,1110,1066,1103,1103,1104,1057,1058,1059,1061,1109,1101,1109,685,641,641,641,642,1065,1103,1102,1063,1105,1101,1059,1104,1057,1105,1059,1064,1102,1109,1062,1061,1103,1059,1060,1109,1058,
1110,1109,1059,1110,1106,1102,1057,1066,1061,1104,1057,1104,1061,1106,1066,1061,1104,1109,1106,1110,1061,1057,1062,1066,1061,1061,1108,1057,1064,1103,1103,1107,1059,1110,1106,1059,1064,1057,1104,1101,1065,1058,1109,1057,1110,1066,1065,1101,1104,1108,1063,1061,1104,1060,1101,1065,1057,1105,1105,1057,1106,1064,1105,1104,1060,1101,1062,1110,1106,1059,1106,1059,1062,1103,1058,685,685,641,641,641,642,1058,1110,1057,1107,1062,1061,1059,1105,1110,1109,1107,1061,1105,1108,1103,1107,1066,1103,1057,
1057,1101,1110,1062,1060,1057,1059,1108,1106,1060,1102,1104,1061,1064,1065,1102,1109,1065,1109,1101,1101,1106,1104,1102,1060,1063,1057,1060,1102,1101,1063,1062,1062,1108,1059,1108,1106,1058,1059,1063,1059,1109,1065,1066,1106,1108,1065,1105,1062,1066,1062,1062,1102,1104,1104,1109,1101,1062,1059,1062,1107,1106,1102,1104,1062,1101,1105,1102,1106,1105,1109,1058,1066,1103,1109,1110,1063,685,685,685,641,641,641,642,1101,1064,1105,1110,1059,1060,1066,1104,1102,1105,1062,1101,1058,1110,1061,1104,
1057,1107,1062,1110,1102,1059,1110,1107,1106,1106,1102,1103,1110,1105,1104,1106,1061,1065,1107,1105,1060,1102,1060,1106,1104,1109,1103,1063,1058,1104,1064,1110,1063,1065,1065,1102,1063,1101,1066,1066,1107,1059,1059,1066,1064,1062,1105,1108,1062,1107,1065,1060,1057,1059,1066,1109,1104,1063,1058,1057,1106,1106,1061,1105,1063,1062,1105,1065,1110,1106,1105,1066,1058,1058,1105,1110,1106,1104,1107,1109,685,685,641,641,642,1107,1107,1063,1065,1065,1101,1066,1066,1107,1107,1106,1062,1101,1066,1066,
1064,1109,1103,1102,1104,1060,1063,1108,1058,1060,1110,1057,1060,1110,1060,1060,1102,1106,1109,1063,1105,1105,1066,1110,1103,1103,1105,1063,1104,1066,1107,1109,1060,1107,1061,1065,1063,1063,1058,1058,1107,1110,1064,1065,1060,1065,1063,1059,1107,1060,1109,1065,1109,1060,1061,1101,1107,1104,1108,1061,1105,1065,1107,1105,1107,1108,1057,1101,1058,1061,1066,1057,1108,1104,1105,1058,1057,1060,1066,1104,1064,1105,685,641,641,642,1061,1110,1106,1105,1107,1066,1062,1058,1108,1064,1103,1058,1062,1107,
1066,1107,1104,1110,1101,1108,1062,1110,1064,1103,1065,1060,1058,1063,1110,1057,1101,1108,1063,1060,1061,1061,1064,1107,1102,1110,1102,1057,1104,1059,1109,1109,1060,1063,1102,1106,1063,1058,1065,1058,1065,1059,1108,1109,1062,1102,1063,1104,1110,1106,1063,1065,1109,1063,1064,1108,1105,1066,1105,1061,1066,1058,1108,1103,1058,1060,1064,1108,1110,1105,1101,1110,1106,1102,1110,1065,1063,1107,1057,1060,1066,1066,1105,685,641,641,641,642,1065,1108,1106,1064,1063,1063,1103,1109,1101,1105,1109,1066,
1108,1065,1109,1057,1064,1102,1061,1057,1061,1109,1063,1104,1063,1062,1102,1103,1060,1064,1060,1110,1065,1105,1107,1064,1108,1110,1064,1057,1104,1106,1059,1105,1102,1107,1108,1104,1062,1060,1108,1060,1107,1057,1065,1061,1058,1102,1108,1065,1104,1105,1061,1105,617,618,619,620,621,622,1106,1109,1057,1062,1108,1060,1106,1063,1101,1104,1064,1057,1066,1109,1064,1059,1104,1060,1062,1106,1106,1101,1103,1066,1105,1059,685,685,641,641,642,1102,1063,1058,1109,1104,1105,1059,1108,1106,1062,1105,
1107,1064,1066,1107,1108,1110,1109,1060,1105,1110,1066,1060,1057,1105,1057,1104,1107,1060,1106,1061,1060,1101,1102,1060,1062,1108,1106,1060,1103,1104,1065,1101,1109,1058,1110,1066,1102,1110,1109,1109,1065,1058,1108,1058,1104,1065,1109,1064,1101,1062,1061,1061,661,662,663,664,665,666,1061,1059,1066,1065,1061,1101,1109,1107,1109,1110,1065,1105,1107,1104,1064,1106,1058,1064,1106,1062,1065,1110,1066,1063,1060,1105,1066,1066,685,641,641,641,642,1065,1066,1062,1057,1107,1107,1060,1061,1061,
1107,1058,1060,1066,1059,1101,1107,1107,1101,1104,1109,1059,1060,1105,1107,1066,1110,1062,1064,1057,1065,1062,1102,1062,1063,1108,1062,1107,1106,1058,1108,1104,1066,1066,1061,1104,1101,1058,1065,1059,1066,1060,1107,1064,1106,1110,1058,1064,1105,1062,1106,1064,705,706,707,708,709,710,1110,1065,1106,1058,1105,1064,1106,1063,1064,1108,1106,1060,1103,1101,1110,1107,1063,1066,1066,1103,1106,1103,1102,1106,1108,1105,1103,1110,1057,685,685,641,642,1103,1066,1061,1108,1106,1062,1105,1102,1105,
1106,1106,1104,1110,1062,1102,1101,1060,1062,1102,1108,1110,1101,1103,1059,1066,1101,1066,1064,1061,1101,1102,1060,1058,1108,1064,1061,1109,1065,1062,1062,1105,1064,1060,1101,1065,1065,1064,1105,1063,1065,1061,1065,1060,1062,1065,1060,1102,1063,1061,1061,1101,749,750,751,752,753,754,1102,1065,1108,1061,1109,1058,1065,1102,1058,1103,1062,1061,1101,1104,1064,1108,1063,1101,1061,1062,1058,1107,1105,1060,1058,1105,1059,1058,1101,1057,1061,641,641,642,1106,1057,1106,1065,1062,1103,1057,1106,
1061,1105,1103,1064,1057,1106,1105,1110,1064,1108,1060,1059,1101,1108,1057,1062,1109,1104,1059,1102,1101,1101,1060,1066,1101,1105,1063,1102,1066,1058,1064,1105,1107,1062,1058,1066,1062,1109,1058,1063,1065,1066,1057,1104,1107,1108,1064,1108,1105,1103,1057,1065,793,794,795,796,797,798,1063,1108,1063,1059,1061,1061,1110,1104,1061,1102,1066,1065,1058,1060,1101,1103,1066,1102,1104,1062,1057,1059,1102,1107,1106,1108,1109,1106,1063,1063,1110,685,641,642,1062,1106,1058,1062,1058,1109,1105,1109,
1110,1057,1059,1104,1108,1109,1105,1105,1102,1108,1101,1063,1110,1101,1063,1102,1103,1062,1057,1061,1059,1058,1066,1066,1064,1066,1058,1057,1066,1110,1108,1106,1062,1060,1107,1110,617,618,619,620,621,622,1110,1101,1103,1107,1066,1061,1065,1061,1062,1058,837,838,839,840,841,842,1106,1060,1107,1101,1061,1104,1109,1103,1057,1065,1060,1058,1107,1062,1057,1065,1109,1064,1106,1057,1102,1063,1101,1057,1101,1104,1059,1103,1110,1058,1101,1061,641,641,642,1064,1066,1104,1107,1104,1108,1059,
1107,1060,1066,1065,1065,1063,1102,1101,1102,1102,1064,1062,1065,1105,1104,1101,1109,1103,1063,1101,1057,1059,1106,1061,1103,1102,1064,1065,1063,1064,1109,1103,1066,1109,1102,1101,661,662,663,664,665,666,1109,1065,1101,1106,1057,1110,1060,1106,1110,1064,1108,1108,1065,1110,1108,1057,1102,1057,1101,1109,1064,1065,1106,1105,1059,1103,1107,1061,1058,1060,1105,1057,1102,1109,1101,1065,1104,1109,1061,1064,1060,1061,1108,1059,1108,1110,1057,1066,685,685,641,642,1057,1058,1061,1063,1106,1105,
1105,1058,1062,1110,1062,1110,617,618,619,620,621,622,1103,1107,1061,1105,1057,1104,1058,1061,1108,1103,1060,1062,1066,1103,1104,1061,1104,1108,1110,1110,1105,1061,1103,1059,705,706,707,708,709,710,1065,1058,1066,1105,1110,1109,1066,1064,1107,1102,1062,1061,1058,1058,1107,1061,1108,1057,1108,1110,1065,1107,1107,1057,1062,1060,1109,1066,1103,1110,1066,1110,1103,1064,1108,1104,1103,1057,1108,1105,1106,1110,1060,1104,1066,1057,1060,1106,1058,1062,685,641,641,641,642,1058,1104,1057,
1065,1107,1064,1066,1107,1066,661,662,663,664,665,666,1109,1063,1062,1101,1062,1103,1063,1108,1065,1060,1101,1066,1110,1109,1102,1061,1102,1061,1108,1063,1059,1064,1062,1064,749,750,751,752,753,754,1104,1064,1110,1057,1109,1061,1101,1066,1108,1103,1109,1058,1108,1105,1059,1109,1057,1110,1057,1060,1060,1066,1058,1066,1108,1060,1102,1101,1109,1103,1106,1105,1104,1102,1062,1063,1063,1064,1063,1102,1101,1101,1063,1060,1110,1103,1063,1103,1105,1108,1101,685,685,641,641,642,1104,1102,
1060,1064,1057,1057,1059,1101,705,706,707,708,709,710,1103,1063,1063,1103,1103,1104,1061,1061,1105,1107,1058,1108,1110,1061,1110,1106,1101,1105,1065,1064,1060,1102,1106,1106,793,794,795,796,797,798,1103,1103,1066,1108,1108,1061,1104,1103,1101,1110,1109,1063,1058,1108,1109,1064,1110,1109,1064,1062,1102,1065,1058,1104,1060,1065,1104,1064,1107,1066,1059,1059,1062,1105,1065,1102,1108,1066,1108,1105,1103,1064,1059,1057,1062,1061,1060,1061,1103,1101,1065,1064,1104,685,641,642,1102,1102,
1066,1060,1065,1061,1057,1110,749,750,751,752,753,754,1062,1104,1061,1058,1110,1106,1059,1107,1104,1059,1059,1061,1058,1101,1107,1061,1066,1102,1110,1110,1060,1062,1101,1064,837,838,839,840,841,842,1057,1059,1110,1101,1064,1058,1101,1107,1110,1106,1057,1063,1065,1059,1102,1104,1057,1108,1060,1063,1103,1104,1104,1059,1059,1061,1058,1062,1107,1061,1060,1065,1106,1066,1061,1061,1066,1106,1106,1101,1104,1103,1062,1059,1108,1065,1102,1061,1105,1057,1060,1103,1062,1064,641,642,1059,1059,
1066,1064,1106,1059,1062,1107,793,794,795,796,797,798,1058,1061,1065,1059,1058,1104,1059,1066,1109,1108,1103,1104,1057,1110,1108,1060,1107,1059,1107,1105,1057,1066,1104,1063,1062,1066,1066,1059,1101,1066,1066,1063,1104,1101,1105,1057,1101,1060,1105,1063,1059,1107,1064,1061,1057,1064,1060,1110,1058,1101,1106,1110,1105,1108,1061,1063,1060,1061,1062,1106,1064,1058,1107,1057,1065,1104,1065,1107,1103,1061,1059,1105,1062,1065,1066,1107,1103,1063,1104,1065,1110,1104,1103,1066,685,641,642,1104,
1101,1058,1110,1107,1101,1062,837,838,839,840,841,842,1064,1063,1061,1059,1060,1057,1057,1107,1108,1062,1062,1103,1058,1107,1063,1108,1058,1061,1057,1061,1103,1063,1064,1110,1066,1058,1101,1108,1063,1060,1057,1101,1108,1057,1065,1103,1061,1104,1109,1105,1058,1108,1109,1060,1108,1104,1104,1060,1108,1106,1105,1059,1059,1059,1066,1059,1064,1057,1110,1064,1106,1060,1102,1064,1104,1102,1110,1064,1063,1105,1061,1104,1061,1061,1108,1108,1063,1060,1104,1061,1109,1059,1064,1066,1110,685,641,641,
1066,1107,1104,1064,1103,1057,1105,1101,1060,1101,1058,1104,1066,1061,1110,1059,1108,1110,1106,1105,1066,1109,1063,1105,1106,1062,1058,1062,1057,1065,1065,1065,1107,1109,1057,1062,1057,1105,1107,1109,1061,1066,1108,1058,1058,1101,1063,1109,1062,1057,1059,1059,1057,1103,1059,1101,1109,1060,1063,1057,1108,1107,1103,1064,1064,1109,1106,1102,1104,1064,1110,1107,1058,1058,1106,1101,1103,1106,1062,1065,1105,1108,1110,1064,1062,1107,1104,1062,1107,1061,1105,1065,1060,1106,1101,1064,1066,1060,641,642,
1110,1108,1103,1103,1064,1057,1066,1108,1109,1107,1062,1066,1064,1110,1061,1106,1101,1110,1109,1105,1062,1065,1109,1059,1108,1062,1101,1063,1064,1105,1104,1105,1059,1058,1060,1057,1103,1106,1060,1060,1110,1103,1060,1060,1103,1101,1107,1065,1103,1103,1103,1107,1057,1109,1108,1057,1103,1101,1057,1102,1062,1059,1104,1110,1102,1103,1109,1104,1063,1059,1108,1106,1104,1110,1107,1102,1101,1060,1066,1107,1060,1101,1104,1066,1104,1059,1062,1103,1057,1107,1104,1109,1107,1057,1063,1109,1110,1064,685,686,
1108,1103,1106,1057,1061,1101,1066,1058,1103,1102,1064,1063,1101,1101,1107,1064,1101,1105,1110,1101,1064,1061,1062,1110,1065,1059,1106,1065,1062,1108,1106,1060,1061,1106,1105,1101,1105,1062,1059,1066,1058,1105,1104,1064,1066,1059,1062,1062,1065,1110,1062,1063,1105,1101,1063,1105,1103,1108,1110,1107,1059,1057,1059,1066,1110,1109,1110,1106,1062,1066,1103,1065,1105,1058,1066,1061,1065,1061,1060,1103,1104,1060,1065,1060,1102,1061,1105,1110,1066,1063,1063,1105,1065,1064,1103,1065,1105,1103,1102,1066
</data>
 </layer>
 <layer id="11" name="здания" width="100" height="100">
  <data encoding="csv">
0,0,0,0,0,0,0,0,0,0,0,0,0,0,0,0,0,0,0,0,0,0,0,0,0,0,0,0,0,0,0,0,0,0,0,0,0,0,0,0,0,0,0,0,0,0,0,0,0,0,0,0,0,0,0,0,0,0,0,0,0,0,0,0,0,0,0,0,0,0,0,0,0,0,0,0,0,0,0,0,0,0,0,0,0,0,0,0,0,0,0,0,0,0,0,0,0,0,0,0,
0,0,0,0,0,0,0,0,0,0,0,0,0,0,0,0,0,0,0,0,0,0,0,0,0,0,0,0,0,0,0,0,0,0,0,0,0,0,0,0,0,0,0,0,0,0,0,0,0,0,0,0,0,0,0,0,0,0,0,0,0,0,0,0,0,0,0,0,0,0,0,0,0,0,0,0,0,0,0,0,0,0,0,0,0,0,0,0,0,0,0,0,0,0,0,0,0,0,0,0,
0,0,0,0,0,0,0,0,0,0,0,0,0,0,0,0,0,0,0,0,0,0,0,0,0,0,0,0,0,0,0,0,0,0,0,0,0,0,0,0,0,0,0,0,0,0,0,0,0,0,0,0,0,0,0,0,0,0,0,0,0,0,0,0,0,0,0,0,0,0,0,0,0,0,0,0,0,0,0,0,0,0,0,0,0,0,0,0,0,0,0,0,0,0,0,0,0,0,0,0,
0,0,0,0,0,0,0,0,0,0,0,0,0,0,0,0,0,2204,2205,2206,2207,0,0,0,0,0,0,0,0,0,0,0,0,0,0,0,0,0,0,0,0,0,0,0,0,0,0,0,0,0,0,0,0,0,0,0,0,0,0,0,0,0,0,0,0,0,0,0,0,0,0,0,0,0,0,0,0,0,0,0,0,0,0,0,0,0,0,0,0,0,0,0,0,0,0,0,0,0,0,0,
0,0,0,0,0,0,0,0,0,0,0,0,0,0,0,0,0,2237,2238,2239,2240,0,0,0,0,0,0,0,0,0,0,0,0,0,0,0,0,0,0,0,0,0,0,0,0,0,0,0,0,0,0,0,0,0,0,0,0,0,0,0,0,0,0,0,0,0,0,0,0,0,0,0,0,0,0,0,0,0,0,0,0,0,0,0,0,0,0,0,0,0,0,0,0,0,0,0,0,0,0,0,
0,0,0,0,0,0,0,0,0,0,0,0,0,0,0,0,0,2270,2271,2272,2273,0,0,0,0,0,0,0,0,0,0,0,0,0,0,0,0,0,0,0,0,0,0,0,0,0,0,0,0,0,0,0,0,0,0,0,0,0,0,0,0,0,0,0,0,0,0,0,0,0,0,0,0,0,0,0,0,0,0,0,0,0,0,0,0,0,0,0,0,0,0,0,0,0,0,0,0,0,0,0,
0,0,0,0,0,0,0,0,0,0,0,0,0,0,0,0,0,0,0,0,0,0,0,0,0,0,0,0,0,0,0,0,0,0,0,0,0,0,0,0,0,0,0,0,0,0,0,0,0,0,0,0,0,0,0,0,0,0,0,0,0,0,0,0,0,0,0,0,0,0,0,0,0,0,0,0,0,0,0,0,0,0,0,0,0,0,0,0,0,0,0,0,0,0,0,0,0,0,0,0,
0,0,0,0,0,0,0,0,0,0,0,0,0,0,0,0,0,0,0,0,0,0,0,0,0,0,0,0,0,0,0,0,0,0,0,0,0,0,0,0,0,0,0,0,0,0,0,0,0,0,0,0,0,0,0,0,0,0,0,0,0,0,0,0,0,0,0,0,0,0,0,0,0,0,0,0,0,0,0,0,0,0,0,0,0,0,0,0,0,0,0,0,0,0,0,0,0,0,0,0,
0,0,0,0,0,0,0,0,0,0,0,0,0,0,0,0,0,0,0,0,0,0,0,0,0,0,0,0,0,0,0,0,0,0,0,0,0,0,0,0,0,0,0,0,0,0,0,0,0,0,0,0,0,0,0,0,0,0,0,0,0,0,0,0,0,0,0,0,0,0,0,0,0,0,0,0,0,0,0,0,0,0,0,0,0,0,0,0,0,0,0,0,0,0,0,0,0,0,0,0,
0,0,0,0,0,0,0,0,0,0,0,0,0,0,0,0,0,0,0,0,0,0,0,0,0,0,0,0,0,0,0,0,0,0,0,0,0,0,0,0,0,0,0,0,0,0,0,0,0,0,0,0,0,0,0,0,0,0,0,0,0,0,0,0,0,0,0,0,0,0,0,0,0,0,0,0,0,0,0,0,0,0,0,0,0,0,0,0,0,0,0,0,0,0,0,0,0,0,0,0,
0,0,0,0,0,0,0,0,0,0,0,0,0,0,0,0,0,0,0,0,0,0,0,0,0,0,0,0,0,0,0,0,0,0,0,0,0,0,0,0,0,0,0,0,0,0,0,0,0,0,0,0,0,0,0,0,0,0,0,0,0,0,0,0,0,0,0,0,0,0,0,0,0,0,0,0,0,0,0,0,0,0,0,0,0,0,0,0,0,0,0,0,0,0,0,0,0,0,0,0,
0,0,0,0,0,0,0,0,0,0,0,0,0,0,0,0,0,0,0,0,0,0,0,0,0,0,0,0,0,0,0,0,0,0,0,0,0,0,0,0,0,0,0,0,0,0,0,0,0,0,0,0,0,0,0,0,0,0,0,0,0,0,0,0,0,0,0,0,0,0,0,0,0,0,0,0,0,0,0,0,0,0,0,0,0,0,0,0,0,0,0,0,0,0,0,0,0,0,0,0,
0,0,0,0,0,0,0,0,0,0,0,0,0,0,0,0,0,0,0,0,0,0,0,0,0,0,0,0,0,0,0,0,0,0,0,0,0,0,0,0,0,0,0,0,0,0,0,0,0,0,0,0,0,0,0,0,0,0,0,0,0,0,0,0,0,0,0,0,0,0,0,0,0,0,0,0,0,0,0,0,0,0,0,0,0,0,0,0,0,0,0,0,0,0,0,0,0,0,0,0,
0,0,0,0,0,0,0,0,0,0,0,0,0,0,0,0,0,0,0,0,0,0,0,0,0,0,0,0,0,0,0,0,0,0,0,0,0,0,0,0,0,0,0,0,0,0,0,0,0,0,0,0,0,0,0,0,0,0,0,0,0,0,0,0,0,0,0,0,0,0,0,0,0,0,0,0,0,0,0,0,0,0,0,0,0,0,0,0,0,0,0,0,0,0,0,0,0,0,0,0,
0,0,0,0,0,0,0,0,0,0,0,0,0,0,0,0,0,0,0,0,0,0,0,0,0,0,0,0,0,0,0,0,0,0,0,0,0,0,0,0,0,0,0,0,0,0,0,0,0,0,0,0,0,0,0,0,0,0,0,0,0,0,0,0,0,0,0,0,0,0,0,0,0,0,0,0,0,0,0,0,0,0,0,0,0,0,0,0,0,0,0,0,0,0,0,0,0,0,0,0,
0,0,0,0,0,0,0,0,0,0,0,0,0,2204,2205,2206,2207,0,0,0,0,0,0,0,0,0,0,0,0,0,0,0,0,0,0,0,0,0,0,0,0,0,0,0,0,0,0,0,0,0,0,0,0,0,0,0,0,0,0,0,0,0,0,0,0,0,0,0,0,0,0,0,0,0,0,0,0,0,0,0,0,0,0,0,0,0,0,0,0,0,0,0,0,0,0,0,0,0,0,0,
0,0,0,0,0,0,0,0,0,0,0,0,0,2237,2238,2239,2240,0,0,0,0,0,0,0,0,0,0,0,0,0,0,0,0,0,0,0,0,0,0,0,0,0,0,0,0,0,0,0,0,0,0,0,0,0,0,0,0,0,0,0,0,0,0,0,0,0,0,0,0,0,0,0,0,0,0,0,0,0,0,0,0,0,0,0,0,0,0,0,0,0,0,0,0,0,0,0,0,0,0,0,
0,0,0,0,0,0,0,0,0,0,0,0,0,2270,2271,2272,2273,0,0,0,0,0,0,0,0,0,0,0,0,0,0,0,0,0,0,0,0,0,0,0,0,0,0,0,0,0,0,0,0,0,0,0,0,0,0,0,0,0,0,0,0,0,0,0,0,0,0,0,0,0,0,0,0,0,0,0,0,0,0,0,0,0,0,0,0,0,0,0,0,0,0,0,0,0,0,0,0,0,0,0,
0,0,0,0,0,0,0,0,0,0,0,0,0,0,0,0,0,0,0,0,0,0,0,0,0,0,0,0,0,0,0,0,0,0,0,0,0,0,0,0,0,0,0,0,0,0,0,0,0,0,0,0,0,0,0,0,0,0,0,0,0,0,0,0,0,0,0,0,0,0,0,0,0,0,0,0,0,0,0,0,0,0,0,0,0,0,0,0,0,0,0,0,0,0,0,0,0,0,0,0,
0,0,0,0,0,0,0,0,0,0,0,0,0,0,0,0,0,0,0,0,0,0,0,0,0,0,0,0,0,0,0,0,0,0,0,0,0,0,0,0,0,0,0,0,0,0,0,0,0,0,0,0,0,0,0,0,0,0,0,0,0,0,0,0,0,0,0,0,0,0,0,0,0,0,0,0,0,0,0,0,0,0,0,0,0,0,0,0,0,0,0,0,0,0,0,0,0,0,0,0,
0,0,0,0,0,0,0,0,0,0,0,0,0,0,0,0,0,0,0,0,0,0,0,0,0,0,0,0,0,0,0,0,0,0,0,0,0,0,0,0,0,0,0,0,0,0,0,0,0,0,0,0,0,0,0,0,0,0,0,0,0,0,0,0,0,0,0,0,0,0,0,0,0,0,0,0,0,0,0,0,0,0,0,0,0,0,0,0,0,0,0,0,0,0,0,0,0,0,0,0,
0,0,0,0,0,0,0,0,0,0,0,0,0,0,0,0,0,0,0,0,0,0,0,0,0,0,0,0,0,0,0,0,0,0,0,0,0,0,0,0,0,0,0,0,0,0,0,0,0,0,0,0,0,0,0,0,0,0,0,0,0,0,0,0,0,0,0,0,0,0,0,0,0,0,0,0,0,0,0,0,0,0,0,0,0,0,0,0,0,0,0,0,0,0,0,0,0,0,0,0,
0,0,0,0,0,0,0,0,0,0,0,0,0,0,0,0,0,0,0,0,0,0,0,0,0,0,0,0,0,0,0,0,0,0,0,0,0,0,0,0,0,0,0,0,0,0,0,0,0,0,0,0,0,0,0,0,0,0,0,0,0,0,0,0,0,0,0,0,0,0,0,0,0,0,0,0,0,0,0,0,0,0,0,0,0,0,0,0,0,0,0,0,0,0,0,0,0,0,0,0,
0,0,0,0,0,0,0,0,0,0,0,0,0,0,0,0,0,0,0,0,0,0,0,0,0,0,0,0,0,0,0,0,0,0,0,0,0,0,0,0,0,0,0,0,0,0,0,0,0,0,0,0,0,0,0,0,0,0,0,0,0,0,0,0,0,0,0,0,0,0,0,0,0,0,0,0,0,0,0,0,0,0,0,0,0,0,0,0,0,0,0,0,0,0,0,0,0,0,0,0,
0,0,0,0,0,0,0,0,0,0,0,0,0,0,0,0,0,0,0,0,0,0,0,0,0,0,0,0,0,0,0,0,0,0,0,0,0,0,0,0,0,0,0,0,0,0,0,0,0,0,0,0,0,0,0,0,0,0,0,0,0,0,0,0,0,0,0,0,0,0,0,0,0,0,0,0,0,0,0,0,0,0,0,0,0,0,0,0,0,0,0,0,0,0,0,0,0,0,0,0,
0,0,0,0,0,0,0,0,0,0,0,0,0,0,0,0,0,0,0,0,0,0,0,0,0,0,0,0,0,0,0,0,0,0,0,0,0,0,0,0,0,0,0,0,0,0,0,0,0,0,0,0,0,0,0,0,0,0,0,0,0,0,0,0,0,0,0,0,0,0,0,0,0,0,0,0,0,0,0,0,0,0,0,0,0,0,0,0,0,0,0,0,0,0,0,0,0,0,0,0,
0,0,0,0,0,0,0,0,0,0,0,0,0,0,0,0,0,0,0,0,0,0,0,0,0,0,0,0,0,0,0,0,0,0,0,0,0,0,0,0,0,0,0,0,0,0,0,0,0,0,0,0,0,0,0,0,0,0,0,0,0,0,0,0,0,0,0,0,0,0,0,0,0,0,0,0,0,0,0,0,0,0,0,0,0,0,0,0,0,0,0,0,0,0,0,0,0,0,0,0,
0,0,0,0,0,0,0,0,0,0,0,0,0,0,0,0,0,0,0,0,0,0,0,0,0,0,0,0,0,0,0,0,0,0,0,0,0,0,0,0,0,0,0,0,0,0,0,0,0,0,0,0,0,0,0,0,0,0,0,0,0,0,0,0,0,0,0,0,0,0,0,0,0,0,0,0,0,0,0,0,0,0,0,0,0,0,0,0,0,0,0,0,0,0,0,0,0,0,0,0,
0,0,0,0,0,0,0,0,0,0,0,0,0,0,0,0,0,0,0,0,0,0,0,0,0,0,0,0,0,0,0,0,0,0,0,0,0,0,0,0,0,0,0,0,0,0,0,0,0,0,0,0,0,0,0,0,0,0,0,0,0,0,0,0,0,0,0,0,0,0,0,0,0,0,0,0,0,0,0,0,0,0,0,0,0,0,0,0,0,0,0,0,0,0,0,0,0,0,0,0,
0,0,0,0,0,0,0,0,0,0,0,0,0,0,0,0,0,0,0,0,0,0,0,0,0,0,0,0,0,0,0,0,0,0,0,0,0,0,0,0,0,0,0,0,0,0,0,0,0,0,0,0,0,0,0,0,0,0,0,0,0,0,0,0,0,0,0,0,0,0,0,0,0,0,0,0,0,0,0,0,0,0,0,0,0,0,0,0,0,0,0,0,0,0,0,0,0,0,0,0,
0,0,0,0,0,0,0,0,0,0,0,0,0,0,0,0,0,0,0,0,0,0,0,0,0,0,0,0,0,0,0,0,0,0,0,0,0,0,0,0,0,0,0,0,0,0,0,0,0,0,0,0,0,0,0,0,0,0,0,0,0,0,0,0,0,0,0,0,0,0,0,0,0,0,0,0,0,0,0,0,0,0,0,0,0,0,0,0,0,0,0,0,0,0,0,0,0,0,0,0,
0,0,0,0,0,0,0,0,0,0,0,0,0,0,0,0,0,0,0,0,0,0,0,0,0,0,0,0,0,0,0,0,0,0,0,0,0,0,0,0,0,0,0,0,0,0,0,0,0,0,0,0,0,0,0,0,0,0,0,0,0,0,0,0,0,0,0,0,0,0,0,0,0,0,0,0,0,0,0,0,0,0,0,0,0,0,0,0,0,0,0,0,0,0,0,0,0,0,0,0,
0,0,0,0,0,0,0,0,0,0,0,0,0,0,0,0,0,0,0,0,0,0,0,0,0,0,0,0,0,0,0,0,0,0,0,0,0,0,0,0,0,0,0,0,0,0,0,0,0,0,0,0,0,0,0,0,0,0,0,0,0,0,0,0,0,0,0,0,0,0,0,0,0,0,0,0,0,0,0,0,0,0,0,0,0,0,0,0,0,0,0,0,0,0,0,0,0,0,0,0,
0,0,0,0,0,0,0,0,0,0,0,0,0,0,0,0,0,0,0,0,0,0,0,0,0,0,0,0,0,0,0,0,0,0,0,0,0,0,0,0,0,0,0,0,0,0,0,0,0,0,0,0,0,0,0,0,0,0,0,0,0,0,0,0,0,0,0,0,0,0,0,0,0,0,0,0,0,0,0,0,0,0,0,0,0,0,0,0,0,0,0,0,0,0,0,0,0,0,0,0,
0,0,0,0,0,0,0,0,0,0,0,0,0,0,0,0,0,0,0,0,0,0,0,0,0,0,0,0,0,0,0,0,0,0,0,0,0,0,0,0,0,0,0,0,0,0,0,0,0,0,0,0,0,0,0,0,0,0,0,0,0,0,0,0,0,0,0,0,0,0,0,0,0,0,0,0,0,0,0,0,0,0,0,0,0,0,0,0,0,0,0,0,0,0,0,0,0,0,0,0,
0,0,0,0,0,0,0,0,0,0,0,0,0,0,0,0,0,0,0,0,0,0,0,0,0,0,0,0,0,0,0,0,0,0,0,0,0,0,0,0,0,0,0,0,0,0,0,0,0,0,0,0,0,0,0,0,0,0,0,0,0,0,0,0,0,0,0,0,0,0,0,0,0,0,0,0,0,0,0,0,0,0,0,0,0,0,0,0,0,0,0,0,0,0,0,0,0,0,0,0,
0,0,0,0,0,0,0,0,0,0,0,0,0,0,0,0,0,0,0,0,0,0,0,0,0,0,0,0,0,0,0,0,0,0,0,0,0,0,0,0,0,0,0,0,0,0,0,0,0,0,0,0,0,0,0,0,0,0,0,0,0,0,0,0,0,0,0,0,0,0,0,0,0,0,0,0,0,0,0,0,0,0,0,0,0,0,0,0,0,0,0,0,0,0,0,0,0,0,0,0,
0,0,0,0,0,0,0,0,0,0,0,0,0,0,0,0,0,0,0,0,0,0,0,0,0,0,0,0,0,0,0,0,0,0,0,0,0,0,0,0,0,0,0,0,0,0,0,0,0,0,0,0,0,0,0,0,0,0,0,0,0,0,0,0,0,0,0,0,0,0,0,0,0,0,0,0,0,0,0,0,0,0,0,0,0,0,0,0,0,0,0,0,0,0,0,0,0,0,0,0,
0,0,0,0,0,0,0,0,0,0,0,0,0,0,0,0,0,0,0,0,0,0,0,0,0,0,0,0,0,0,0,0,0,0,0,0,0,0,0,0,0,0,0,0,0,0,0,0,0,0,0,0,0,0,0,0,0,0,0,0,0,0,0,0,0,0,0,0,0,0,0,0,0,0,0,0,0,0,0,0,0,0,0,0,0,0,0,0,0,0,0,0,0,0,0,0,0,0,0,0,
0,0,0,0,0,0,0,0,0,0,0,0,0,0,0,0,0,0,0,0,0,0,0,0,0,0,0,0,0,0,0,0,0,0,0,0,0,0,0,0,0,0,0,0,0,0,0,0,0,0,0,0,0,0,0,0,0,0,0,0,0,0,0,0,0,0,0,0,0,0,0,0,0,0,0,0,0,0,0,0,0,0,0,0,0,0,0,0,0,0,0,0,0,0,0,0,0,0,0,0,
0,0,0,0,0,0,0,0,0,0,0,0,0,0,0,0,0,0,0,0,0,0,0,0,0,0,0,0,0,0,0,0,0,0,0,0,0,0,0,0,0,0,0,0,0,0,0,0,0,0,0,0,0,0,0,0,0,0,0,0,0,0,0,0,0,0,0,0,0,0,0,0,0,0,0,0,0,0,0,0,0,0,0,0,0,0,0,0,0,0,0,0,0,0,0,0,0,0,0,0,
0,0,0,0,0,0,0,0,0,0,0,0,0,0,0,0,0,0,0,0,0,0,0,0,0,0,0,0,0,0,0,0,0,0,0,0,0,0,0,0,0,0,0,0,0,0,0,0,0,0,0,0,0,0,0,0,0,0,0,0,0,0,0,0,0,0,0,0,0,0,0,0,0,0,0,0,0,0,0,0,0,0,0,0,0,0,0,0,0,0,0,0,0,0,0,0,0,0,0,0,
0,0,0,0,0,0,0,0,0,0,0,0,0,0,0,0,0,0,0,0,0,0,0,0,0,0,0,0,0,0,0,0,0,0,0,0,0,0,0,0,0,0,0,0,0,0,0,0,0,0,0,0,0,0,0,0,0,0,0,0,0,0,0,0,0,0,0,0,0,0,0,0,0,0,0,0,0,0,0,0,0,0,0,0,0,0,0,0,0,0,0,0,0,0,0,0,0,0,0,0,
0,0,0,0,0,0,0,0,0,0,0,0,0,0,0,0,0,0,0,0,0,0,0,0,0,0,0,0,0,0,0,0,0,0,0,0,0,0,0,0,0,0,0,0,0,0,0,0,0,0,0,0,0,0,0,0,0,0,0,0,0,0,0,0,0,0,0,0,0,0,0,0,0,0,0,0,0,0,0,0,0,0,0,0,0,0,0,0,0,0,0,0,0,0,0,0,0,0,0,0,
0,0,0,0,0,0,0,0,0,0,0,0,0,0,0,0,0,0,0,0,0,0,0,0,0,0,0,0,0,0,0,0,0,0,0,0,0,0,0,0,0,0,0,0,0,0,0,0,0,0,0,0,0,0,0,0,0,0,0,0,0,0,0,0,0,0,0,0,0,0,0,0,0,0,0,0,0,0,0,0,0,0,0,0,0,0,0,0,0,0,0,0,0,0,0,0,0,0,0,0,
0,0,0,0,0,0,0,0,0,0,0,0,0,0,0,0,0,0,0,0,0,0,0,0,0,0,0,0,0,0,0,0,0,0,0,0,0,0,0,0,0,0,0,0,0,0,0,0,0,0,0,0,0,0,0,0,0,0,0,0,0,0,0,0,0,0,0,0,0,0,0,0,0,0,0,0,0,0,0,0,0,0,0,0,0,0,0,0,0,0,0,0,0,0,0,0,0,0,0,0,
0,0,0,0,0,0,0,0,0,0,0,0,0,0,0,0,0,0,0,0,0,0,0,0,0,0,0,0,0,0,0,0,0,0,0,0,0,0,0,0,0,0,0,0,0,0,0,0,0,0,0,0,0,0,0,0,0,0,0,0,0,0,0,0,0,0,0,0,0,0,0,0,0,0,0,0,0,0,0,0,0,0,0,0,0,0,0,0,0,0,0,0,0,0,0,0,0,0,0,0,
0,0,0,0,0,0,0,0,0,0,0,0,0,0,0,0,0,0,0,0,0,0,0,0,0,0,0,0,0,0,0,0,0,0,0,0,0,0,0,0,0,0,0,0,0,0,0,0,0,0,0,0,0,0,0,0,0,0,0,0,0,0,0,0,0,0,0,0,0,0,0,0,0,0,0,0,0,0,0,0,0,0,0,0,0,0,0,0,0,0,0,0,0,0,0,0,0,0,0,0,
0,0,0,0,0,0,0,0,0,0,0,0,0,0,0,0,0,0,0,0,0,0,0,0,0,0,0,0,0,0,0,0,0,0,0,0,0,0,0,0,0,0,0,0,0,0,0,0,0,0,0,0,0,0,0,0,0,0,0,0,0,0,0,0,0,0,0,0,0,0,0,0,0,0,0,0,0,0,0,0,0,0,0,0,0,0,0,0,0,0,0,0,0,0,0,0,0,0,0,0,
0,0,0,0,0,0,0,0,0,0,0,0,0,0,0,0,0,0,0,0,0,0,0,0,0,0,0,0,0,0,0,0,0,0,0,0,0,0,0,0,0,0,0,0,0,0,0,0,0,0,0,0,0,0,0,0,0,0,0,0,0,0,0,0,0,0,0,0,0,0,0,0,0,0,0,0,0,0,0,0,0,0,0,0,0,0,0,0,0,0,0,0,0,0,0,0,0,0,0,0,
0,0,0,0,0,0,0,0,0,0,0,0,0,0,0,0,0,0,0,0,0,0,0,0,0,0,0,0,0,0,0,0,0,0,0,0,0,0,0,0,0,0,0,0,0,0,0,0,0,0,0,0,0,0,0,0,0,0,0,0,0,0,0,0,0,0,0,0,0,0,0,0,0,0,0,0,0,0,0,0,0,0,0,0,0,0,0,0,0,0,0,0,0,0,0,0,0,0,0,0,
0,0,0,0,0,0,0,0,0,0,0,0,0,0,0,0,0,0,0,0,0,0,0,0,0,0,0,0,0,0,0,0,0,0,0,0,0,0,0,0,0,0,0,0,0,0,0,0,0,0,0,0,0,0,0,0,0,0,0,0,0,0,0,0,0,0,0,0,0,0,0,0,0,0,0,0,0,0,0,0,0,0,0,0,0,0,0,0,0,0,0,0,0,0,0,0,0,0,0,0,
0,0,0,0,0,0,0,0,0,0,0,0,0,0,0,0,0,0,0,0,0,0,0,0,0,0,0,0,0,0,0,0,0,0,0,0,0,0,0,0,0,0,0,0,0,0,0,0,0,0,0,0,0,0,0,0,0,0,0,0,0,0,0,0,0,0,0,0,0,0,0,0,0,0,0,0,0,0,0,0,0,0,0,0,0,0,0,0,0,0,0,0,0,0,0,0,0,0,0,0,
0,0,0,0,0,0,0,0,0,0,0,0,0,0,0,0,0,0,0,0,0,0,0,0,0,0,0,0,0,0,0,0,0,0,0,0,0,0,0,0,0,0,0,0,0,0,0,0,0,0,0,0,0,0,0,0,0,0,0,0,0,0,0,0,0,0,0,0,0,0,0,0,0,0,0,0,0,0,0,0,0,0,0,0,0,0,0,0,0,0,0,0,0,0,0,0,0,0,0,0,
0,0,0,0,0,0,0,0,0,0,0,0,0,0,0,0,0,0,0,0,0,0,0,0,0,0,0,0,0,0,0,0,0,0,0,0,0,0,0,0,0,0,0,0,0,0,0,0,0,0,0,0,0,0,0,0,0,0,0,0,0,0,0,0,0,0,0,0,0,0,0,0,0,0,0,0,0,0,0,0,0,0,0,0,0,0,0,0,0,0,0,0,0,0,0,0,0,0,0,0,
0,0,0,0,0,0,0,0,0,0,0,0,0,0,0,0,0,0,0,0,0,0,0,0,0,0,0,0,0,0,0,0,0,0,0,0,0,0,0,0,0,0,0,0,0,0,0,0,0,0,0,0,0,0,0,0,0,0,0,0,0,0,0,0,0,0,0,0,0,0,0,0,0,0,0,0,0,0,0,0,0,0,0,0,0,0,0,0,0,0,0,0,0,0,0,0,0,0,0,0,
0,0,0,0,0,0,0,0,0,0,0,0,0,0,0,0,0,0,0,0,0,0,0,0,0,0,0,0,0,0,0,0,0,0,0,0,0,0,0,0,0,0,0,0,0,0,0,0,0,0,0,0,0,0,0,0,0,0,0,0,0,0,0,0,0,0,0,0,0,0,0,0,0,0,0,0,0,0,0,0,0,0,0,0,0,0,0,0,0,0,0,0,0,0,0,0,0,0,0,0,
0,0,0,0,0,0,0,0,0,0,0,0,0,0,0,0,0,0,0,0,0,0,0,0,0,0,0,0,0,0,0,0,0,0,0,0,0,0,0,0,0,0,0,0,0,0,0,0,0,0,0,0,0,0,0,0,0,0,0,0,0,0,0,0,0,0,0,0,0,0,0,0,0,0,0,0,0,0,0,0,0,0,0,0,0,0,0,0,0,0,0,0,0,0,0,0,0,0,0,0,
0,0,0,0,0,0,0,0,0,0,0,0,0,0,0,0,0,0,0,0,0,0,0,0,0,0,0,0,0,0,0,0,0,0,0,0,0,0,0,0,0,0,0,0,0,0,0,0,0,0,0,0,0,0,0,0,0,0,0,0,0,0,0,0,0,0,0,0,0,0,0,0,0,0,0,0,0,0,0,0,0,0,0,0,0,0,0,0,0,0,0,0,0,0,0,0,0,0,0,0,
0,0,0,0,0,0,0,0,0,0,0,0,0,0,0,0,0,0,0,0,0,0,0,0,0,0,0,0,0,0,0,0,0,0,0,0,0,0,0,0,0,0,0,0,0,0,0,0,0,0,0,0,0,0,0,0,0,0,0,0,0,0,0,0,0,0,0,0,0,0,0,0,0,0,0,0,0,0,0,0,0,0,0,0,0,0,0,0,0,0,0,0,0,0,0,0,0,0,0,0,
0,0,0,0,0,0,0,0,0,0,0,0,0,0,0,0,0,0,0,0,0,0,0,0,0,0,0,0,0,0,0,0,0,0,0,0,0,0,0,0,0,0,0,0,0,0,0,0,0,0,0,0,0,0,0,0,0,0,0,0,0,0,0,0,0,0,0,0,0,0,0,0,0,0,0,0,0,0,0,0,0,0,0,0,0,0,0,0,0,0,0,0,0,0,0,0,0,0,0,0,
0,0,0,0,0,0,0,0,0,0,0,0,0,0,0,0,0,0,0,0,0,0,0,0,0,0,0,0,0,0,0,0,0,0,0,0,0,0,0,0,0,0,0,0,0,0,0,0,0,0,0,0,0,0,0,0,0,0,0,0,0,0,0,0,0,0,0,0,0,0,0,0,0,0,0,0,0,0,0,0,0,0,0,0,0,0,0,0,0,0,0,0,0,0,0,0,0,0,0,0,
0,0,0,0,0,0,0,0,0,0,0,0,0,0,0,0,0,0,0,0,0,0,0,0,0,0,0,0,0,0,0,0,0,0,0,0,0,0,0,0,0,0,0,0,0,0,0,0,0,0,0,0,0,0,0,0,0,0,0,0,0,0,0,0,0,0,0,0,0,0,0,0,0,0,0,0,0,0,0,0,0,0,0,0,0,0,0,0,0,0,0,0,0,0,0,0,0,0,0,0,
0,0,0,0,0,0,0,0,0,0,0,0,0,0,0,0,0,0,0,0,0,0,0,0,0,0,0,0,0,0,0,0,0,0,0,0,0,0,0,0,0,0,0,0,0,0,0,0,0,0,0,0,0,0,0,0,0,0,0,0,0,0,0,0,0,0,0,0,0,0,0,0,0,0,0,0,0,0,0,0,0,0,0,0,0,0,0,0,0,0,0,0,0,0,0,0,0,0,0,0,
0,0,0,0,0,0,0,0,0,0,0,0,0,0,0,0,0,0,0,0,0,0,0,0,0,0,0,0,0,0,0,0,0,0,0,0,0,0,0,0,0,0,0,0,0,0,0,0,0,0,0,0,0,0,0,0,0,0,0,0,0,0,0,0,0,0,0,0,0,0,0,0,0,0,0,0,0,0,0,0,0,0,0,0,0,0,0,0,0,0,0,0,0,0,0,0,0,0,0,0,
0,0,0,0,0,0,0,0,0,0,0,0,0,0,0,0,0,0,0,0,0,0,0,0,0,0,0,0,0,0,0,0,0,0,0,0,0,0,0,0,0,0,0,0,0,0,0,0,0,0,0,0,0,0,0,0,0,0,0,0,0,0,0,0,0,0,0,0,0,0,0,0,0,0,0,0,0,0,0,0,0,0,0,0,0,0,0,0,0,0,0,0,0,0,0,0,0,0,0,0,
0,0,0,0,0,0,0,0,0,0,0,0,0,0,0,0,0,0,0,0,0,0,0,0,0,0,0,0,0,0,0,0,0,0,0,0,0,0,0,0,0,0,0,0,0,0,0,0,0,0,0,0,0,0,0,0,0,0,0,0,0,0,0,0,0,0,0,0,0,0,0,0,0,0,0,0,0,0,0,0,0,0,0,0,0,0,0,0,0,0,0,0,0,0,0,0,0,0,0,0,
0,0,0,0,0,0,0,0,0,0,0,0,0,0,0,0,0,0,0,0,0,0,0,0,0,0,0,0,0,0,0,0,0,0,0,0,0,0,0,0,0,0,0,0,0,0,0,0,0,0,0,0,0,0,0,0,0,0,0,0,0,0,0,0,0,0,0,0,0,0,0,0,0,0,0,0,0,0,0,0,0,0,0,0,0,0,0,0,0,0,0,0,0,0,0,0,0,0,0,0,
0,0,0,0,0,0,0,0,0,0,0,0,0,0,0,0,0,0,0,0,0,0,0,0,0,0,0,0,0,0,0,0,0,0,0,0,0,0,0,0,0,0,0,0,0,0,0,0,0,0,0,0,0,0,0,0,0,0,0,0,0,0,0,0,0,0,0,0,0,0,0,0,0,0,0,0,0,0,0,0,0,0,0,0,0,0,0,0,0,0,0,0,0,0,0,0,0,0,0,0,
0,0,0,0,0,0,0,0,0,0,0,0,0,0,0,0,0,0,0,0,0,0,0,0,0,0,0,0,0,0,0,0,0,0,0,0,0,0,0,0,0,0,0,0,0,0,0,0,0,0,0,0,0,0,0,0,0,0,0,0,0,0,0,0,0,0,0,0,0,0,0,0,0,0,0,0,0,0,0,0,0,0,0,0,0,0,0,0,0,0,0,0,0,0,0,0,0,0,0,0,
0,0,0,0,0,0,0,0,0,0,0,0,0,0,0,0,0,0,0,0,0,0,0,0,0,0,0,0,0,0,0,0,0,0,0,0,0,0,0,0,0,0,0,0,0,0,0,0,0,0,0,0,0,0,0,0,0,0,0,0,0,0,0,0,0,0,0,0,0,0,0,0,0,0,0,0,0,0,0,0,0,0,0,0,0,0,0,0,0,0,0,0,0,0,0,0,0,0,0,0,
0,0,0,0,0,0,0,0,0,0,0,0,0,0,0,0,0,0,0,0,0,0,0,0,0,0,0,0,0,0,0,0,0,0,0,0,0,0,0,0,0,0,0,0,0,0,0,0,0,0,0,0,0,0,0,0,0,0,0,0,0,0,0,0,0,0,0,0,0,0,0,0,0,0,0,0,0,0,0,0,0,0,0,0,0,0,0,0,0,0,0,0,0,0,0,0,0,0,0,0,
0,0,0,0,0,0,0,0,0,0,0,0,0,0,0,0,0,0,0,0,0,0,0,0,0,0,0,0,0,0,0,0,0,0,0,0,0,0,0,0,0,0,0,0,0,0,0,0,0,0,0,0,0,0,0,0,0,0,0,0,0,0,0,0,0,0,0,0,0,0,0,0,0,0,0,0,0,0,0,0,0,0,0,0,0,0,0,0,0,0,0,0,0,0,0,0,0,0,0,0,
0,0,0,0,0,0,0,0,0,0,0,0,0,0,0,0,0,0,0,0,0,0,0,0,0,0,0,0,0,0,0,0,0,0,0,0,0,0,0,0,0,0,0,0,0,0,0,0,0,0,0,0,0,0,0,0,0,0,0,0,0,0,0,0,0,0,0,0,0,0,0,0,0,0,0,0,0,0,0,0,0,0,0,0,0,0,0,0,0,0,0,0,0,0,0,0,0,0,0,0,
0,0,0,0,0,0,0,0,0,0,0,0,0,0,0,0,0,0,0,0,0,0,0,0,0,0,0,0,0,0,0,0,0,0,0,0,0,0,0,0,0,0,0,0,0,0,0,0,0,0,0,0,0,0,0,0,0,0,0,0,0,0,0,0,0,0,0,0,0,0,0,0,0,0,0,0,0,0,0,0,0,0,0,0,0,0,0,0,0,0,0,0,0,0,0,0,0,0,0,0,
0,0,0,0,0,0,0,0,0,0,0,0,0,0,0,0,0,0,0,0,0,0,0,0,0,0,0,0,0,0,0,0,0,0,0,0,0,0,0,0,0,0,0,0,0,0,0,0,0,0,0,0,0,0,0,0,0,0,0,0,0,0,0,0,0,0,0,0,0,0,0,0,0,0,0,0,0,0,0,0,0,0,0,0,0,0,0,0,0,0,0,0,0,0,0,0,0,0,0,0,
0,0,0,0,0,0,0,0,0,0,0,0,0,0,0,0,0,0,0,0,0,0,0,0,0,0,0,0,0,0,0,0,0,0,0,0,0,0,0,0,0,0,0,0,0,0,0,0,0,0,0,0,0,0,0,0,0,0,0,0,0,0,0,0,0,0,0,0,0,0,0,0,0,0,0,0,0,0,0,0,0,0,0,0,0,0,0,0,0,0,0,0,0,0,0,0,0,0,0,0,
0,0,0,0,0,0,0,0,0,0,0,0,0,0,0,0,0,0,0,0,0,0,0,0,0,0,0,0,0,0,0,0,0,0,0,0,0,0,0,0,0,0,0,0,0,0,0,0,0,0,0,0,0,0,0,0,0,0,0,0,0,0,0,0,0,0,0,0,0,0,0,0,0,0,0,0,0,0,0,0,0,0,0,0,0,0,0,0,0,0,0,0,0,0,0,0,0,0,0,0,
0,0,0,0,0,0,0,0,0,0,0,0,0,0,0,0,0,0,0,0,0,0,0,0,0,0,0,0,0,0,0,0,0,0,0,0,0,0,0,0,0,0,0,0,0,0,0,0,0,0,0,0,0,0,0,0,0,0,0,0,0,0,0,0,0,0,0,0,0,0,0,0,0,0,0,0,0,0,0,0,0,0,0,0,0,0,0,0,0,0,0,0,0,0,0,0,0,0,0,0,
0,0,0,0,0,0,0,0,0,0,0,0,0,0,0,0,0,0,0,0,0,0,0,0,0,0,0,0,0,0,0,0,0,0,0,0,0,0,0,0,0,0,0,0,0,0,0,0,0,0,0,0,0,0,0,0,0,0,0,0,0,0,0,0,0,0,0,0,0,0,0,0,0,0,0,0,0,0,0,0,0,0,0,0,0,0,0,0,0,0,0,0,0,0,0,0,0,0,0,0,
0,0,0,0,0,0,0,0,0,0,0,0,0,0,0,0,0,0,0,0,0,0,0,0,0,0,0,0,0,0,0,0,0,0,0,0,0,0,0,0,0,0,0,0,0,0,0,0,0,0,0,0,0,0,0,0,0,0,0,0,0,0,0,0,0,0,0,0,0,0,0,0,0,0,0,0,0,0,0,0,0,0,0,0,0,0,0,0,0,0,0,0,0,0,0,0,0,0,0,0,
0,0,0,0,0,0,0,0,0,0,0,0,0,0,0,0,0,0,0,0,0,0,0,0,0,0,0,0,0,0,0,0,0,0,0,0,0,0,0,0,0,0,0,0,0,0,0,0,0,0,0,0,0,0,0,0,0,0,0,0,0,0,0,0,0,0,0,0,0,0,0,0,0,0,0,0,0,0,0,0,0,0,0,0,0,0,0,0,0,0,0,0,0,0,0,0,0,0,0,0,
0,0,0,0,0,0,0,0,0,0,0,0,0,0,0,0,0,0,0,0,0,0,0,0,0,0,0,0,0,0,0,0,0,0,0,0,0,0,0,0,0,0,0,0,0,0,0,0,0,0,0,0,0,0,0,0,0,0,0,0,0,0,0,0,0,0,0,0,0,0,0,0,0,0,0,0,0,0,0,0,0,0,0,0,0,0,0,0,0,0,0,0,0,0,0,0,0,0,0,0,
0,0,0,0,0,0,0,0,0,0,0,0,0,0,0,0,0,0,0,0,0,0,0,0,0,0,0,0,0,0,0,0,0,0,0,0,0,0,0,0,0,0,0,0,0,0,0,0,0,0,0,0,0,0,0,0,0,0,0,0,0,0,0,0,0,0,0,0,0,0,0,0,0,0,0,0,0,0,0,0,0,0,0,0,0,0,0,0,0,0,0,0,0,0,0,0,0,0,0,0,
0,0,0,0,0,0,0,0,0,0,0,0,0,0,0,0,0,0,0,0,0,0,0,0,0,0,0,0,0,0,0,0,0,0,0,0,0,0,0,0,0,0,0,0,0,0,0,0,0,0,0,0,0,0,0,0,0,0,0,0,0,0,0,0,0,0,0,0,0,0,0,0,0,0,0,0,0,0,0,0,0,0,0,0,0,0,0,0,0,0,0,0,0,0,0,0,0,0,0,0,
0,0,0,0,0,0,0,0,0,0,0,0,0,0,0,0,0,0,0,0,0,0,0,0,0,0,0,0,0,0,0,0,0,0,0,0,0,0,0,0,0,0,0,0,0,0,0,0,0,0,0,0,0,0,0,0,0,0,0,0,0,0,0,0,0,0,0,0,0,0,0,0,0,0,0,0,0,0,0,0,0,0,0,0,0,0,0,0,0,0,0,0,0,0,0,0,0,0,0,0,
0,0,0,0,0,0,0,0,0,0,0,0,0,0,0,0,0,0,0,0,0,0,0,0,0,0,0,0,0,0,0,0,0,0,0,0,0,0,0,0,0,0,0,0,0,0,0,0,0,0,0,0,0,0,0,0,0,0,0,0,0,0,0,0,0,0,0,0,0,0,0,0,0,0,0,0,0,0,0,0,0,0,0,0,0,0,0,0,0,0,0,0,0,0,0,0,0,0,0,0,
0,0,0,0,0,0,0,0,0,0,0,0,0,0,0,0,0,0,0,0,0,0,0,0,0,0,0,0,0,0,0,0,0,0,0,0,0,0,0,0,0,0,0,0,0,0,0,0,0,0,0,0,0,0,0,0,0,0,0,0,0,0,0,0,0,0,0,0,0,0,0,0,0,0,0,0,0,0,0,0,0,0,0,0,0,0,0,0,0,0,0,0,0,0,0,0,0,0,0,0,
0,0,0,0,0,0,0,0,0,0,0,0,0,0,0,0,0,0,0,0,0,0,0,0,0,0,0,0,0,0,0,0,0,0,0,0,0,0,0,0,0,0,0,0,0,0,0,0,0,0,0,0,0,0,0,0,0,0,0,0,0,0,0,0,0,0,0,0,0,0,0,0,0,0,0,0,0,0,0,0,0,0,0,0,0,0,0,0,0,0,0,0,0,0,0,0,0,0,0,0,
0,0,0,0,0,0,0,0,0,0,0,0,0,0,0,0,0,0,0,0,0,0,0,0,0,0,0,0,0,0,0,0,0,0,0,0,0,0,0,0,0,0,0,0,0,0,0,0,0,0,0,0,0,0,0,0,0,0,0,0,0,0,0,0,0,0,0,0,0,0,0,0,0,0,0,0,0,0,0,0,0,0,0,0,0,0,0,0,0,0,0,0,0,0,0,0,0,0,0,0,
0,0,0,0,0,0,0,0,0,0,0,0,0,0,0,0,0,0,0,0,0,0,0,0,0,0,0,0,0,0,0,0,0,0,0,0,0,0,0,0,0,0,0,0,0,0,0,0,0,0,0,0,0,0,0,0,0,0,0,0,0,0,0,0,0,0,0,0,0,0,0,0,0,0,0,0,0,0,0,0,0,0,0,0,0,0,0,0,0,0,0,0,0,0,0,0,0,0,0,0,
0,0,0,0,0,0,0,0,0,0,0,0,0,0,0,0,0,0,0,0,0,0,0,0,0,0,0,0,0,0,0,0,0,0,0,0,0,0,0,0,0,0,0,0,0,0,0,0,0,0,0,0,0,0,0,0,0,0,0,0,0,0,0,0,0,0,0,0,0,0,0,0,0,0,0,0,0,0,0,0,0,0,0,0,0,0,0,0,0,0,0,0,0,0,0,0,0,0,0,0,
0,0,0,0,0,0,0,0,0,0,0,0,0,0,0,0,0,0,0,0,0,0,0,0,0,0,0,0,0,0,0,0,0,0,0,0,0,0,0,0,0,0,0,0,0,0,0,0,0,0,0,0,0,0,0,0,0,0,0,0,0,0,0,0,0,0,0,0,0,0,0,0,0,0,0,0,0,0,0,0,0,0,0,0,0,0,0,0,0,0,0,0,0,0,0,0,0,0,0,0,
0,0,0,0,0,0,0,0,0,0,0,0,0,0,0,0,0,0,0,0,0,0,0,0,0,0,0,0,0,0,0,0,0,0,0,0,0,0,0,0,0,0,0,0,0,0,0,0,0,0,0,0,0,0,0,0,0,0,0,0,0,0,0,0,0,0,0,0,0,0,0,0,0,0,0,0,0,0,0,0,0,0,0,0,0,0,0,0,0,0,0,0,0,0,0,0,0,0,0,0,
0,0,0,0,0,0,0,0,0,0,0,0,0,0,0,0,0,0,0,0,0,0,0,0,0,0,0,0,0,0,0,0,0,0,0,0,0,0,0,0,0,0,0,0,0,0,0,0,0,0,0,0,0,0,0,0,0,0,0,0,0,0,0,0,0,0,0,0,0,0,0,0,0,0,0,0,0,0,0,0,0,0,0,0,0,0,0,0,0,0,0,0,0,0,0,0,0,0,0,0,
0,0,0,0,0,0,0,0,0,0,0,0,0,0,0,0,0,0,0,0,0,0,0,0,0,0,0,0,0,0,0,0,0,0,0,0,0,0,0,0,0,0,0,0,0,0,0,0,0,0,0,0,0,0,0,0,0,0,0,0,0,0,0,0,0,0,0,0,0,0,0,0,0,0,0,0,0,0,0,0,0,0,0,0,0,0,0,0,0,0,0,0,0,0,0,0,0,0,0,0,
0,0,0,0,0,0,0,0,0,0,0,0,0,0,0,0,0,0,0,0,0,0,0,0,0,0,0,0,0,0,0,0,0,0,0,0,0,0,0,0,0,0,0,0,0,0,0,0,0,0,0,0,0,0,0,0,0,0,0,0,0,0,0,0,0,0,0,0,0,0,0,0,0,0,0,0,0,0,0,0,0,0,0,0,0,0,0,0,0,0,0,0,0,0,0,0,0,0,0,0,
0,0,0,0,0,0,0,0,0,0,0,0,0,0,0,0,0,0,0,0,0,0,0,0,0,0,0,0,0,0,0,0,0,0,0,0,0,0,0,0,0,0,0,0,0,0,0,0,0,0,0,0,0,0,0,0,0,0,0,0,0,0,0,0,0,0,0,0,0,0,0,0,0,0,0,0,0,0,0,0,0,0,0,0,0,0,0,0,0,0,0,0,0,0,0,0,0,0,0,0,
0,0,0,0,0,0,0,0,0,0,0,0,0,0,0,0,0,0,0,0,0,0,0,0,0,0,0,0,0,0,0,0,0,0,0,0,0,0,0,0,0,0,0,0,0,0,0,0,0,0,0,0,0,0,0,0,0,0,0,0,0,0,0,0,0,0,0,0,0,0,0,0,0,0,0,0,0,0,0,0,0,0,0,0,0,0,0,0,0,0,0,0,0,0,0,0,0,0,0,0,
0,0,0,0,0,0,0,0,0,0,0,0,0,0,0,0,0,0,0,0,0,0,0,0,0,0,0,0,0,0,0,0,0,0,0,0,0,0,0,0,0,0,0,0,0,0,0,0,0,0,0,0,0,0,0,0,0,0,0,0,0,0,0,0,0,0,0,0,0,0,0,0,0,0,0,0,0,0,0,0,0,0,0,0,0,0,0,0,0,0,0,0,0,0,0,0,0,0,0,0
</data>
 </layer>
 <layer id="12" name="Входы" width="100" height="100">
  <data encoding="csv">
0,0,0,0,0,0,0,0,0,0,0,0,0,0,0,0,0,0,0,0,0,0,0,0,0,0,0,0,0,0,0,0,0,0,0,0,0,0,0,0,0,0,0,0,0,0,0,0,0,0,0,0,0,0,0,0,0,0,0,0,0,0,0,0,0,0,0,0,0,0,0,0,0,0,0,0,0,0,0,0,0,0,0,0,0,0,0,0,0,0,0,0,0,0,0,0,0,0,0,0,
0,0,0,0,0,0,0,0,0,0,0,0,0,0,0,0,0,0,0,0,0,0,0,0,0,0,0,0,0,0,0,0,0,0,0,0,0,0,0,0,0,0,0,0,0,0,0,0,0,0,0,0,0,0,0,0,0,0,0,0,0,0,0,0,0,0,0,0,0,0,0,0,0,0,0,0,0,0,0,0,0,0,0,0,0,0,0,0,0,0,0,0,0,0,0,0,0,0,0,0,
0,0,0,0,0,0,0,0,0,0,0,0,0,0,0,0,0,0,0,0,0,0,0,0,0,0,0,0,0,0,0,0,0,0,0,0,0,0,0,0,0,0,0,0,0,0,0,0,0,0,0,0,0,0,0,0,0,0,0,0,0,0,0,0,0,0,0,0,0,0,0,0,0,0,0,0,0,0,0,0,0,0,0,0,0,0,0,0,0,0,0,0,0,0,0,0,0,0,0,0,
0,0,0,0,0,0,0,0,0,0,0,0,0,0,0,0,0,0,0,0,0,0,0,0,0,0,0,0,0,0,0,0,0,0,0,0,0,0,0,0,0,0,0,0,0,0,0,0,0,0,0,0,0,0,0,0,0,0,0,0,0,0,0,0,0,0,0,0,0,0,0,0,0,0,0,0,0,0,0,0,0,0,0,0,0,0,0,0,0,0,0,0,0,0,0,0,0,0,0,0,
0,0,0,0,0,0,0,0,0,0,0,0,0,0,0,0,0,0,0,0,0,0,0,0,0,0,0,0,0,0,0,0,0,0,0,0,0,0,0,0,0,0,0,0,0,0,0,0,0,0,0,0,0,0,0,0,0,0,0,0,0,0,0,0,0,0,0,0,0,0,0,0,0,0,0,0,0,0,0,0,0,0,0,0,0,0,0,0,0,0,0,0,0,0,0,0,0,0,0,0,
0,0,0,0,0,0,0,0,0,0,0,0,0,0,0,0,0,0,2389,0,0,0,0,0,0,0,0,0,0,0,0,0,0,0,0,0,0,0,0,0,0,0,0,0,0,0,0,0,0,0,0,0,0,0,0,0,0,0,0,0,0,0,0,0,0,0,0,0,0,0,0,0,0,0,0,0,0,0,0,0,0,0,0,0,0,0,0,0,0,0,0,0,0,0,0,0,0,0,0,0,
0,0,0,0,0,0,0,0,0,0,0,0,0,0,0,0,0,0,0,0,0,0,0,0,0,0,0,0,0,0,0,0,0,0,0,0,0,0,0,0,0,0,0,0,0,0,0,0,0,0,0,0,0,0,0,0,0,0,0,0,0,0,0,0,0,0,0,0,0,0,0,0,0,0,0,0,0,0,0,0,0,0,0,0,0,0,0,0,0,0,0,0,0,0,0,0,0,0,0,0,
0,0,0,0,0,0,0,0,0,0,0,0,0,0,0,0,0,0,0,0,0,0,0,0,0,0,0,0,0,0,0,0,0,0,0,0,0,0,0,0,0,0,0,0,0,0,0,0,0,0,0,0,0,0,0,0,0,0,0,0,0,0,0,0,0,0,0,0,0,0,0,0,0,0,0,0,0,0,0,0,0,0,0,0,0,0,0,0,0,0,0,0,0,0,0,0,0,0,0,0,
0,0,0,0,0,0,0,0,0,0,0,0,0,0,0,0,0,0,0,0,0,0,0,0,0,0,0,0,0,0,0,0,0,0,0,0,0,0,0,0,0,0,0,0,0,0,0,0,0,0,0,0,0,0,0,0,0,0,0,0,0,0,0,0,0,0,0,0,0,0,0,0,0,0,0,0,0,0,0,0,0,0,0,0,0,0,0,0,0,0,0,0,0,0,0,0,0,0,0,0,
0,0,0,0,0,0,0,0,0,0,0,0,0,0,0,0,0,0,0,0,0,0,0,0,0,0,0,0,0,0,0,0,0,0,0,0,0,0,0,0,0,0,0,0,0,0,0,0,0,0,0,0,0,0,0,0,0,0,0,0,0,0,0,0,0,0,0,0,0,0,0,0,0,0,0,0,0,0,0,0,0,0,0,0,0,0,0,0,0,0,0,0,0,0,0,0,0,0,0,0,
0,0,0,0,0,0,0,0,0,0,0,0,0,0,0,0,0,0,0,0,0,0,0,0,0,0,0,0,0,0,0,0,0,0,0,0,0,0,0,0,0,0,0,0,0,0,0,0,0,0,0,0,0,0,0,0,0,0,0,0,0,0,0,0,0,0,0,0,0,0,0,0,0,0,0,0,0,0,0,0,0,0,0,0,0,0,0,0,0,0,0,0,0,0,0,0,0,0,0,0,
0,0,0,0,0,0,0,0,0,0,0,0,0,0,0,0,0,0,0,0,0,0,0,0,0,0,0,0,0,0,0,0,0,0,0,0,0,0,0,0,0,0,0,0,0,0,0,0,0,0,0,0,0,0,0,0,0,0,0,0,0,0,0,0,0,0,0,0,0,0,0,0,0,0,0,0,0,0,0,0,0,0,0,0,0,0,0,0,0,0,0,0,0,0,0,0,0,0,0,0,
0,0,0,0,0,0,0,0,0,0,0,0,0,0,0,0,0,0,0,0,0,0,0,0,0,0,0,0,0,0,0,0,0,0,0,0,0,0,0,0,0,0,0,0,0,0,0,0,0,0,0,0,0,0,0,0,0,0,0,0,0,0,0,0,0,0,0,0,0,0,0,0,0,0,0,0,0,0,0,0,0,0,0,0,0,0,0,0,0,0,0,0,0,0,0,0,0,0,0,0,
0,0,0,0,0,0,0,0,0,0,0,0,0,0,0,0,0,0,0,0,0,0,0,0,0,0,0,0,0,0,0,0,0,0,0,0,0,0,0,0,0,0,0,0,0,0,0,0,0,0,0,0,0,0,0,0,0,0,0,0,0,0,0,0,0,0,0,0,0,0,0,0,0,0,0,0,0,0,0,0,0,0,0,0,0,0,0,0,0,0,0,0,0,0,0,0,0,0,0,0,
0,0,0,0,0,0,0,0,0,0,0,0,0,0,0,0,0,0,0,0,0,0,0,0,0,0,0,0,0,0,0,0,0,0,0,0,0,0,0,0,0,0,0,0,0,0,0,0,0,0,0,0,0,0,0,0,0,0,0,0,0,0,0,0,0,0,0,0,0,0,0,0,0,0,0,0,0,0,0,0,0,0,0,0,0,0,0,0,0,0,0,0,0,0,0,0,0,0,0,0,
0,0,0,0,0,0,0,0,0,0,0,0,0,0,0,0,0,0,0,0,0,0,0,0,0,0,0,0,0,0,0,0,0,0,0,0,0,0,0,0,0,0,0,0,0,0,0,0,0,0,0,0,0,0,0,0,0,0,0,0,0,0,0,0,0,0,0,0,0,0,0,0,0,0,0,0,0,0,0,0,0,0,0,0,0,0,0,0,0,0,0,0,0,0,0,0,0,0,0,0,
0,0,0,0,0,0,0,0,0,0,0,0,0,0,0,0,0,0,0,0,0,0,0,0,0,0,0,0,0,0,0,0,0,0,0,0,0,0,0,0,0,0,0,0,0,0,0,0,0,0,0,0,0,0,0,0,0,0,0,0,0,0,0,0,0,0,0,0,0,0,0,0,0,0,0,0,0,0,0,0,0,0,0,0,0,0,0,0,0,0,0,0,0,0,0,0,0,0,0,0,
0,0,0,0,0,0,0,0,0,0,0,0,0,0,2389,0,0,0,0,0,0,0,0,0,0,0,0,0,0,0,0,0,0,0,0,0,0,0,0,0,0,0,0,0,0,0,0,0,0,0,0,0,0,0,0,0,0,0,0,0,0,0,0,0,0,0,0,0,0,0,0,0,0,0,0,0,0,0,0,0,0,0,0,0,0,0,0,0,0,0,0,0,0,0,0,0,0,0,0,0,
0,0,0,0,0,0,0,0,0,0,0,0,0,0,0,0,0,0,0,0,0,0,0,0,0,0,0,0,0,0,0,0,0,0,0,0,0,0,0,0,0,0,0,0,0,0,0,0,0,0,0,0,0,0,0,0,0,0,0,0,0,0,0,0,0,0,0,0,0,0,0,0,0,0,0,0,0,0,0,0,0,0,0,0,0,0,0,0,0,0,0,0,0,0,0,0,0,0,0,0,
0,0,0,0,0,0,0,0,0,0,0,0,0,0,0,0,0,0,0,0,0,0,0,0,0,0,0,0,0,0,0,0,0,0,0,0,0,0,0,0,0,0,0,0,0,0,0,0,0,0,0,0,0,0,0,0,0,0,0,0,0,0,0,0,0,0,0,0,0,0,0,0,0,0,0,0,0,0,0,0,0,0,0,0,0,0,0,0,0,0,0,0,0,0,0,0,0,0,0,0,
0,0,0,0,0,0,0,0,0,0,0,0,0,0,0,0,0,0,0,0,0,0,0,0,0,0,0,0,0,0,0,0,0,0,0,0,0,0,0,0,0,0,0,0,0,0,0,0,0,0,0,0,0,0,0,0,0,0,0,0,0,0,0,0,0,0,0,0,0,0,0,0,0,0,0,0,0,0,0,0,0,0,0,0,0,0,0,0,0,0,0,0,0,0,0,0,0,0,0,0,
0,0,0,0,0,0,0,0,0,0,0,0,0,0,0,0,0,0,0,0,0,0,0,0,0,0,0,0,0,0,0,0,0,0,0,0,0,0,0,0,0,0,0,0,0,0,0,0,0,0,0,0,0,0,0,0,0,0,0,0,0,0,0,0,0,0,0,0,0,0,0,0,0,0,0,0,0,0,0,0,0,0,0,0,0,0,0,0,0,0,0,0,0,0,0,0,0,0,0,0,
0,0,0,0,0,0,0,0,0,0,0,0,0,0,0,0,0,0,0,0,0,0,0,0,0,0,0,0,0,0,0,0,0,0,0,0,0,0,0,0,0,0,0,0,0,0,0,0,0,0,0,0,0,0,0,0,0,0,0,0,0,0,0,0,0,0,0,0,0,0,0,0,0,0,0,0,0,0,0,0,0,0,0,0,0,0,0,0,0,0,0,0,0,0,0,0,0,0,0,0,
0,0,0,0,0,0,0,0,0,0,0,0,0,0,0,0,0,0,0,0,0,0,0,0,0,0,0,0,0,0,0,0,0,0,0,0,0,0,0,0,0,0,0,0,0,0,0,0,0,0,0,0,0,0,0,0,0,0,0,0,0,0,0,0,0,0,0,0,0,0,0,0,0,0,0,0,0,0,0,0,0,0,0,0,0,0,0,0,0,0,0,0,0,0,0,0,0,0,0,0,
0,0,0,0,0,0,0,0,0,0,0,0,0,0,0,0,0,0,0,0,0,0,0,0,0,0,0,0,0,0,0,0,0,0,0,0,0,0,0,0,0,0,0,0,0,0,0,0,0,0,0,0,0,0,0,0,0,0,0,0,0,0,0,0,0,0,0,0,0,0,0,0,0,0,0,0,0,0,0,0,0,0,0,0,0,0,0,0,0,0,0,0,0,0,0,0,0,0,0,0,
0,0,0,0,0,0,0,0,0,0,0,0,0,0,0,0,0,0,0,0,0,0,0,0,0,0,0,0,0,0,0,0,0,0,0,0,0,0,0,0,0,0,0,0,0,0,0,0,0,0,0,0,0,0,0,0,0,0,0,0,0,0,0,0,0,0,0,0,0,0,0,0,0,0,0,0,0,0,0,0,0,0,0,0,0,0,0,0,0,0,0,0,0,0,0,0,0,0,0,0,
0,0,0,0,0,0,0,0,0,0,0,0,0,0,0,0,0,0,0,0,0,0,0,0,0,0,0,0,0,0,0,0,0,0,0,0,0,0,0,0,0,0,0,0,0,0,0,0,0,0,0,0,0,0,0,0,0,0,0,0,0,0,0,0,0,0,0,0,0,0,0,0,0,0,0,0,0,0,0,0,0,0,0,0,0,0,0,0,0,0,0,0,0,0,0,0,0,0,0,0,
0,0,0,0,0,0,0,0,0,0,0,0,0,0,0,0,0,0,0,0,0,0,0,0,0,0,0,0,0,0,0,0,0,0,0,0,0,0,0,0,0,0,0,0,0,0,0,0,0,0,0,0,0,0,0,0,0,0,0,0,0,0,0,0,0,0,0,0,0,0,0,0,0,0,0,0,0,0,0,0,0,0,0,0,0,0,0,0,0,0,0,0,0,0,0,0,0,0,0,0,
0,0,0,0,0,0,0,0,0,0,0,0,0,0,0,0,0,0,0,0,0,0,0,0,0,0,0,0,0,0,0,0,0,0,0,0,0,0,0,0,0,0,0,0,0,0,0,0,0,0,0,0,0,0,0,0,0,0,0,0,0,0,0,0,0,0,0,0,0,0,0,0,0,0,0,0,0,0,0,0,0,0,0,0,0,0,0,0,0,0,0,0,0,0,0,0,0,0,0,0,
0,0,0,0,0,0,0,0,0,0,0,0,0,0,0,0,0,0,0,0,0,0,0,0,0,0,0,0,0,0,0,0,0,0,0,0,0,0,0,0,0,0,0,0,0,0,0,0,0,0,0,0,0,0,0,0,0,0,0,0,0,0,0,0,0,0,0,0,0,0,0,0,0,0,0,0,0,0,0,0,0,0,0,0,0,0,0,0,0,0,0,0,0,0,0,0,0,0,0,0,
0,0,0,0,0,0,0,0,0,0,0,0,0,0,0,0,0,0,0,0,0,0,0,0,0,0,0,0,0,0,0,0,0,0,0,0,0,0,0,0,0,0,0,0,0,0,0,0,0,0,0,0,0,0,0,0,0,0,0,0,0,0,0,0,0,0,0,0,0,0,0,0,0,0,0,0,0,0,0,0,0,0,0,0,0,0,0,0,0,0,0,0,0,0,0,0,0,0,0,0,
0,0,0,0,0,0,0,0,0,0,0,0,0,0,0,0,0,0,0,0,0,0,0,0,0,0,0,0,0,0,0,0,0,0,0,0,0,0,0,0,0,0,0,0,0,0,0,0,0,0,0,0,0,0,0,0,0,0,0,0,0,0,0,0,0,0,0,0,0,0,0,0,0,0,0,0,0,0,0,0,0,0,0,0,0,0,0,0,0,0,0,0,0,0,0,0,0,0,0,0,
0,0,0,0,0,0,0,0,0,0,0,0,0,0,0,0,0,0,0,0,0,0,0,0,0,0,0,0,0,0,0,0,0,0,0,0,0,0,0,0,0,0,0,0,0,0,0,0,0,0,0,0,0,0,0,0,0,0,0,0,0,0,0,0,0,0,0,0,0,0,0,0,0,0,0,0,0,0,0,0,0,0,0,0,0,0,0,0,0,0,0,0,0,0,0,0,0,0,0,0,
0,0,0,0,0,0,0,0,0,0,0,0,0,0,0,0,0,0,0,0,0,0,0,0,0,0,0,0,0,0,0,0,0,0,0,0,0,0,0,0,0,0,0,0,0,0,0,0,0,0,0,0,0,0,0,0,0,0,0,0,0,0,0,0,0,0,0,0,0,0,0,0,0,0,0,0,0,0,0,0,0,0,0,0,0,0,0,0,0,0,0,0,0,0,0,0,0,0,0,0,
0,0,0,0,0,0,0,0,0,0,0,0,0,0,0,0,0,0,0,0,0,0,0,0,0,0,0,0,0,0,0,0,0,0,0,0,0,0,0,0,0,0,0,0,0,0,0,0,0,0,0,0,0,0,0,0,0,0,0,0,0,0,0,0,0,0,0,0,0,0,0,0,0,0,0,0,0,0,0,0,0,0,0,0,0,0,0,0,0,0,0,0,0,0,0,0,0,0,0,0,
0,0,0,0,0,0,0,0,0,0,0,0,0,0,0,0,0,0,0,0,0,0,0,0,0,0,0,0,0,0,0,0,0,0,0,0,0,0,0,0,0,0,0,0,0,0,0,0,0,0,0,0,0,0,0,0,0,0,0,0,0,0,0,0,0,0,0,0,0,0,0,0,0,0,0,0,0,0,0,0,0,0,0,0,0,0,0,0,0,0,0,0,0,0,0,0,0,0,0,0,
0,0,0,0,0,0,0,0,0,0,0,0,0,0,0,0,0,0,0,0,0,0,0,0,0,0,0,0,0,0,0,0,0,0,0,0,0,0,0,0,0,0,0,0,0,0,0,0,0,0,0,0,0,0,0,0,0,0,0,0,0,0,0,0,0,0,0,0,0,0,0,0,0,0,0,0,0,0,0,0,0,0,0,0,0,0,0,0,0,0,0,0,0,0,0,0,0,0,0,0,
0,0,0,0,0,0,0,0,0,0,0,0,0,0,0,0,0,0,0,0,0,0,0,0,0,0,0,0,0,0,0,0,0,0,0,0,0,0,0,0,0,0,0,0,0,0,0,0,0,0,0,0,0,0,0,0,0,0,0,0,0,0,0,0,0,0,0,0,0,0,0,0,0,0,0,0,0,0,0,0,0,0,0,0,0,0,0,0,0,0,0,0,0,0,0,0,0,0,0,0,
0,0,0,0,0,0,0,0,0,0,0,0,0,0,0,0,0,0,0,0,0,0,0,0,0,0,0,0,0,0,0,0,0,0,0,0,0,0,0,0,0,0,0,0,0,0,0,0,0,0,0,0,0,0,0,0,0,0,0,0,0,0,0,0,0,0,0,0,0,0,0,0,0,0,0,0,0,0,0,0,0,0,0,0,0,0,0,0,0,0,0,0,0,0,0,0,0,0,0,0,
0,0,0,0,0,0,0,0,0,0,0,0,0,0,0,0,0,0,0,0,0,0,0,0,0,0,0,0,0,0,0,0,0,0,0,0,0,0,0,0,0,0,0,0,0,0,0,0,0,0,0,0,0,0,0,0,0,0,0,0,0,0,0,0,0,0,0,0,0,0,0,0,0,0,0,0,0,0,0,0,0,0,0,0,0,0,0,0,0,0,0,0,0,0,0,0,0,0,0,0,
0,0,0,0,0,0,0,0,0,0,0,0,0,0,0,0,0,0,0,0,0,0,0,0,0,0,0,0,0,0,0,0,0,0,0,0,0,0,0,0,0,0,0,0,0,0,0,0,0,0,0,0,0,0,0,0,0,0,0,0,0,0,0,0,0,0,0,0,0,0,0,0,0,0,0,0,0,0,0,0,0,0,0,0,0,0,0,0,0,0,0,0,0,0,0,0,0,0,0,0,
0,0,0,0,0,0,0,0,0,0,0,0,0,0,0,0,0,0,0,0,0,0,0,0,0,0,0,0,0,0,0,0,0,0,0,0,0,0,0,0,0,0,0,0,0,0,0,0,0,0,0,0,0,0,0,0,0,0,0,0,0,0,0,0,0,0,0,0,0,0,0,0,0,0,0,0,0,0,0,0,0,0,0,0,0,0,0,0,0,0,0,0,0,0,0,0,0,0,0,0,
0,0,0,0,0,0,0,0,0,0,0,0,0,0,0,0,0,0,0,0,0,0,0,0,0,0,0,0,0,0,0,0,0,0,0,0,0,0,0,0,0,0,0,0,0,0,0,0,0,0,0,0,0,0,0,0,0,0,0,0,0,0,0,0,0,0,0,0,0,0,0,0,0,0,0,0,0,0,0,0,0,0,0,0,0,0,0,0,0,0,0,0,0,0,0,0,0,0,0,0,
0,0,0,0,0,0,0,0,0,0,0,0,0,0,0,0,0,0,0,0,0,0,0,0,0,0,0,0,0,0,0,0,0,0,0,0,0,0,0,0,0,0,0,0,0,0,0,0,0,0,0,0,0,0,0,0,0,0,0,0,0,0,0,0,0,0,0,0,0,0,0,0,0,0,0,0,0,0,0,0,0,0,0,0,0,0,0,0,0,0,0,0,0,0,0,0,0,0,0,0,
0,0,0,0,0,0,0,0,0,0,0,0,0,0,0,0,0,0,0,0,0,0,0,0,0,0,0,0,0,0,0,0,0,0,0,0,0,0,0,0,0,0,0,0,0,0,0,0,0,0,0,0,0,0,0,0,0,0,0,0,0,0,0,0,0,0,0,0,0,0,0,0,0,0,0,0,0,0,0,0,0,0,0,0,0,0,0,0,0,0,0,0,0,0,0,0,0,0,0,0,
0,0,0,0,0,0,0,0,0,0,0,0,0,0,0,0,0,0,0,0,0,0,0,0,0,0,0,0,0,0,0,0,0,0,0,0,0,0,0,0,0,0,0,0,0,0,0,0,0,0,0,0,0,0,0,0,0,0,0,0,0,0,0,0,0,0,0,0,0,0,0,0,0,0,0,0,0,0,0,0,0,0,0,0,0,0,0,0,0,0,0,0,0,0,0,0,0,0,0,0,
0,0,0,0,0,0,0,0,0,0,0,0,0,0,0,0,0,0,0,0,0,0,0,0,0,0,0,0,0,0,0,0,0,0,0,0,0,0,0,0,0,0,0,0,0,0,0,0,0,0,0,0,0,0,0,0,0,0,0,0,0,0,0,0,0,0,0,0,0,0,0,0,0,0,0,0,0,0,0,0,0,0,0,0,0,0,0,0,0,0,0,0,0,0,0,0,0,0,0,0,
0,0,0,0,0,0,0,0,0,0,0,0,0,0,0,0,0,0,0,0,0,0,0,0,0,0,0,0,0,0,0,0,0,0,0,0,0,0,0,0,0,0,0,0,0,0,0,0,0,0,0,0,0,0,0,0,0,0,0,0,0,0,0,0,0,0,0,0,0,0,0,0,0,0,0,0,0,0,0,0,0,0,0,0,0,0,0,0,0,0,0,0,0,0,0,0,0,0,0,0,
0,0,0,0,0,0,0,0,0,0,0,0,0,0,0,0,0,0,0,0,0,0,0,0,0,0,0,0,0,0,0,0,0,0,0,0,0,0,0,0,0,0,0,0,0,0,0,0,0,0,0,0,0,0,0,0,0,0,0,0,0,0,0,0,0,0,0,0,0,0,0,0,0,0,0,0,0,0,0,0,0,0,0,0,0,0,0,0,0,0,0,0,0,0,0,0,0,0,0,0,
0,0,0,0,0,0,0,0,0,0,0,0,0,0,0,0,0,0,0,0,0,0,0,0,0,0,0,0,0,0,0,0,0,0,0,0,0,0,0,0,0,0,0,0,0,0,0,0,0,0,0,0,0,0,0,0,0,0,0,0,0,0,0,0,0,0,0,0,0,0,0,0,0,0,0,0,0,0,0,0,0,0,0,0,0,0,0,0,0,0,0,0,0,0,0,0,0,0,0,0,
0,0,0,0,0,0,0,0,0,0,0,0,0,0,0,0,0,0,0,0,0,0,0,0,0,0,0,0,0,0,0,0,0,0,0,0,0,0,0,0,0,0,0,0,0,0,0,0,0,0,0,0,0,0,0,0,0,0,0,0,0,0,0,0,0,0,0,0,0,0,0,0,0,0,0,0,0,0,0,0,0,0,0,0,0,0,0,0,0,0,0,0,0,0,0,0,0,0,0,0,
0,0,0,0,0,0,0,0,0,0,0,0,0,0,0,0,0,0,0,0,0,0,0,0,0,0,0,0,0,0,0,0,0,0,0,0,0,0,0,0,0,0,0,0,0,0,0,0,0,0,0,0,0,0,0,0,0,0,0,0,0,0,0,0,0,0,0,0,0,0,0,0,0,0,0,0,0,0,0,0,0,0,0,0,0,0,0,0,0,0,0,0,0,0,0,0,0,0,0,0,
0,0,0,0,0,0,0,0,0,0,0,0,0,0,0,0,0,0,0,0,0,0,0,0,0,0,0,0,0,0,0,0,0,0,0,0,0,0,0,0,0,0,0,0,0,0,0,0,0,0,0,0,0,0,0,0,0,0,0,0,0,0,0,0,0,0,0,0,0,0,0,0,0,0,0,0,0,0,0,0,0,0,0,0,0,0,0,0,0,0,0,0,0,0,0,0,0,0,0,0,
0,0,0,0,0,0,0,0,0,0,0,0,0,0,0,0,0,0,0,0,0,0,0,0,0,0,0,0,0,0,0,0,0,0,0,0,0,0,0,0,0,0,0,0,0,0,0,0,0,0,0,0,0,0,0,0,0,0,0,0,0,0,0,0,0,0,0,0,0,0,0,0,0,0,0,0,0,0,0,0,0,0,0,0,0,0,0,0,0,0,0,0,0,0,0,0,0,0,0,0,
0,0,0,0,0,0,0,0,0,0,0,0,0,0,0,0,0,0,0,0,0,0,0,0,0,0,0,0,0,0,0,0,0,0,0,0,0,0,0,0,0,0,0,0,0,0,0,0,0,0,0,0,0,0,0,0,0,0,0,0,0,0,0,0,0,0,0,0,0,0,0,0,0,0,0,0,0,0,0,0,0,0,0,0,0,0,0,0,0,0,0,0,0,0,0,0,0,0,0,0,
0,0,0,0,0,0,0,0,0,0,0,0,0,0,0,0,0,0,0,0,0,0,0,0,0,0,0,0,0,0,0,0,0,0,0,0,0,0,0,0,0,0,0,0,0,0,0,0,0,0,0,0,0,0,0,0,0,0,0,0,0,0,0,0,0,0,0,0,0,0,0,0,0,0,0,0,0,0,0,0,0,0,0,0,0,0,0,0,0,0,0,0,0,0,0,0,0,0,0,0,
0,0,0,0,0,0,0,0,0,0,0,0,0,0,0,0,0,0,0,0,0,0,0,0,0,0,0,0,0,0,0,0,0,0,0,0,0,0,0,0,0,0,0,0,0,0,0,0,0,0,0,0,0,0,0,0,0,0,0,0,0,0,0,0,0,0,0,0,0,0,0,0,0,0,0,0,0,0,0,0,0,0,0,0,0,0,0,0,0,0,0,0,0,0,0,0,0,0,0,0,
0,0,0,0,0,0,0,0,0,0,0,0,0,0,0,0,0,0,0,0,0,0,0,0,0,0,0,0,0,0,0,0,0,0,0,0,0,0,0,0,0,0,0,0,0,0,0,0,0,0,0,0,0,0,0,0,0,0,0,0,0,0,0,0,0,0,0,0,0,0,0,0,0,0,0,0,0,0,0,0,0,0,0,0,0,0,0,0,0,0,0,0,0,0,0,0,0,0,0,0,
0,0,0,0,0,0,0,0,0,0,0,0,0,0,0,0,0,0,0,0,0,0,0,0,0,0,0,0,0,0,0,0,0,0,0,0,0,0,0,0,0,0,0,0,0,0,0,0,0,0,0,0,0,0,0,0,0,0,0,0,0,0,0,0,0,0,0,0,0,0,0,0,0,0,0,0,0,0,0,0,0,0,0,0,0,0,0,0,0,0,0,0,0,0,0,0,0,0,0,0,
0,0,0,0,0,0,0,0,0,0,0,0,0,0,0,0,0,0,0,0,0,0,0,0,0,0,0,0,0,0,0,0,0,0,0,0,0,0,0,0,0,0,0,0,0,0,0,0,0,0,0,0,0,0,0,0,0,0,0,0,0,0,0,0,0,0,0,0,0,0,0,0,0,0,0,0,0,0,0,0,0,0,0,0,0,0,0,0,0,0,0,0,0,0,0,0,0,0,0,0,
0,0,0,0,0,0,0,0,0,0,0,0,0,0,0,0,0,0,0,0,0,0,0,0,0,0,0,0,0,0,0,0,0,0,0,0,0,0,0,0,0,0,0,0,0,0,0,0,0,0,0,0,0,0,0,0,0,0,0,0,0,0,0,0,0,0,0,0,0,0,0,0,0,0,0,0,0,0,0,0,0,0,0,0,0,0,0,0,0,0,0,0,0,0,0,0,0,0,0,0,
0,0,0,0,0,0,0,0,0,0,0,0,0,0,0,0,0,0,0,0,0,0,0,0,0,0,0,0,0,0,0,0,0,0,0,0,0,0,0,0,0,0,0,0,0,0,0,0,0,0,0,0,0,0,0,0,0,0,0,0,0,0,0,0,0,0,0,0,0,0,0,0,0,0,0,0,0,0,0,0,0,0,0,0,0,0,0,0,0,0,0,0,0,0,0,0,0,0,0,0,
0,0,0,0,0,0,0,0,0,0,0,0,0,0,0,0,0,0,0,0,0,0,0,0,0,0,0,0,0,0,0,0,0,0,0,0,0,0,0,0,0,0,0,0,0,0,0,0,0,0,0,0,0,0,0,0,0,0,0,0,0,0,0,0,0,0,0,0,0,0,0,0,0,0,0,0,0,0,0,0,0,0,0,0,0,0,0,0,0,0,0,0,0,0,0,0,0,0,0,0,
0,0,0,0,0,0,0,0,0,0,0,0,0,0,0,0,0,0,0,0,0,0,0,0,0,0,0,0,0,0,0,0,0,0,0,0,0,0,0,0,0,0,0,0,0,0,0,0,0,0,0,0,0,0,0,0,0,0,0,0,0,0,0,0,0,0,0,0,0,0,0,0,0,0,0,0,0,0,0,0,0,0,0,0,0,0,0,0,0,0,0,0,0,0,0,0,0,0,0,0,
0,0,0,0,0,0,0,0,0,0,0,0,0,0,0,0,0,0,0,0,0,0,0,0,0,0,0,0,0,0,0,0,0,0,0,0,0,0,0,0,0,0,0,0,0,0,0,0,0,0,0,0,0,0,0,0,0,0,0,0,0,0,0,0,0,0,0,0,0,0,0,0,0,0,0,0,0,0,0,0,0,0,0,0,0,0,0,0,0,0,0,0,0,0,0,0,0,0,0,0,
0,0,0,0,0,0,0,0,0,0,0,0,0,0,0,0,0,0,0,0,0,0,0,0,0,0,0,0,0,0,0,0,0,0,0,0,0,0,0,0,0,0,0,0,0,0,0,0,0,0,0,0,0,0,0,0,0,0,0,0,0,0,0,0,0,0,0,0,0,0,0,0,0,0,0,0,0,0,0,0,0,0,0,0,0,0,0,0,0,0,0,0,0,0,0,0,0,0,0,0,
0,0,0,0,0,0,0,0,0,0,0,0,0,0,0,0,0,0,0,0,0,0,0,0,0,0,0,0,0,0,0,0,0,0,0,0,0,0,0,0,0,0,0,0,0,0,0,0,0,0,0,0,0,0,0,0,0,0,0,0,0,0,0,0,0,0,0,0,0,0,0,0,0,0,0,0,0,0,0,0,0,0,0,0,0,0,0,0,0,0,0,0,0,0,0,0,0,0,0,0,
0,0,0,0,0,0,0,0,0,0,0,0,0,0,0,0,0,0,0,0,0,0,0,0,0,0,0,0,0,0,0,0,0,0,0,0,0,0,0,0,0,0,0,0,0,0,0,0,0,0,0,0,0,0,0,0,0,0,0,0,0,0,0,0,0,0,0,0,0,0,0,0,0,0,0,0,0,0,0,0,0,0,0,0,0,0,0,0,0,0,0,0,0,0,0,0,0,0,0,0,
0,0,0,0,0,0,0,0,0,0,0,0,0,0,0,0,0,0,0,0,0,0,0,0,0,0,0,0,0,0,0,0,0,0,0,0,0,0,0,0,0,0,0,0,0,0,0,0,0,0,0,0,0,0,0,0,0,0,0,0,0,0,0,0,0,0,0,0,0,0,0,0,0,0,0,0,0,0,0,0,0,0,0,0,0,0,0,0,0,0,0,0,0,0,0,0,0,0,0,0,
0,0,0,0,0,0,0,0,0,0,0,0,0,0,0,0,0,0,0,0,0,0,0,0,0,0,0,0,0,0,0,0,0,0,0,0,0,0,0,0,0,0,0,0,0,0,0,0,0,0,0,0,0,0,0,0,0,0,0,0,0,0,0,0,0,0,0,0,0,0,0,0,0,0,0,0,0,0,0,0,0,0,0,0,0,0,0,0,0,0,0,0,0,0,0,0,0,0,0,0,
0,0,0,0,0,0,0,0,0,0,0,0,0,0,0,0,0,0,0,0,0,0,0,0,0,0,0,0,0,0,0,0,0,0,0,0,0,0,0,0,0,0,0,0,0,0,0,0,0,0,0,0,0,0,0,0,0,0,0,0,0,0,0,0,0,0,0,0,0,0,0,0,0,0,0,0,0,0,0,0,0,0,0,0,0,0,0,0,0,0,0,0,0,0,0,0,0,0,0,0,
0,0,0,0,0,0,0,0,0,0,0,0,0,0,0,0,0,0,0,0,0,0,0,0,0,0,0,0,0,0,0,0,0,0,0,0,0,0,0,0,0,0,0,0,0,0,0,0,0,0,0,0,0,0,0,0,0,0,0,0,0,0,0,0,0,0,0,0,0,0,0,0,0,0,0,0,0,0,0,0,0,0,0,0,0,0,0,0,0,0,0,0,0,0,0,0,0,0,0,0,
0,0,0,0,0,0,0,0,0,0,0,0,0,0,0,0,0,0,0,0,0,0,0,0,0,0,0,0,0,0,0,0,0,0,0,0,0,0,0,0,0,0,0,0,0,0,0,0,0,0,0,0,0,0,0,0,0,0,0,0,0,0,0,0,0,0,0,0,0,0,0,0,0,0,0,0,0,0,0,0,0,0,0,0,0,0,0,0,0,0,0,0,0,0,0,0,0,0,0,0,
0,0,0,0,0,0,0,0,0,0,0,0,0,0,0,0,0,0,0,0,0,0,0,0,0,0,0,0,0,0,0,0,0,0,0,0,0,0,0,0,0,0,0,0,0,0,0,0,0,0,0,0,0,0,0,0,0,0,0,0,0,0,0,0,0,0,0,0,0,0,0,0,0,0,0,0,0,0,0,0,0,0,0,0,0,0,0,0,0,0,0,0,0,0,0,0,0,0,0,0,
0,0,0,0,0,0,0,0,0,0,0,0,0,0,0,0,0,0,0,0,0,0,0,0,0,0,0,0,0,0,0,0,0,0,0,0,0,0,0,0,0,0,0,0,0,0,0,0,0,0,0,0,0,0,0,0,0,0,0,0,0,0,0,0,0,0,0,0,0,0,0,0,0,0,0,0,0,0,0,0,0,0,0,0,0,0,0,0,0,0,0,0,0,0,0,0,0,0,0,0,
0,0,0,0,0,0,0,0,0,0,0,0,0,0,0,0,0,0,0,0,0,0,0,0,0,0,0,0,0,0,0,0,0,0,0,0,0,0,0,0,0,0,0,0,0,0,0,0,0,0,0,0,0,0,0,0,0,0,0,0,0,0,0,0,0,0,0,0,0,0,0,0,0,0,0,0,0,0,0,0,0,0,0,0,0,0,0,0,0,0,0,0,0,0,0,0,0,0,0,0,
0,0,0,0,0,0,0,0,0,0,0,0,0,0,0,0,0,0,0,0,0,0,0,0,0,0,0,0,0,0,0,0,0,0,0,0,0,0,0,0,0,0,0,0,0,0,0,0,0,0,0,0,0,0,0,0,0,0,0,0,0,0,0,0,0,0,0,0,0,0,0,0,0,0,0,0,0,0,0,0,0,0,0,0,0,0,0,0,0,0,0,0,0,0,0,0,0,0,0,0,
0,0,0,0,0,0,0,0,0,0,0,0,0,0,0,0,0,0,0,0,0,0,0,0,0,0,0,0,0,0,0,0,0,0,0,0,0,0,0,0,0,0,0,0,0,0,0,0,0,0,0,0,0,0,0,0,0,0,0,0,0,0,0,0,0,0,0,0,0,0,0,0,0,0,0,0,0,0,0,0,0,0,0,0,0,0,0,0,0,0,0,0,0,0,0,0,0,0,0,0,
0,0,0,0,0,0,0,0,0,0,0,0,0,0,0,0,0,0,0,0,0,0,0,0,0,0,0,0,0,0,0,0,0,0,0,0,0,0,0,0,0,0,0,0,0,0,0,0,0,0,0,0,0,0,0,0,0,0,0,0,0,0,0,0,0,0,0,0,0,0,0,0,0,0,0,0,0,0,0,0,0,0,0,0,0,0,0,0,0,0,0,0,0,0,0,0,0,0,0,0,
0,0,0,0,0,0,0,0,0,0,0,0,0,0,0,0,0,0,0,0,0,0,0,0,0,0,0,0,0,0,0,0,0,0,0,0,0,0,0,0,0,0,0,0,0,0,0,0,0,0,0,0,0,0,0,0,0,0,0,0,0,0,0,0,0,0,0,0,0,0,0,0,0,0,0,0,0,0,0,0,0,0,0,0,0,0,0,0,0,0,0,0,0,0,0,0,0,0,0,0,
0,0,0,0,0,0,0,0,0,0,0,0,0,0,0,0,0,0,0,0,0,0,0,0,0,0,0,0,0,0,0,0,0,0,0,0,0,0,0,0,0,0,0,0,0,0,0,0,0,0,0,0,0,0,0,0,0,0,0,0,0,0,0,0,0,0,0,0,0,0,0,0,0,0,0,0,0,0,0,0,0,0,0,0,0,0,0,0,0,0,0,0,0,0,0,0,0,0,0,0,
0,0,0,0,0,0,0,0,0,0,0,0,0,0,0,0,0,0,0,0,0,0,0,0,0,0,0,0,0,0,0,0,0,0,0,0,0,0,0,0,0,0,0,0,0,0,0,0,0,0,0,0,0,0,0,0,0,0,0,0,0,0,0,0,0,0,0,0,0,0,0,0,0,0,0,0,0,0,0,0,0,0,0,0,0,0,0,0,0,0,0,0,0,0,0,0,0,0,0,0,
0,0,0,0,0,0,0,0,0,0,0,0,0,0,0,0,0,0,0,0,0,0,0,0,0,0,0,0,0,0,0,0,0,0,0,0,0,0,0,0,0,0,0,0,0,0,0,0,0,0,0,0,0,0,0,0,0,0,0,0,0,0,0,0,0,0,0,0,0,0,0,0,0,0,0,0,0,0,0,0,0,0,0,0,0,0,0,0,0,0,0,0,0,0,0,0,0,0,0,0,
0,0,0,0,0,0,0,0,0,0,0,0,0,0,0,0,0,0,0,0,0,0,0,0,0,0,0,0,0,0,0,0,0,0,0,0,0,0,0,0,0,0,0,0,0,0,0,0,0,0,0,0,0,0,0,0,0,0,0,0,0,0,0,0,0,0,0,0,0,0,0,0,0,0,0,0,0,0,0,0,0,0,0,0,0,0,0,0,0,0,0,0,0,0,0,0,0,0,0,0,
0,0,0,0,0,0,0,0,0,0,0,0,0,0,0,0,0,0,0,0,0,0,0,0,0,0,0,0,0,0,0,0,0,0,0,0,0,0,0,0,0,0,0,0,0,0,0,0,0,0,0,0,0,0,0,0,0,0,0,0,0,0,0,0,0,0,0,0,0,0,0,0,0,0,0,0,0,0,0,0,0,0,0,0,0,0,0,0,0,0,0,0,0,0,0,0,0,0,0,0,
0,0,0,0,0,0,0,0,0,0,0,0,0,0,0,0,0,0,0,0,0,0,0,0,0,0,0,0,0,0,0,0,0,0,0,0,0,0,0,0,0,0,0,0,0,0,0,0,0,0,0,0,0,0,0,0,0,0,0,0,0,0,0,0,0,0,0,0,0,0,0,0,0,0,0,0,0,0,0,0,0,0,0,0,0,0,0,0,0,0,0,0,0,0,0,0,0,0,0,0,
0,0,0,0,0,0,0,0,0,0,0,0,0,0,0,0,0,0,0,0,0,0,0,0,0,0,0,0,0,0,0,0,0,0,0,0,0,0,0,0,0,0,0,0,0,0,0,0,0,0,0,0,0,0,0,0,0,0,0,0,0,0,0,0,0,0,0,0,0,0,0,0,0,0,0,0,0,0,0,0,0,0,0,0,0,0,0,0,0,0,0,0,0,0,0,0,0,0,0,0,
0,0,0,0,0,0,0,0,0,0,0,0,0,0,0,0,0,0,0,0,0,0,0,0,0,0,0,0,0,0,0,0,0,0,0,0,0,0,0,0,0,0,0,0,0,0,0,0,0,0,0,0,0,0,0,0,0,0,0,0,0,0,0,0,0,0,0,0,0,0,0,0,0,0,0,0,0,0,0,0,0,0,0,0,0,0,0,0,0,0,0,0,0,0,0,0,0,0,0,0,
0,0,0,0,0,0,0,0,0,0,0,0,0,0,0,0,0,0,0,0,0,0,0,0,0,0,0,0,0,0,0,0,0,0,0,0,0,0,0,0,0,0,0,0,0,0,0,0,0,0,0,0,0,0,0,0,0,0,0,0,0,0,0,0,0,0,0,0,0,0,0,0,0,0,0,0,0,0,0,0,0,0,0,0,0,0,0,0,0,0,0,0,0,0,0,0,0,0,0,0,
0,0,0,0,0,0,0,0,0,0,0,0,0,0,0,0,0,0,0,0,0,0,0,0,0,0,0,0,0,0,0,0,0,0,0,0,0,0,0,0,0,0,0,0,0,0,0,0,0,0,0,0,0,0,0,0,0,0,0,0,0,0,0,0,0,0,0,0,0,0,0,0,0,0,0,0,0,0,0,0,0,0,0,0,0,0,0,0,0,0,0,0,0,0,0,0,0,0,0,0,
0,0,0,0,0,0,0,0,0,0,0,0,0,0,0,0,0,0,0,0,0,0,0,0,0,0,0,0,0,0,0,0,0,0,0,0,0,0,0,0,0,0,0,0,0,0,0,0,0,0,0,0,0,0,0,0,0,0,0,0,0,0,0,0,0,0,0,0,0,0,0,0,0,0,0,0,0,0,0,0,0,0,0,0,0,0,0,0,0,0,0,0,0,0,0,0,0,0,0,0,
0,0,0,0,0,0,0,0,0,0,0,0,0,0,0,0,0,0,0,0,0,0,0,0,0,0,0,0,0,0,0,0,0,0,0,0,0,0,0,0,0,0,0,0,0,0,0,0,0,0,0,0,0,0,0,0,0,0,0,0,0,0,0,0,0,0,0,0,0,0,0,0,0,0,0,0,0,0,0,0,0,0,0,0,0,0,0,0,0,0,0,0,0,0,0,0,0,0,0,0,
0,0,0,0,0,0,0,0,0,0,0,0,0,0,0,0,0,0,0,0,0,0,0,0,0,0,0,0,0,0,0,0,0,0,0,0,0,0,0,0,0,0,0,0,0,0,0,0,0,0,0,0,0,0,0,0,0,0,0,0,0,0,0,0,0,0,0,0,0,0,0,0,0,0,0,0,0,0,0,0,0,0,0,0,0,0,0,0,0,0,0,0,0,0,0,0,0,0,0,0,
0,0,0,0,0,0,0,0,0,0,0,0,0,0,0,0,0,0,0,0,0,0,0,0,0,0,0,0,0,0,0,0,0,0,0,0,0,0,0,0,0,0,0,0,0,0,0,0,0,0,0,0,0,0,0,0,0,0,0,0,0,0,0,0,0,0,0,0,0,0,0,0,0,0,0,0,0,0,0,0,0,0,0,0,0,0,0,0,0,0,0,0,0,0,0,0,0,0,0,0,
0,0,0,0,0,0,0,0,0,0,0,0,0,0,0,0,0,0,0,0,0,0,0,0,0,0,0,0,0,0,0,0,0,0,0,0,0,0,0,0,0,0,0,0,0,0,0,0,0,0,0,0,0,0,0,0,0,0,0,0,0,0,0,0,0,0,0,0,0,0,0,0,0,0,0,0,0,0,0,0,0,0,0,0,0,0,0,0,0,0,0,0,0,0,0,0,0,0,0,0,
0,0,0,0,0,0,0,0,0,0,0,0,0,0,0,0,0,0,0,0,0,0,0,0,0,0,0,0,0,0,0,0,0,0,0,0,0,0,0,0,0,0,0,0,0,0,0,0,0,0,0,0,0,0,0,0,0,0,0,0,0,0,0,0,0,0,0,0,0,0,0,0,0,0,0,0,0,0,0,0,0,0,0,0,0,0,0,0,0,0,0,0,0,0,0,0,0,0,0,0,
0,0,0,0,0,0,0,0,0,0,0,0,0,0,0,0,0,0,0,0,0,0,0,0,0,0,0,0,0,0,0,0,0,0,0,0,0,0,0,0,0,0,0,0,0,0,0,0,0,0,0,0,0,0,0,0,0,0,0,0,0,0,0,0,0,0,0,0,0,0,0,0,0,0,0,0,0,0,0,0,0,0,0,0,0,0,0,0,0,0,0,0,0,0,0,0,0,0,0,0,
0,0,0,0,0,0,0,0,0,0,0,0,0,0,0,0,0,0,0,0,0,0,0,0,0,0,0,0,0,0,0,0,0,0,0,0,0,0,0,0,0,0,0,0,0,0,0,0,0,0,0,0,0,0,0,0,0,0,0,0,0,0,0,0,0,0,0,0,0,0,0,0,0,0,0,0,0,0,0,0,0,0,0,0,0,0,0,0,0,0,0,0,0,0,0,0,0,0,0,0,
0,0,0,0,0,0,0,0,0,0,0,0,0,0,0,0,0,0,0,0,0,0,0,0,0,0,0,0,0,0,0,0,0,0,0,0,0,0,0,0,0,0,0,0,0,0,0,0,0,0,0,0,0,0,0,0,0,0,0,0,0,0,0,0,0,0,0,0,0,0,0,0,0,0,0,0,0,0,0,0,0,0,0,0,0,0,0,0,0,0,0,0,0,0,0,0,0,0,0,0,
0,0,0,0,0,0,0,0,0,0,0,0,0,0,0,0,0,0,0,0,0,0,0,0,0,0,0,0,0,0,0,0,0,0,0,0,0,0,0,0,0,0,0,0,0,0,0,0,0,0,0,0,0,0,0,0,0,0,0,0,0,0,0,0,0,0,0,0,0,0,0,0,0,0,0,0,0,0,0,0,0,0,0,0,0,0,0,0,0,0,0,0,0,0,0,0,0,0,0,0
</data>
 </layer>
</map>
