<?xml version="1.0" encoding="UTF-8"?>
<map version="1.10" tiledversion="1.12.1" orientation="orthogonal" renderorder="right-down" width="1000" height="50" tilewidth="16" tileheight="16" infinite="0" nextlayerid="7" nextobjectid="1">
 <tileset firstgid="1" source="../tiled/tileset_camp.tsx"/>
 <tileset firstgid="208" source="Floor.tsx"/>
 <tileset firstgid="2408" source="../tiled/TilesetDesert.tsx"/>
 <tileset firstgid="2648" source="../tiled/TilesetHouse.tsx"/>
 <layer id="2" name="Слой тайлов 2" width="1000" height="50">
  <data encoding="csv">
655,695,650,694,697,694,650,652,698,698,651,699,695,699,651,699,697,699,695,697,654,655,651,651,655,699,697,655,696,655,695,698,697,698,695,655,696,654,654,697,697,695,694,654,654,696,651,652,652,650,694,698,699,696,650,694,696,650,654,694,654,655,654,651,654,653,650,696,695,651,694,654,695,698,650,651,651,653,698,653,697,650,699,698,655,655,697,694,695,699,655,654,652,651,694,699,655,650,653,698,653,653,695,650,652,650,654,650,699,698,650,694,699,650,655,697,653,694,655,651,697,697,650,653,651,651,699,650,699,654,698,654,652,696,651,651,697,694,694,699,694,697,652,695,653,697,650,652,699,655,696,698,650,696,697,698,697,696,655,654,699,651,653,698,695,654,654,653,651,652,653,655,694,698,694,652,699,655,654,694,696,651,651,653,650,653,696,653,695,652,698,696,655,694,697,699,650,654,695,699,651,651,653,651,654,694,650,697,694,654,650,697,653,694,654,695,694,653,650,694,651,651,653,694,694,655,653,655,652,699,651,651,695,697,653,697,698,694,697,651,652,652,655,699,699,652,697,694,653,695,651,653,651,694,699,695,696,697,694,655,651,653,651,698,652,694,698,655,652,696,696,650,655,698,650,650,694,697,650,652,650,653,653,698,650,696,697,653,698,650,699,694,651,699,652,652,696,699,655,697,650,695,694,695,696,654,652,696,650,698,696,694,695,696,694,652,655,698,652,651,653,652,698,653,653,697,699,698,653,654,697,652,694,650,697,697,652,653,652,655,651,694,696,695,695,653,651,695,697,651,694,694,699,652,650,651,699,699,652,653,652,694,694,697,651,651,655,696,654,696,654,698,653,697,652,652,694,652,699,652,695,653,653,697,652,655,651,651,653,655,699,651,696,650,697,652,653,652,651,695,654,698,655,653,698,653,655,650,654,695,697,650,694,651,697,695,653,654,650,650,653,698,696,697,696,655,655,697,698,655,653,698,699,697,696,650,653,654,696,694,654,651,650,654,699,696,697,653,651,695,652,653,694,654,695,698,651,699,696,650,652,698,697,696,698,652,654,651,652,651,651,650,698,653,654,653,699,696,696,695,653,699,651,698,694,650,655,652,696,654,653,698,694,652,655,654,652,694,650,695,654,696,696,697,698,694,695,654,655,653,699,654,699,655,696,694,655,650,695,653,699,697,698,699,652,698,699,650,696,651,694,651,654,652,697,653,653,696,696,698,655,695,695,652,695,653,696,695,698,650,699,699,654,698,654,699,695,652,654,650,695,698,651,652,654,650,695,696,651,652,698,655,697,698,655,651,652,655,696,652,654,694,655,654,695,655,652,697,653,696,694,697,655,698,696,696,651,695,651,651,694,655,650,652,695,696,654,650,698,695,694,650,698,653,651,650,651,655,650,695,653,698,694,697,695,654,696,698,655,652,652,654,655,698,696,699,651,695,695,653,695,698,695,655,696,655,698,655,652,653,655,699,655,696,695,696,695,655,697,699,653,694,698,650,650,654,694,698,694,694,654,697,698,699,698,698,654,650,651,695,651,695,655,651,698,655,655,654,695,694,698,695,655,650,696,655,699,699,654,697,654,695,696,652,695,653,654,699,698,696,654,698,650,696,699,654,653,699,650,652,699,699,699,697,650,694,651,651,651,696,696,696,650,695,698,655,697,695,695,655,695,698,652,651,654,651,697,654,654,695,695,651,698,697,650,697,698,651,696,695,696,654,652,655,697,653,650,697,650,651,650,694,698,652,694,697,699,695,650,699,695,697,651,650,650,650,651,697,699,698,695,695,653,696,697,698,694,654,697,651,652,695,652,652,699,696,697,696,654,697,651,695,652,698,651,650,650,699,694,698,651,651,697,651,697,694,654,698,696,653,697,653,694,650,653,696,694,650,653,655,654,699,654,655,652,652,697,694,696,653,698,652,698,653,655,652,696,696,698,653,653,653,655,650,655,654,697,696,651,695,697,695,699,699,699,696,655,655,653,699,650,652,654,698,653,653,697,697,695,697,652,650,654,655,698,698,694,694,652,698,653,694,655,655,696,651,699,651,651,695,655,654,694,698,652,655,654,650,699,650,651,698,652,697,652,696,650,652,653,696,694,698,652,698,654,650,650,697,695,654,695,699,655,650,651,694,652,652,652,698,654,694,651,699,699,696,699,696,654,697,652,651,653,697,694,696,699,652,652,655,697,695,655,697,653,694,650,652,651,697,699,698,696,697,699,651,696,696,653,698,652,652,696,694,696,699,654,697,650,694,
652,694,655,653,655,655,699,651,651,653,653,654,651,696,652,698,698,651,652,653,651,655,699,697,654,654,697,653,695,694,697,652,650,699,652,698,655,698,696,655,650,653,652,653,694,697,694,651,696,697,697,652,651,654,650,695,651,653,655,696,655,653,655,697,651,695,698,652,654,699,694,698,697,694,699,650,655,695,695,655,651,652,696,654,694,650,694,697,698,697,651,651,697,695,653,694,699,694,699,653,655,695,653,650,696,650,654,652,696,696,699,696,695,655,655,654,650,653,694,654,655,698,653,695,650,655,651,694,654,652,651,655,696,699,697,694,697,695,651,699,698,699,654,651,699,696,650,653,654,698,695,654,653,655,695,698,697,695,655,655,696,695,698,694,697,654,696,653,654,696,696,654,653,694,694,694,697,696,654,697,652,655,650,654,650,694,651,694,652,654,698,655,696,699,651,697,695,698,655,650,650,699,694,699,655,697,654,651,694,651,650,655,654,655,654,694,697,653,696,699,698,697,696,698,697,655,652,653,652,699,653,696,694,654,650,651,695,655,694,694,653,695,652,694,699,654,698,650,698,695,697,651,697,697,697,654,696,698,699,651,697,697,655,654,695,699,694,699,655,652,698,694,696,696,655,651,652,695,652,696,695,650,696,651,652,695,654,694,699,697,651,698,696,651,651,696,695,695,650,655,655,654,650,695,699,650,695,650,694,653,694,698,651,696,699,652,654,652,651,699,694,655,697,699,650,695,654,652,698,651,650,655,699,697,655,651,696,655,696,694,697,696,694,697,699,651,651,694,697,652,698,650,650,653,694,695,698,697,650,697,697,696,695,699,654,695,694,654,699,697,699,695,650,652,654,699,697,696,651,651,695,653,697,655,650,696,652,652,694,653,655,652,695,653,696,650,694,652,654,652,651,696,698,654,694,652,695,654,653,652,698,654,699,699,653,697,697,653,696,653,651,654,652,653,654,655,655,650,696,655,695,654,655,655,651,695,696,655,651,697,694,698,652,695,698,654,651,696,652,654,699,653,698,650,698,698,652,650,653,652,650,652,698,699,698,651,654,695,655,654,695,653,655,698,651,650,651,694,652,655,651,695,695,653,695,654,699,651,696,655,694,694,655,651,650,697,650,696,655,652,695,699,655,698,699,654,651,697,698,697,699,651,694,695,654,697,655,697,697,654,696,695,651,699,697,655,698,654,694,650,696,651,697,652,651,654,694,654,651,653,698,696,699,696,655,654,695,651,698,699,697,654,695,696,697,694,695,696,654,651,652,653,699,655,698,655,694,695,698,653,698,698,699,654,650,651,653,694,655,655,652,651,652,655,699,695,699,697,698,653,650,696,651,698,695,650,653,651,695,698,698,652,698,696,655,650,696,650,654,655,651,699,654,655,652,652,655,698,655,697,699,699,695,655,655,699,653,699,655,650,650,654,652,699,653,695,654,655,654,652,650,695,696,695,652,695,650,651,697,651,651,699,655,699,697,697,698,652,651,655,698,654,653,695,699,654,655,697,654,654,697,652,655,654,654,694,697,694,698,696,651,694,651,699,654,698,698,655,699,696,652,697,651,699,653,695,655,655,655,655,694,695,652,694,699,655,650,699,699,699,694,697,653,655,653,695,651,652,698,655,696,697,699,697,695,698,697,655,698,653,652,652,694,696,650,694,653,654,696,652,697,651,654,699,698,695,651,650,695,694,654,696,696,694,652,655,650,654,654,651,651,652,652,699,650,696,694,695,654,698,697,696,651,653,695,697,652,699,697,698,698,699,694,653,653,654,699,654,652,698,650,697,698,694,695,654,696,655,653,654,650,652,697,654,699,652,654,653,655,650,654,654,654,652,694,698,695,699,650,699,653,652,650,654,654,654,653,650,696,696,650,696,654,698,696,698,694,698,653,653,698,653,652,651,698,695,651,651,654,696,655,652,695,699,652,653,699,699,695,699,651,653,654,650,696,697,699,655,697,650,697,653,696,652,695,655,655,653,699,653,695,698,650,654,650,699,694,651,651,651,697,651,699,696,655,651,655,699,698,699,650,653,699,696,694,694,697,694,697,654,652,653,698,696,653,694,696,652,697,651,651,650,650,698,698,652,699,655,654,695,651,697,651,653,697,655,697,697,652,654,654,695,695,650,654,696,696,699,652,652,698,696,696,699,698,652,650,652,655,694,655,696,694,699,652,655,654,697,653,654,695,655,653,698,650,698,696,699,652,695,652,698,698,694,652,697,650,699,652,698,654,651,654,651,651,654,697,697,654,652,
697,699,696,694,696,653,698,653,696,655,652,694,694,699,697,653,655,651,694,652,654,698,695,653,655,698,653,654,654,653,652,651,652,651,696,655,653,650,655,697,698,652,698,697,696,652,651,651,694,651,655,655,696,655,650,652,695,650,697,653,651,697,699,652,655,696,696,653,653,652,695,652,654,653,694,696,694,651,698,698,652,698,653,694,695,698,653,694,696,650,654,699,698,696,698,650,654,699,699,694,698,652,695,650,697,652,699,652,651,694,696,695,655,697,695,699,653,699,695,699,651,698,652,694,697,698,695,650,653,696,699,651,650,694,650,655,696,696,655,651,699,694,694,695,697,699,697,694,655,655,694,698,655,655,697,650,655,653,652,696,697,697,696,697,653,694,695,650,653,654,697,694,650,699,695,654,696,694,652,699,696,654,697,652,696,696,695,655,651,698,699,694,696,697,652,654,654,695,696,652,697,654,654,694,694,694,699,699,695,696,697,650,655,696,696,653,698,653,652,650,650,652,653,699,653,697,654,699,652,697,699,698,650,697,697,655,698,695,696,698,652,650,650,651,697,654,650,653,651,697,652,652,697,651,695,653,698,651,695,654,653,697,699,653,695,655,650,697,653,699,655,695,653,652,697,697,655,697,653,694,652,695,695,698,696,695,696,653,653,699,652,652,655,694,694,699,697,654,694,698,695,697,697,655,698,696,695,694,697,694,698,651,653,697,650,655,650,652,698,652,699,652,698,698,695,655,695,695,696,699,655,655,651,653,654,694,694,696,698,653,650,696,696,650,655,694,694,697,650,655,651,696,653,699,655,694,654,652,651,694,650,655,695,655,652,697,650,654,655,650,695,654,651,694,696,695,651,697,694,650,653,654,696,652,697,655,652,697,653,695,655,698,654,696,652,651,694,652,654,694,655,699,655,653,650,654,650,652,650,655,694,652,650,696,652,653,699,695,699,651,697,697,695,699,696,652,699,695,652,695,654,653,694,650,650,655,654,652,696,652,695,695,654,654,655,653,653,698,697,652,651,696,651,654,651,695,655,697,652,694,694,694,699,695,698,653,654,654,695,653,653,651,652,694,654,650,694,655,650,695,694,655,650,651,654,650,696,699,695,694,652,652,655,655,698,698,695,655,650,698,651,650,698,694,655,696,653,694,697,653,650,654,698,697,694,654,654,653,695,698,653,651,699,654,694,697,650,699,699,650,699,696,653,694,696,655,651,697,650,698,699,696,653,653,698,652,699,650,698,653,697,652,696,699,653,651,655,653,652,694,696,695,651,650,654,653,651,652,655,655,651,699,694,696,696,696,655,699,697,652,696,696,650,698,696,699,699,695,655,654,697,699,653,651,653,655,694,654,694,651,652,652,698,696,655,696,655,651,695,650,653,699,697,694,694,650,699,697,697,655,653,698,697,698,698,699,653,698,651,651,651,654,697,650,655,650,695,699,652,650,650,697,694,654,697,650,652,652,650,699,654,694,651,699,652,655,650,652,696,695,697,652,654,695,654,694,695,696,699,654,698,699,697,654,655,696,655,655,699,652,699,653,653,650,698,655,695,695,694,698,696,694,654,650,697,653,651,655,698,651,696,652,699,697,694,699,694,694,699,653,699,652,698,699,697,654,651,696,652,651,697,652,655,655,652,698,650,696,697,697,696,697,652,655,697,654,654,655,696,654,650,698,695,651,699,651,652,697,653,652,655,653,698,652,697,652,655,654,697,694,699,696,696,652,652,650,695,655,651,696,697,699,696,697,652,651,652,699,697,695,695,650,698,652,651,651,695,652,654,650,655,652,652,650,651,655,698,650,651,694,697,698,650,695,651,697,655,695,653,653,697,653,695,696,694,698,696,699,699,651,699,695,694,697,697,653,694,655,695,694,698,694,697,696,699,651,696,699,650,694,652,698,696,655,695,699,651,696,655,697,650,651,654,654,697,652,650,653,696,696,652,699,654,695,650,698,696,655,699,694,650,651,653,698,654,654,650,652,697,650,694,653,695,699,650,696,655,651,697,695,697,653,695,650,695,694,650,650,699,697,696,653,654,699,696,698,654,655,698,697,696,697,697,654,652,653,650,698,699,697,694,699,698,650,650,651,654,696,655,698,650,653,655,697,655,652,652,653,695,653,651,694,654,655,694,655,652,696,651,698,698,655,696,696,695,653,698,654,697,696,653,694,650,697,651,654,653,654,695,698,652,650,651,696,699,699,698,698,651,654,651,650,694,651,696,699,698,650,650,698,654,654,650,655,699,650,696,697,653,696,
652,651,699,653,655,694,651,698,653,652,698,697,655,654,654,654,696,652,694,696,696,652,655,651,652,651,697,654,651,697,699,653,654,695,651,651,696,652,653,651,654,695,652,696,654,654,655,696,654,696,651,650,695,652,652,655,697,699,655,695,697,696,654,650,694,694,652,650,650,695,655,652,652,652,698,654,653,696,650,655,696,653,696,650,650,651,698,698,694,697,655,694,694,651,694,653,694,654,694,654,699,650,652,654,651,696,699,652,653,699,654,698,653,695,694,699,655,651,697,696,699,651,655,699,695,650,699,650,694,696,655,695,695,694,697,651,696,696,652,699,699,652,699,697,651,694,653,698,694,655,654,654,699,652,698,652,697,655,697,697,694,653,650,655,655,695,650,697,696,650,651,698,695,654,697,654,655,655,699,696,652,696,654,653,650,651,654,654,696,654,699,695,695,695,695,696,654,652,651,698,652,654,698,695,696,699,655,654,652,650,651,699,699,651,697,697,654,699,655,654,655,651,655,653,655,697,651,699,650,694,652,695,696,696,655,652,694,652,694,654,699,698,652,695,652,653,655,698,699,694,654,699,697,697,653,696,699,651,652,652,696,697,654,699,695,696,695,651,650,654,698,653,654,696,650,697,699,698,699,694,654,696,655,695,698,652,651,650,650,655,655,697,651,694,652,699,650,696,697,697,653,651,699,699,654,654,653,650,694,651,651,699,695,697,698,694,696,652,695,697,699,655,650,654,653,698,653,698,696,651,696,696,651,699,696,698,652,655,699,698,695,696,697,655,654,654,697,653,650,695,655,695,694,654,696,694,699,653,654,699,697,655,697,651,651,699,696,698,697,653,655,655,699,698,697,695,697,652,699,652,694,697,652,694,699,650,697,697,699,699,694,699,654,696,699,652,695,654,694,655,696,654,694,654,698,698,696,654,696,699,651,695,652,652,696,694,652,655,695,695,655,653,696,655,652,651,652,697,650,696,696,698,654,694,698,653,697,697,695,694,695,653,695,651,654,651,654,697,698,653,655,653,651,652,698,698,694,698,699,650,651,699,695,652,655,655,697,654,697,698,650,652,653,698,698,652,694,695,653,699,653,655,694,694,697,696,696,697,698,696,697,699,694,650,698,699,651,650,698,653,695,695,698,694,655,698,694,694,697,696,698,655,655,653,651,699,697,697,650,698,699,651,650,655,650,694,695,652,695,697,699,653,694,695,651,652,694,697,696,699,695,651,696,651,697,699,652,650,655,697,698,698,653,650,651,655,697,654,698,650,651,696,652,698,655,654,651,698,650,650,651,698,697,699,650,653,653,694,651,653,695,650,654,651,651,695,699,652,654,650,695,694,650,654,698,696,698,698,654,694,698,651,695,695,696,696,653,699,696,650,694,652,696,655,654,694,698,694,696,654,653,694,695,653,650,653,696,651,694,698,653,651,652,697,696,654,698,653,650,695,654,698,652,654,699,650,652,694,652,652,650,694,650,697,696,652,699,697,653,650,696,655,651,696,651,696,650,653,651,654,651,652,699,696,654,697,651,650,651,650,697,699,697,653,694,695,695,654,653,650,650,653,699,697,695,697,695,651,655,653,650,699,694,694,651,694,694,650,651,697,652,697,653,654,650,697,655,695,698,655,650,694,654,651,694,650,655,699,698,698,651,696,655,654,651,697,697,655,652,696,696,654,696,650,653,655,696,698,652,650,697,696,694,699,694,699,695,697,653,695,694,698,652,696,650,695,654,694,698,697,651,651,651,655,696,654,699,697,699,653,650,652,699,695,697,696,654,696,695,651,694,653,650,697,699,699,698,698,653,695,698,697,653,697,695,654,695,653,653,696,697,696,655,697,698,652,652,650,695,697,654,697,694,651,651,698,655,697,651,696,654,694,654,695,695,696,695,694,697,694,694,697,652,652,697,655,696,695,651,694,651,655,694,698,650,697,653,652,695,699,698,699,651,655,651,698,699,653,694,652,650,695,698,695,651,650,650,698,696,696,698,653,654,694,655,694,694,655,698,655,696,650,699,653,652,699,652,653,694,654,650,652,698,655,695,653,654,696,652,651,652,698,652,653,651,698,654,651,695,698,655,699,651,652,650,650,653,655,655,650,655,654,652,699,651,695,650,655,694,697,654,697,697,694,654,695,694,695,698,696,698,653,695,652,699,654,698,697,655,651,652,651,655,695,696,694,695,652,695,696,653,696,652,699,652,653,699,651,654,697,699,650,651,694,699,696,651,696,652,696,654,653,654,698,654,651,694,650,655,655,
652,650,650,699,694,694,652,695,694,653,655,699,696,654,694,699,698,655,654,698,652,654,696,651,650,694,696,695,655,697,653,695,653,652,655,653,697,651,655,698,699,699,698,697,650,695,698,698,655,653,654,694,699,650,699,652,650,694,654,651,655,699,653,696,652,695,697,694,697,694,699,694,694,655,699,655,695,697,695,697,698,697,650,696,652,696,650,651,650,655,694,652,695,654,698,695,696,694,651,650,655,694,650,696,696,651,698,699,655,695,653,697,655,654,697,655,699,697,655,651,653,697,696,696,655,699,654,654,653,696,695,651,696,696,699,697,699,653,696,694,652,695,651,697,651,650,655,698,655,694,652,695,652,695,654,694,697,697,652,694,698,651,695,698,698,655,652,654,651,654,696,650,694,651,694,699,653,654,650,655,697,650,654,698,697,653,696,650,697,653,697,651,699,650,650,697,655,699,650,655,697,651,654,653,698,695,651,697,696,655,652,651,651,694,698,651,652,699,699,651,698,650,653,698,651,650,653,650,655,652,698,699,651,697,655,696,651,654,697,698,650,652,696,651,698,694,650,698,652,653,698,653,654,651,653,652,696,698,650,650,654,650,698,651,697,653,652,694,650,652,655,698,654,696,699,652,694,650,651,697,651,698,699,696,694,653,652,696,699,699,655,697,696,695,652,695,694,650,650,699,699,653,655,650,655,698,697,698,699,651,655,696,654,652,698,698,654,694,651,698,695,698,694,655,699,699,698,698,696,651,698,697,652,650,651,697,695,654,695,653,651,699,699,697,653,651,652,696,650,651,694,652,695,695,696,694,699,653,650,655,699,653,698,695,697,653,654,697,650,694,654,655,654,651,695,652,654,654,651,699,655,653,696,652,699,694,655,653,696,653,654,696,699,652,699,697,696,696,694,696,655,650,651,696,697,696,650,695,694,694,696,698,655,651,698,699,655,655,694,697,697,655,653,695,653,698,694,699,655,694,694,652,651,699,653,696,654,654,698,695,697,655,699,696,655,695,698,694,654,694,697,699,698,650,696,650,699,653,655,652,651,653,694,696,698,655,652,653,650,696,696,699,653,653,653,697,652,695,699,694,696,699,698,698,652,651,652,654,695,697,653,695,694,654,650,655,697,652,698,695,653,694,655,695,699,650,699,698,651,696,655,697,698,698,653,652,652,654,696,652,652,694,694,697,653,697,651,698,694,653,699,699,695,652,699,654,696,655,654,654,654,651,698,654,653,652,650,699,650,699,650,699,652,651,653,699,699,650,697,652,696,695,699,651,652,654,694,694,699,698,652,654,655,652,655,697,694,652,697,651,652,651,655,650,650,696,694,652,699,695,652,652,695,699,654,653,697,699,699,651,653,695,654,698,654,699,697,699,696,653,696,652,694,695,651,694,697,694,650,655,654,650,695,655,654,654,652,694,694,654,650,650,652,650,695,699,650,698,696,698,654,652,699,697,694,655,650,655,697,696,697,653,699,652,694,695,697,698,696,650,694,654,652,697,652,698,698,654,652,651,696,653,653,699,655,697,695,652,655,696,699,698,694,651,651,651,698,696,695,650,697,695,652,650,695,697,695,650,697,695,654,652,651,697,653,652,697,651,653,652,652,655,697,697,653,653,694,653,695,650,651,695,651,699,651,695,652,651,697,654,694,654,651,650,695,699,652,654,654,694,695,698,695,697,653,696,697,650,696,651,652,695,650,694,650,695,650,694,694,651,697,698,654,652,652,655,697,696,696,651,651,655,699,653,697,650,699,697,650,698,697,697,652,650,651,697,655,695,650,698,652,650,653,650,699,655,653,697,696,698,697,694,654,697,652,698,694,651,695,655,652,699,655,650,655,695,698,694,654,653,694,698,651,694,650,651,699,654,696,695,697,653,697,653,654,651,697,651,696,694,696,698,699,655,695,694,655,652,699,652,695,652,696,650,652,699,655,697,650,651,695,695,652,694,655,699,652,694,694,694,699,698,697,696,697,696,697,654,699,653,652,653,696,650,699,694,652,694,699,696,651,650,654,699,698,698,655,699,695,655,651,698,694,699,698,652,650,696,651,697,652,652,694,697,655,699,696,697,650,695,650,694,655,697,651,651,698,655,699,698,697,655,651,655,651,655,699,651,694,695,651,650,654,696,698,650,698,696,698,654,654,654,699,696,698,697,695,650,695,698,650,651,652,652,652,694,651,696,652,698,695,650,694,650,697,696,653,696,699,697,650,696,698,652,699,696,699,696,699,655,696,696,697,650,654,697,651,695,651,699,
696,653,695,650,650,650,654,654,696,697,650,653,694,655,699,651,696,699,651,653,697,695,697,650,697,654,651,694,655,650,699,655,697,651,654,652,695,655,650,695,650,695,652,694,654,652,694,650,651,650,697,698,697,653,694,653,654,698,694,697,653,697,650,697,653,654,650,695,697,654,697,653,655,651,696,696,651,696,697,699,694,698,699,651,650,695,654,653,654,696,698,695,653,652,653,699,694,694,698,650,651,697,655,655,698,696,650,697,697,653,697,651,694,653,694,697,653,654,650,654,695,655,651,697,651,699,697,694,699,650,651,654,698,655,652,694,654,694,653,699,653,697,695,654,694,697,650,650,655,653,651,650,653,652,698,654,651,655,694,695,698,697,650,653,696,655,655,694,696,653,654,650,650,651,699,698,651,697,698,697,695,655,698,650,652,655,696,653,652,699,652,652,696,695,652,697,697,696,651,694,694,650,650,695,697,694,654,655,697,655,653,695,652,652,653,695,652,696,697,696,650,651,696,699,696,653,699,650,652,653,655,697,655,654,696,696,653,694,699,650,699,655,698,695,696,696,652,655,652,697,650,699,694,655,694,695,696,654,698,650,651,694,653,699,696,652,697,655,699,651,651,698,696,696,695,653,694,696,699,694,698,696,655,694,655,695,652,653,651,697,694,652,698,651,699,651,694,699,654,695,698,697,654,654,696,654,655,698,698,695,654,653,654,650,694,652,696,699,694,696,654,694,655,652,697,694,696,698,697,655,697,654,651,654,654,653,655,650,698,699,696,652,653,694,698,651,696,695,654,695,699,697,698,650,651,695,695,654,650,695,695,650,696,696,697,651,650,696,653,698,698,695,650,697,696,698,655,655,653,696,652,653,698,695,699,697,695,699,697,696,694,695,694,653,697,698,695,699,651,651,653,651,697,699,699,699,652,694,697,698,696,696,652,699,654,699,651,651,651,652,652,650,696,651,651,699,698,695,696,654,652,698,651,654,694,651,697,697,650,654,698,650,695,697,653,651,654,697,653,652,695,695,653,652,651,699,650,697,695,694,696,699,698,655,699,698,654,650,654,699,699,694,651,655,696,695,695,654,699,655,694,651,654,651,696,698,653,653,653,650,694,697,654,650,699,652,655,694,694,697,654,695,650,694,655,654,694,653,695,652,696,694,697,651,696,653,654,651,655,697,698,695,652,698,651,653,651,652,651,699,650,696,653,655,650,650,695,650,699,654,696,652,696,652,654,699,699,650,697,699,699,698,694,654,694,654,653,696,699,654,695,651,696,697,651,695,651,698,655,696,652,698,695,652,694,699,655,655,652,697,699,694,698,654,699,696,653,652,654,655,651,697,696,696,694,694,651,653,695,694,650,651,694,699,698,653,650,652,694,654,695,695,696,654,653,698,654,695,655,694,699,652,654,694,695,654,695,696,698,697,694,697,696,697,655,652,651,651,694,698,654,695,654,655,653,650,697,699,652,653,695,696,651,651,697,651,699,696,652,652,699,650,655,655,697,650,650,698,695,654,699,650,651,653,655,699,698,698,696,654,655,694,699,696,650,695,698,695,655,695,655,698,696,698,650,651,651,694,698,655,652,652,694,697,650,651,696,655,651,694,695,650,652,697,694,653,651,697,698,654,696,697,699,699,697,651,650,698,652,699,695,651,697,696,653,650,694,654,699,652,652,696,652,652,650,698,698,694,654,653,651,698,694,698,650,651,695,652,699,696,698,698,694,654,699,651,652,697,696,655,698,654,698,695,653,695,696,697,696,655,653,650,694,697,652,699,654,695,697,654,653,654,695,655,653,654,694,696,696,653,698,652,696,654,695,652,695,650,699,653,695,695,698,650,651,699,652,696,697,696,696,699,651,695,697,694,697,652,699,651,655,655,654,698,651,650,694,698,650,653,694,653,697,698,699,695,696,653,655,653,697,650,699,699,650,698,695,655,651,653,652,651,655,654,651,650,650,654,655,654,655,698,698,651,651,697,695,694,651,698,695,697,696,653,694,694,651,699,653,652,653,694,653,650,650,697,651,653,654,694,696,696,651,655,697,694,699,699,653,696,698,699,695,651,694,654,651,653,695,653,651,653,651,655,698,696,650,650,653,654,699,650,694,655,697,655,655,694,650,654,654,698,697,651,651,652,654,696,651,654,699,697,695,697,651,698,651,650,655,698,652,650,653,698,697,699,650,698,696,653,698,694,696,655,696,696,653,696,698,697,697,655,697,653,698,654,698,653,694,653,695,696,653,655,653,652,695,655,699,698,
698,697,698,695,699,652,651,653,697,694,654,696,699,654,696,655,698,694,696,696,699,697,697,699,653,651,696,696,655,697,697,654,650,697,653,696,651,653,695,650,651,653,655,698,651,696,655,653,655,652,695,694,694,652,655,651,652,653,653,696,651,699,697,655,654,655,697,655,696,653,697,653,651,654,654,695,650,652,650,655,650,697,699,651,654,654,653,653,694,696,655,699,654,696,651,699,653,654,695,696,655,698,694,651,697,654,654,652,652,696,695,652,698,653,651,652,653,698,695,699,650,696,696,697,653,652,650,697,695,652,697,699,655,652,694,696,653,652,652,698,699,654,655,652,652,697,655,650,698,695,655,652,650,698,654,698,696,694,655,653,651,695,697,695,654,655,694,650,652,654,698,654,650,698,697,652,650,695,696,698,655,654,696,655,654,698,697,694,698,694,652,694,695,698,697,697,651,650,695,697,697,655,698,653,654,699,699,653,694,695,694,651,699,699,654,696,655,698,697,697,695,652,695,694,698,654,694,651,697,699,697,694,651,654,694,698,654,650,651,651,695,653,654,651,697,653,654,698,697,651,694,697,698,699,655,699,655,650,651,651,655,650,694,650,698,650,694,652,695,698,652,654,694,650,655,652,696,654,697,651,653,694,697,696,652,697,699,653,698,651,696,699,697,655,696,655,654,699,696,697,697,650,654,695,696,650,655,651,652,654,652,696,698,698,698,695,655,694,697,653,655,651,699,652,694,652,650,696,652,698,699,652,695,650,653,694,696,654,696,699,651,695,655,698,696,695,694,694,694,653,652,650,651,696,653,651,697,694,697,655,695,695,699,651,699,653,695,699,698,699,651,695,652,655,654,694,697,655,696,694,655,696,694,698,655,699,651,655,696,652,698,699,694,655,697,698,654,697,695,698,653,652,653,654,652,696,652,699,698,694,695,697,652,654,650,695,650,697,653,654,652,654,651,650,699,695,651,695,653,696,655,655,652,654,652,698,652,650,650,652,694,699,654,697,694,652,695,654,696,697,697,652,697,699,650,651,654,651,694,652,696,654,654,654,694,650,651,697,698,697,651,655,653,654,651,695,697,699,655,655,653,653,654,655,695,695,651,653,698,655,699,653,653,651,697,650,650,698,654,696,650,699,698,654,654,699,654,699,698,652,696,699,698,698,654,654,650,695,697,697,694,650,694,655,650,697,650,698,652,651,651,696,653,651,655,650,651,650,651,650,694,654,654,654,694,655,655,655,698,698,698,652,699,696,655,655,655,697,699,653,651,698,650,695,653,695,655,652,653,698,650,694,698,696,695,695,699,696,698,696,651,653,652,651,698,699,697,698,655,650,696,650,699,651,697,652,694,699,650,699,696,697,654,699,696,696,694,699,652,653,694,697,696,654,699,695,653,694,655,696,696,695,651,652,695,696,650,650,695,655,696,653,694,652,699,654,652,652,699,697,654,652,654,655,697,697,653,655,695,653,651,699,651,650,699,652,699,650,654,653,695,697,653,655,698,694,698,650,694,655,695,699,650,653,696,695,696,695,699,654,699,695,651,652,650,694,699,696,654,698,697,650,654,653,698,695,655,695,697,652,653,695,696,654,697,698,696,694,652,654,653,695,697,650,650,698,655,654,699,655,699,651,651,697,699,694,697,694,694,695,653,650,654,695,654,695,694,654,695,653,695,655,655,696,699,694,699,694,694,694,695,696,695,694,653,650,698,655,694,655,654,651,655,651,653,697,698,650,652,697,697,695,653,697,694,652,698,699,699,654,698,698,652,655,697,695,652,697,694,655,652,653,695,696,698,699,694,696,698,697,654,699,697,654,654,699,696,699,698,653,651,699,650,653,654,652,655,650,650,652,653,696,696,654,695,654,698,696,652,653,695,651,698,655,696,697,696,652,699,653,654,697,655,655,699,694,650,650,652,653,653,698,699,650,694,696,694,694,698,653,697,698,653,696,652,697,694,653,654,655,698,696,698,654,699,655,696,697,651,651,655,695,699,694,652,654,696,697,650,695,698,654,695,652,698,654,694,652,698,696,699,696,694,699,653,651,694,654,655,651,651,697,653,655,699,651,654,694,654,651,695,652,651,698,695,694,651,654,694,696,652,695,652,654,653,654,699,653,698,696,699,695,697,698,654,695,652,695,654,650,655,698,697,654,695,650,653,698,650,655,694,651,653,653,697,699,651,652,654,697,650,698,652,699,651,651,694,694,650,652,695,699,650,697,655,652,697,654,694,694,651,654,697,654,696,698,695,650,650,699,
655,650,696,655,652,699,696,695,652,695,651,654,655,653,652,698,650,654,650,654,695,653,651,655,698,697,651,694,694,699,650,653,654,650,655,654,650,697,654,699,699,695,696,696,651,653,652,695,655,651,652,694,652,651,698,651,697,655,696,650,698,694,698,650,652,650,654,650,653,698,654,698,698,697,699,695,698,699,696,654,695,654,697,698,695,650,652,694,654,653,653,654,651,694,650,695,654,653,655,652,696,651,655,651,699,696,697,696,655,699,695,698,698,655,695,655,654,696,654,653,697,694,652,652,697,650,695,698,696,698,650,694,653,694,650,654,655,655,653,654,655,695,654,655,650,655,696,654,654,652,654,654,694,699,652,698,698,652,695,699,655,695,697,698,650,651,652,696,696,695,697,651,650,698,695,697,654,652,698,654,651,696,654,651,651,697,694,651,653,697,699,697,654,697,651,650,698,696,698,655,651,651,697,698,655,698,698,653,655,696,652,694,694,698,694,652,652,654,653,699,694,697,654,650,654,696,697,697,696,699,697,653,650,653,699,699,654,694,652,699,698,698,655,654,697,652,654,699,653,699,699,650,697,694,698,651,694,694,698,653,651,697,650,694,695,699,651,696,652,651,651,650,654,698,694,699,655,654,652,653,699,651,655,698,652,655,652,695,651,650,695,698,694,698,695,653,651,696,695,697,699,698,651,694,694,650,650,651,651,696,650,694,697,655,694,655,699,651,695,695,652,651,650,696,652,653,655,655,695,694,694,694,696,655,698,653,695,651,653,698,651,653,699,651,698,699,694,698,694,651,697,699,654,699,695,698,698,650,654,698,695,696,694,697,653,699,653,696,694,655,695,699,699,650,698,697,697,654,654,654,695,696,696,653,651,696,651,652,654,696,698,694,698,694,654,697,699,654,653,696,698,654,699,697,698,696,652,699,655,695,651,650,695,651,652,699,696,650,695,699,699,699,651,653,655,652,653,650,655,698,652,653,694,651,698,653,653,653,652,654,697,655,652,653,655,697,697,654,650,697,655,698,695,697,698,698,694,698,653,653,652,654,698,653,655,698,650,652,651,696,695,650,697,653,654,695,653,697,653,652,698,655,697,650,694,696,652,653,652,694,696,694,652,697,652,650,651,699,652,654,696,652,654,699,650,655,699,653,655,699,652,654,655,696,695,696,651,699,653,695,654,651,695,651,655,697,651,651,652,697,651,651,652,697,697,698,655,650,697,651,655,699,654,651,653,651,698,652,650,696,650,694,650,696,650,655,653,698,651,653,655,655,695,652,694,699,694,650,654,650,699,694,695,652,653,697,651,654,654,650,651,652,698,651,699,653,694,652,697,650,694,652,696,652,655,695,694,652,653,698,651,697,653,655,694,694,696,655,654,699,655,654,652,654,654,654,651,699,651,694,650,650,698,695,654,654,651,698,695,696,651,698,655,699,698,694,654,650,653,696,653,650,696,699,653,696,699,695,653,696,695,652,653,696,696,698,698,695,655,655,697,654,697,651,651,655,694,699,697,650,698,695,699,696,653,654,650,651,654,654,650,699,697,699,694,654,699,652,654,694,698,696,652,654,696,698,697,694,696,697,695,653,652,652,698,699,654,697,696,652,697,652,695,653,654,654,655,698,650,694,694,698,651,655,652,652,696,696,653,698,650,654,696,654,698,655,697,654,653,655,650,650,654,694,651,696,650,652,697,696,694,655,696,697,650,651,654,651,653,696,654,697,698,651,653,697,651,655,696,650,696,694,699,697,697,697,654,652,696,653,695,650,654,655,651,651,653,699,654,695,695,655,699,699,694,696,697,696,697,695,651,653,694,697,653,651,697,655,697,696,653,651,699,697,654,696,653,699,698,654,652,696,654,696,697,694,695,652,698,698,699,652,695,652,653,652,652,653,698,694,653,655,698,699,694,694,699,654,650,699,652,696,655,655,654,652,650,652,653,651,697,696,698,694,654,696,651,652,655,654,698,699,651,697,697,655,698,697,652,651,654,651,655,697,655,697,696,655,655,650,695,698,699,651,650,651,696,653,650,698,699,654,698,651,652,694,655,699,695,695,699,694,696,652,698,699,655,696,655,651,654,699,651,654,696,695,650,694,696,694,654,652,651,695,696,699,699,697,652,696,698,696,651,699,653,655,694,698,696,695,699,695,698,695,654,695,698,652,696,694,695,694,652,699,696,650,695,653,698,652,651,698,699,651,652,654,655,695,651,697,699,695,650,699,654,652,698,655,695,652,696,697,654,653,694,652,697,654,651,694,
650,654,650,652,698,697,696,650,653,697,651,696,652,697,650,652,697,651,697,651,650,699,653,653,651,655,699,698,651,655,697,650,698,699,653,695,655,696,655,696,696,650,694,652,652,654,650,696,653,697,651,695,694,697,653,694,694,697,696,699,698,650,654,651,653,655,698,654,699,654,695,695,653,653,697,694,652,694,695,697,650,698,654,695,698,652,652,650,652,698,697,653,696,694,652,652,651,652,654,698,651,696,697,651,652,695,696,695,654,698,652,654,651,651,699,652,696,699,652,651,650,652,651,653,699,652,698,650,697,650,653,654,699,654,698,654,652,651,653,695,695,651,652,698,699,695,653,697,651,654,696,655,651,694,697,655,699,694,651,698,698,695,695,698,695,699,696,697,652,651,695,698,695,695,698,698,698,652,654,653,650,695,650,699,654,697,652,655,650,655,655,651,695,655,650,653,699,697,696,697,651,699,652,654,695,697,696,699,650,695,699,650,653,652,654,652,655,654,652,650,695,651,698,653,650,654,695,652,698,696,654,654,652,653,697,695,652,651,655,655,654,698,653,699,650,699,654,694,653,653,694,696,699,697,699,698,696,653,652,652,699,694,651,655,697,699,654,653,653,699,654,697,651,696,698,698,696,699,694,655,694,695,699,652,696,694,698,696,652,698,699,654,654,699,655,653,655,694,655,654,654,694,653,694,654,695,650,699,694,695,695,699,699,650,697,652,695,697,652,654,650,650,651,652,650,653,651,694,651,652,694,654,655,654,651,650,650,698,650,652,650,651,696,696,694,699,698,696,694,650,697,699,654,650,698,653,655,699,653,696,696,654,651,653,655,651,694,651,696,699,696,698,650,653,698,651,695,694,695,696,697,699,696,697,694,651,652,697,699,695,655,652,698,653,695,653,651,650,654,650,650,652,697,697,655,651,652,654,698,695,652,651,655,698,697,699,652,650,697,698,653,696,697,655,655,654,694,697,696,697,696,698,698,654,694,698,697,694,697,654,699,699,696,698,699,697,698,650,653,653,651,698,652,696,694,694,652,697,651,650,696,694,696,696,655,652,653,696,653,655,696,653,696,652,654,653,652,696,652,697,653,694,694,655,650,694,651,697,652,654,696,695,699,695,699,653,655,652,695,653,654,695,699,696,651,651,651,697,654,696,652,652,696,650,651,655,655,653,694,654,697,697,694,651,650,655,653,694,655,696,652,694,652,695,650,650,654,697,654,698,698,697,695,698,699,696,650,654,653,696,650,697,650,695,653,655,698,654,697,654,655,652,654,699,696,699,651,694,699,652,651,694,696,694,698,651,695,655,650,697,652,696,699,695,653,695,651,697,655,696,695,655,655,698,651,654,650,697,699,696,698,694,697,695,696,695,650,654,699,654,694,655,652,652,699,653,653,654,655,655,699,651,697,698,650,696,699,694,652,655,652,653,654,698,699,655,651,652,655,652,698,653,652,651,653,653,695,699,698,655,654,651,696,655,696,697,696,655,655,652,694,695,699,654,697,655,695,699,655,695,695,698,650,694,699,695,655,652,654,696,651,695,696,650,654,654,699,650,696,655,651,697,654,698,696,697,696,697,650,696,699,697,694,654,698,655,655,652,654,698,698,696,652,699,695,650,696,653,699,650,697,654,654,698,650,652,654,694,695,695,650,652,699,651,698,654,699,698,653,654,699,694,695,697,652,654,655,698,696,696,651,697,652,654,654,695,696,695,653,694,655,694,695,694,695,699,695,699,696,655,696,696,654,696,655,694,699,654,654,653,654,694,650,653,698,652,654,696,650,653,653,655,699,696,654,655,654,694,653,698,697,699,653,694,655,698,697,698,653,650,695,654,697,653,655,698,699,650,699,697,697,696,655,650,653,694,655,695,653,652,651,655,654,699,651,651,654,695,694,697,699,655,699,653,650,696,650,698,695,695,652,696,694,652,651,697,651,653,654,695,698,696,654,654,696,699,699,653,654,653,699,697,696,695,695,654,699,651,699,697,652,651,698,697,651,698,697,694,655,650,655,652,650,698,655,651,699,695,651,654,697,654,651,698,652,696,652,694,654,694,653,698,655,697,698,655,650,694,650,694,696,695,695,650,655,694,698,653,651,694,650,694,653,650,654,698,655,652,653,653,699,698,696,694,696,697,697,696,654,695,653,653,696,653,695,696,654,695,694,654,698,695,698,697,651,699,694,695,653,698,655,650,694,655,655,654,651,652,650,650,695,650,695,696,652,695,652,698,655,653,698,651,699,699,699,655,698,653,654,651,
696,650,650,699,695,654,651,699,650,696,655,698,699,653,652,699,697,653,651,696,698,655,654,650,699,696,697,653,650,694,697,651,654,698,652,699,651,696,653,699,694,654,694,652,694,695,697,653,697,698,695,655,694,652,695,653,652,698,653,699,698,653,698,695,695,697,653,655,653,654,650,653,696,652,652,653,697,698,699,694,651,694,654,699,697,699,694,698,652,651,650,699,654,695,694,696,652,654,651,650,651,652,697,655,697,653,653,699,654,694,696,650,697,694,653,650,650,697,696,651,651,654,654,697,699,699,696,655,698,651,699,694,654,655,695,696,698,694,698,694,650,650,698,655,695,697,651,699,699,699,699,697,652,697,698,653,651,696,650,654,694,653,651,650,651,652,651,694,695,651,652,697,652,654,699,652,655,650,696,650,694,695,654,650,653,695,696,697,699,694,695,655,697,651,695,694,655,696,698,650,698,651,695,651,652,699,655,694,698,695,694,699,652,654,652,698,655,699,696,695,696,694,694,654,699,697,698,652,655,652,696,697,653,652,694,696,654,695,654,694,654,696,651,695,650,695,697,652,696,696,697,650,654,655,699,654,654,697,653,652,651,695,698,650,698,651,650,651,653,650,655,650,655,653,695,699,694,696,650,694,695,696,651,698,694,696,652,655,699,650,696,698,652,653,653,694,698,698,650,694,655,694,694,695,655,694,650,651,695,695,699,650,696,653,695,651,654,698,650,696,653,650,654,695,651,651,650,651,655,655,696,653,699,696,697,652,653,697,696,650,653,655,654,699,651,699,696,694,695,653,697,696,654,650,652,654,651,651,696,697,697,699,654,697,694,654,698,699,654,699,697,695,696,652,650,694,698,699,652,699,654,653,654,653,694,695,652,653,651,697,654,698,650,650,650,694,654,654,650,694,650,694,653,695,698,698,653,699,698,652,699,695,694,653,653,699,695,653,652,652,651,694,699,652,696,654,695,699,697,699,694,697,652,651,696,652,654,654,699,694,694,650,696,694,697,694,650,653,698,698,651,653,694,699,694,699,653,654,655,651,698,694,654,655,698,652,699,652,654,650,654,697,653,698,653,698,698,698,698,654,696,654,698,652,653,652,695,694,699,652,697,654,654,697,697,694,695,652,653,653,652,650,653,650,694,699,651,654,653,654,699,651,652,697,695,699,694,655,695,652,699,697,698,653,655,654,650,655,695,694,697,695,650,650,695,698,697,652,697,650,654,698,696,652,651,651,696,694,655,695,652,653,696,654,698,696,698,699,694,699,695,694,699,697,653,698,697,652,655,651,694,650,695,697,698,653,652,651,694,696,653,652,698,696,652,653,695,698,698,652,651,694,654,695,699,696,695,650,696,651,699,697,696,654,698,694,696,699,652,699,695,651,652,697,698,694,650,654,694,650,695,695,699,694,653,696,696,698,654,651,650,694,650,695,694,694,696,697,650,697,698,697,696,694,651,650,697,653,654,654,696,696,695,699,699,694,696,697,695,654,652,655,651,653,650,652,654,653,651,652,654,651,697,694,699,697,695,654,653,652,653,697,696,651,655,652,655,696,654,655,698,697,653,650,653,699,650,696,650,650,651,696,695,651,653,654,696,698,699,694,697,652,655,650,694,698,696,694,698,699,653,699,650,650,654,698,652,650,698,654,652,694,694,652,694,695,654,697,655,694,695,695,695,697,651,652,651,699,697,695,699,698,699,651,650,654,653,653,650,655,698,653,653,651,650,652,698,655,694,697,652,650,655,697,695,698,651,694,653,696,651,650,699,694,696,654,650,652,696,651,695,652,699,651,650,697,654,694,655,653,653,695,696,699,650,698,652,697,654,695,698,694,698,698,697,696,652,697,695,652,654,694,651,695,651,655,652,651,694,696,652,699,695,651,699,697,695,698,653,652,650,698,650,694,652,696,699,653,650,694,696,699,653,650,696,695,653,651,699,653,654,654,652,695,650,655,650,698,698,697,652,694,653,655,655,650,696,654,653,653,654,697,697,699,694,650,699,654,699,651,697,695,655,652,651,698,651,694,696,654,699,694,699,698,653,694,698,698,696,655,650,655,699,694,650,653,655,699,654,650,697,698,694,698,699,655,695,698,698,694,655,695,696,698,650,698,699,696,698,651,655,652,697,650,650,652,699,696,698,654,652,696,652,655,655,654,652,652,651,695,650,652,650,695,694,655,698,654,652,695,697,695,695,699,696,696,651,653,696,696,652,695,697,654,652,699,695,696,655,698,694,695,698,654,653,697,695,654,655,698,
695,655,654,652,650,653,695,698,651,654,653,697,698,699,655,655,699,651,694,650,653,652,652,697,697,653,653,695,695,654,653,650,697,697,653,696,654,654,651,653,653,694,652,697,695,694,699,699,699,652,698,697,696,695,651,698,655,695,654,694,694,654,695,695,696,699,699,696,652,654,694,653,650,650,699,655,653,697,694,650,653,699,697,652,697,694,651,654,696,697,651,699,653,650,654,697,652,695,695,697,651,652,651,695,696,655,698,697,653,699,699,694,698,696,650,651,652,652,655,652,697,694,696,652,653,696,654,655,696,698,699,653,694,696,694,655,652,651,650,653,651,653,697,697,652,651,655,695,696,655,699,695,653,699,699,652,698,654,694,652,694,699,651,699,653,651,654,655,695,694,697,699,654,650,655,653,694,697,699,653,698,694,696,655,695,697,694,655,698,698,654,654,654,699,698,655,653,694,655,697,651,655,650,697,699,695,697,651,650,697,695,651,653,653,651,651,650,651,698,655,694,695,650,652,653,697,654,697,655,651,698,653,698,652,696,699,653,699,655,695,655,694,651,695,650,652,695,699,652,698,698,699,697,653,697,653,655,650,655,653,654,699,695,696,654,653,652,696,653,696,696,650,650,695,652,650,699,696,696,650,696,695,695,655,652,694,696,652,654,695,699,694,651,653,653,652,651,655,694,652,651,654,699,652,650,654,652,699,694,655,651,699,654,650,694,696,699,698,651,655,697,651,655,650,654,694,697,655,654,695,699,694,650,655,695,654,696,699,698,695,652,651,652,654,655,651,694,695,696,653,696,652,696,699,652,653,697,697,654,695,696,654,695,651,697,698,654,696,652,654,698,698,697,696,695,696,650,696,697,653,655,655,652,695,697,697,696,697,694,650,698,653,652,697,698,694,654,696,697,694,694,651,694,652,653,655,697,696,696,698,650,694,650,655,655,655,697,650,694,694,697,650,651,696,698,655,699,699,696,654,653,652,696,696,695,697,697,694,695,699,655,652,698,650,650,699,654,698,650,696,651,652,698,651,652,699,651,699,653,654,694,654,650,694,699,654,696,698,699,697,699,651,652,699,695,696,653,651,696,655,650,698,694,698,654,699,655,654,652,694,696,655,653,650,699,654,655,699,653,650,698,698,698,654,652,651,652,652,650,696,697,695,699,695,698,696,652,695,653,652,651,698,696,655,697,654,652,655,653,650,695,697,697,698,698,650,655,655,695,699,698,696,654,653,695,654,694,652,698,651,695,694,652,652,653,651,654,652,655,696,651,695,651,697,655,698,696,694,653,698,655,650,654,698,697,699,653,655,697,699,654,655,653,651,652,694,699,652,695,655,655,653,698,698,654,652,655,698,698,695,652,652,695,650,694,697,695,697,698,651,650,696,650,655,699,695,651,699,655,699,655,697,698,694,694,696,654,650,697,652,655,651,694,696,697,697,652,697,655,698,651,696,651,697,698,655,698,651,697,698,699,654,655,694,697,655,651,654,653,699,698,650,650,655,699,696,650,696,696,699,694,650,694,694,653,653,650,699,697,650,650,653,696,655,655,655,655,698,695,651,695,652,698,652,694,699,699,694,655,655,698,694,655,694,654,655,699,655,652,698,694,697,655,696,655,654,652,694,654,698,650,695,696,653,654,697,694,652,650,650,653,697,655,695,654,654,651,655,699,696,651,654,697,654,695,699,655,699,651,698,697,651,655,698,650,650,654,651,698,650,654,696,653,652,655,652,696,650,655,651,652,698,655,694,695,698,652,651,653,698,650,699,653,696,694,698,654,695,695,653,653,650,698,650,655,652,697,650,653,655,699,655,653,654,650,698,696,653,651,699,651,652,654,650,698,655,695,698,654,698,651,651,694,696,654,655,654,697,651,651,694,655,654,695,696,650,697,650,695,654,651,698,655,694,696,699,695,695,699,698,698,698,697,652,696,653,694,696,653,651,694,653,650,697,695,652,651,698,697,654,653,694,694,697,696,694,696,652,652,694,654,695,652,695,695,695,650,698,655,653,695,697,655,694,695,694,695,697,654,650,652,652,653,696,695,655,651,652,698,698,694,696,651,698,698,698,698,651,697,699,654,654,651,697,697,694,694,652,699,696,654,695,699,698,652,651,654,651,654,654,698,654,696,653,694,653,694,653,696,695,694,697,696,698,694,651,694,652,695,654,651,655,653,654,699,698,652,694,698,699,699,694,697,694,698,652,696,699,651,696,650,653,699,652,651,694,653,698,694,652,698,699,652,655,696,694,694,697,694,651,
697,697,654,655,697,654,697,697,654,653,697,694,694,699,652,650,698,695,651,694,653,699,652,654,694,650,652,651,694,698,654,694,650,698,698,695,697,650,698,696,655,655,651,697,652,697,699,651,694,650,697,699,655,650,696,694,696,655,696,697,653,694,698,698,650,694,653,694,696,699,698,699,698,652,655,694,650,695,651,695,695,655,699,650,652,655,694,654,654,650,695,698,651,652,694,652,696,696,697,652,655,655,651,655,652,696,696,652,694,695,653,698,653,697,699,651,652,695,651,655,696,697,695,654,650,653,653,695,652,698,699,694,655,652,694,699,698,652,653,655,698,694,696,652,694,695,653,696,699,694,650,655,698,655,655,697,650,698,653,695,696,695,653,696,695,696,653,697,695,651,653,651,654,695,696,699,651,694,652,694,696,695,694,655,654,696,655,698,695,654,654,694,652,694,653,650,697,698,699,654,650,651,650,654,653,698,652,650,694,694,695,655,695,652,698,699,698,655,654,655,652,652,699,651,695,654,699,696,697,695,694,654,698,699,650,652,694,655,655,699,654,653,654,651,655,655,696,650,699,694,653,696,699,699,697,655,650,650,695,654,695,652,654,696,698,696,655,697,654,653,694,652,655,652,698,654,696,696,654,653,698,698,697,651,652,697,655,699,653,650,699,655,653,652,695,654,696,652,699,652,695,694,650,653,653,699,694,651,651,694,651,699,651,694,696,651,655,696,695,695,654,698,650,695,694,652,653,655,697,653,699,694,697,650,696,697,654,694,699,694,654,651,655,698,652,695,653,695,699,655,655,696,654,698,654,698,697,652,698,655,697,654,697,653,696,651,655,694,698,695,652,696,655,699,650,653,653,652,697,652,653,695,698,650,695,696,651,695,697,697,699,697,655,654,697,698,652,650,699,698,698,651,695,650,695,653,694,654,650,695,655,696,650,696,699,695,699,654,694,651,655,653,697,653,652,651,698,654,698,695,695,697,653,651,698,651,697,698,698,654,696,650,699,696,698,696,650,651,699,697,650,697,696,652,695,699,652,694,654,652,694,652,653,650,651,696,654,650,650,651,655,698,650,697,697,699,653,655,696,697,655,652,654,653,698,653,651,694,695,699,694,652,654,698,698,696,698,650,694,696,655,698,699,696,697,694,697,651,653,695,653,697,694,652,653,699,697,650,654,652,695,655,694,697,695,697,653,695,695,695,650,694,650,698,695,650,650,696,699,697,696,652,653,655,697,653,652,695,653,695,655,698,655,695,695,654,655,650,655,654,694,699,653,695,699,698,699,654,696,699,655,698,696,653,651,651,653,699,698,652,698,654,699,655,694,651,699,654,694,650,654,698,650,653,655,650,695,696,652,651,654,655,655,699,697,653,653,696,696,696,698,653,696,654,655,653,650,654,699,655,694,696,654,698,698,654,695,698,650,653,698,651,696,653,696,697,696,696,695,695,699,697,652,699,653,695,653,650,696,696,694,695,653,655,652,697,650,699,695,650,654,652,651,694,653,698,698,694,695,650,652,654,694,694,653,696,696,695,699,698,698,652,698,655,652,699,695,697,694,652,698,653,697,695,695,695,651,650,694,655,655,699,696,654,651,696,653,694,698,655,655,653,653,698,698,697,654,698,652,650,653,653,651,654,653,699,696,653,696,655,655,653,699,651,654,697,695,655,652,651,652,650,697,694,698,699,696,694,650,655,651,651,697,650,654,698,698,698,650,654,699,696,696,694,698,695,697,694,699,653,698,652,651,653,694,696,694,699,697,696,651,652,651,697,652,650,651,651,698,650,650,650,695,698,698,652,696,694,694,650,698,697,650,652,695,655,654,695,694,698,695,699,697,650,699,694,653,697,699,694,697,650,699,697,699,655,652,653,698,651,652,696,653,697,653,654,655,652,695,696,694,653,652,652,699,695,650,652,699,697,698,694,651,695,653,696,695,651,694,694,652,699,652,654,699,651,695,694,696,695,694,652,699,696,697,650,654,695,694,695,651,651,653,695,695,695,650,694,651,650,650,655,694,650,697,651,698,698,697,653,699,652,651,694,655,699,652,654,655,695,699,699,653,698,695,652,699,652,652,699,694,651,695,694,655,651,652,696,697,699,695,698,699,694,696,695,650,697,650,653,695,694,654,694,655,697,694,694,652,698,698,655,695,695,695,655,655,694,695,654,697,699,697,694,652,650,694,696,696,695,650,653,650,697,651,651,694,655,698,695,650,695,651,699,651,654,654,699,651,695,697,698,694,698,695,653,653,652,655,697,
696,696,697,694,698,697,695,699,695,696,655,652,695,653,654,699,654,655,699,696,655,654,652,653,653,651,650,654,694,698,695,695,694,650,652,696,695,699,696,655,699,697,650,652,696,650,696,654,652,653,652,655,694,696,655,698,697,654,654,654,651,697,654,651,653,651,653,655,694,696,653,699,695,650,651,655,694,694,696,654,696,695,697,653,694,650,654,696,650,695,695,654,698,697,695,650,697,697,651,698,699,698,699,654,699,694,699,651,655,651,650,655,653,697,695,651,695,655,651,695,651,697,650,653,650,699,655,694,653,652,697,698,651,697,653,696,694,694,652,699,652,697,652,655,698,655,655,699,652,694,698,694,651,698,650,654,694,650,652,694,654,696,696,698,698,651,652,653,655,652,653,651,697,655,699,654,655,653,650,653,696,694,654,698,697,653,695,694,696,697,699,651,651,694,654,651,652,699,699,650,650,699,695,697,650,655,650,650,650,653,698,655,699,697,694,654,699,694,652,696,696,652,655,653,699,697,655,695,651,696,655,653,654,697,699,698,652,654,650,654,654,651,655,698,695,699,650,696,652,651,699,694,697,650,697,696,650,696,696,655,654,652,650,655,694,650,699,697,650,651,694,651,697,694,654,653,699,652,654,694,652,699,655,697,698,697,650,694,654,694,695,697,654,694,695,699,651,699,655,653,697,694,699,697,698,698,653,699,695,697,653,698,698,655,652,699,699,694,650,699,653,651,650,653,696,699,696,698,651,650,655,653,699,695,652,654,655,655,694,652,650,653,698,655,650,697,651,699,652,699,696,699,652,696,698,696,698,697,650,695,695,650,652,652,695,655,697,697,697,655,652,696,651,697,653,699,655,699,697,655,695,697,655,655,694,651,650,652,699,651,694,699,655,699,696,697,655,694,651,694,653,652,653,694,654,650,699,651,696,694,654,696,655,654,650,652,651,699,650,655,654,653,698,698,652,695,651,651,698,652,653,694,653,653,654,697,694,650,652,695,655,654,650,655,650,654,655,699,654,652,694,696,654,695,654,698,655,696,651,697,650,698,650,652,696,651,698,694,694,650,653,697,654,655,694,654,695,654,696,696,650,699,698,696,699,699,699,654,699,698,698,697,655,698,654,695,695,651,652,652,696,694,651,695,694,651,697,699,652,696,696,655,655,654,655,696,696,654,695,654,696,655,698,699,698,651,653,654,694,699,697,694,699,655,654,651,699,650,655,652,697,652,650,694,699,652,654,652,652,698,652,694,652,695,655,655,694,654,695,697,652,695,654,699,696,655,699,695,650,650,655,652,654,651,696,695,694,654,651,696,651,652,650,650,699,650,652,650,695,652,696,653,696,699,696,653,694,697,655,694,696,696,650,654,695,695,651,699,654,651,698,654,651,695,698,696,655,696,699,694,695,696,654,655,655,655,698,698,696,694,699,655,655,697,654,652,653,655,652,654,655,694,695,652,652,653,651,653,655,696,699,654,651,695,696,696,697,697,652,699,695,652,698,694,651,699,696,695,650,650,650,650,698,655,652,653,694,699,651,650,698,652,699,697,650,650,698,655,698,699,699,694,654,694,699,653,694,654,695,696,694,695,652,694,699,655,694,699,697,696,698,697,652,697,698,695,653,699,694,698,697,652,653,651,655,651,698,653,697,650,695,698,697,650,653,695,650,695,697,650,655,654,696,652,651,698,653,699,698,654,699,654,699,653,698,652,697,654,697,654,653,653,655,698,655,698,650,694,653,699,695,654,654,651,650,697,650,697,696,698,653,698,696,653,652,699,695,654,652,650,654,695,698,651,697,650,653,698,698,650,698,698,694,695,697,699,698,695,655,694,699,654,651,697,653,696,650,694,650,699,653,651,650,695,655,652,652,699,655,651,695,698,696,697,695,654,653,697,697,654,654,699,695,650,696,699,653,653,694,698,695,698,650,650,653,696,697,695,652,653,697,695,653,694,699,695,698,697,696,652,694,652,651,655,694,650,650,653,653,698,650,654,654,650,694,696,699,650,698,695,698,699,697,696,653,694,655,650,694,653,650,654,651,698,654,653,651,654,653,698,697,654,694,654,655,699,653,696,653,697,699,699,696,698,698,694,695,696,698,698,695,698,696,655,650,652,651,653,695,654,654,696,696,650,695,697,695,651,650,696,697,651,654,650,653,695,695,694,652,653,652,696,694,651,697,654,698,699,654,698,694,653,696,699,652,652,694,699,694,698,650,696,651,652,654,698,697,652,655,652,696,650,650,654,654,650,698,699,699,697,
654,650,653,651,695,650,696,699,697,654,696,696,694,650,699,695,650,696,650,697,655,699,651,651,696,699,694,650,653,699,650,655,697,696,695,653,694,695,654,695,654,655,694,694,652,697,654,698,654,696,650,695,654,698,696,694,699,653,654,654,699,697,698,652,696,655,650,698,696,695,650,695,653,696,651,650,694,698,650,695,698,698,694,697,694,650,651,696,655,694,651,652,655,651,652,652,653,698,653,698,651,654,695,651,699,652,694,651,697,652,694,694,698,695,652,652,655,654,697,697,694,651,696,698,695,694,654,699,694,699,695,699,654,652,655,653,697,698,650,699,695,695,653,695,697,694,655,652,652,654,694,695,655,699,650,652,655,698,698,654,650,655,655,694,650,655,655,694,698,650,698,695,650,651,654,653,697,695,698,650,652,650,694,654,654,694,694,694,699,696,654,695,694,654,695,653,650,698,650,694,694,695,696,654,696,655,697,654,696,651,650,695,653,652,696,694,653,698,651,696,653,695,651,651,695,695,650,653,695,653,695,653,651,699,699,650,696,695,695,653,655,653,699,694,651,695,653,695,698,653,696,694,652,652,695,698,652,694,694,695,654,652,695,653,697,655,694,698,696,698,694,654,655,694,650,655,655,699,698,694,655,652,697,652,695,699,697,695,654,654,655,699,695,651,694,698,696,694,650,695,650,652,694,655,653,694,652,699,652,697,652,696,652,652,696,654,695,694,698,695,655,696,697,694,654,651,695,698,654,697,651,653,651,654,698,652,653,699,650,698,696,654,655,655,654,650,697,654,696,699,695,694,654,652,653,695,695,699,696,652,654,650,696,698,696,653,696,653,699,697,655,697,652,695,695,653,654,650,696,696,695,696,651,698,652,695,655,650,654,699,699,653,694,653,654,694,650,695,653,699,653,655,699,696,652,694,696,650,696,696,653,694,695,696,695,650,699,653,652,699,698,651,695,695,695,651,694,652,699,695,696,654,695,655,653,696,696,696,651,651,695,697,655,655,697,696,695,654,650,651,655,655,695,699,696,697,655,697,651,650,696,699,695,694,695,653,655,694,698,650,697,655,653,653,699,654,697,651,651,699,653,654,697,651,652,655,696,654,655,651,652,696,697,694,650,653,698,652,652,650,651,651,650,652,698,655,654,653,694,650,652,697,655,696,653,654,694,655,695,698,654,654,651,650,697,655,652,698,653,697,698,654,699,651,651,698,699,699,697,698,650,695,696,654,698,697,653,651,695,652,699,651,698,654,655,699,695,654,694,699,697,654,698,695,699,652,652,699,694,651,653,652,652,652,654,698,695,697,654,650,652,652,694,695,653,695,695,699,695,653,651,697,699,695,650,651,698,697,694,652,654,695,697,652,694,654,699,695,696,650,655,697,698,651,651,650,651,694,697,695,694,697,694,698,651,650,655,698,651,697,697,699,655,697,652,650,655,653,651,655,696,694,655,694,698,695,697,655,654,695,699,695,654,654,652,650,695,655,698,653,653,650,696,694,654,694,694,698,698,654,694,655,652,654,696,694,651,653,651,694,694,654,655,655,696,655,695,651,694,697,652,697,655,654,695,698,650,650,650,653,653,695,654,651,654,698,655,694,695,650,699,651,653,697,655,699,654,698,699,697,653,695,653,698,698,696,698,653,655,699,696,694,697,654,697,698,694,655,699,694,655,696,653,699,653,653,651,698,654,699,696,699,651,697,694,652,694,651,695,653,654,697,696,653,698,652,694,654,696,695,655,695,694,654,699,650,696,654,694,697,652,650,696,655,653,652,652,699,651,699,698,694,650,698,694,653,699,653,654,650,695,652,699,654,695,655,699,698,651,650,698,651,694,652,652,695,655,651,698,695,652,653,651,653,694,654,655,653,651,654,699,654,655,655,698,695,651,698,652,699,654,652,655,652,696,651,695,697,699,651,699,695,698,699,699,699,654,651,694,694,696,652,655,653,654,694,695,697,653,698,695,699,650,696,654,652,651,698,695,651,698,699,694,697,651,699,695,699,652,654,699,650,699,696,696,654,696,653,651,699,698,654,651,699,695,699,653,694,651,697,650,695,698,650,699,652,653,651,694,651,654,694,698,698,698,694,651,699,697,654,697,654,698,653,653,697,650,653,699,655,697,650,697,650,650,697,698,655,699,694,695,697,697,651,650,697,651,699,650,655,695,650,694,652,650,698,696,654,651,655,651,655,698,652,652,653,651,654,694,655,697,654,650,655,651,695,696,694,695,699,696,697,652,654,652,694,653,694,653,651,
698,696,695,699,653,699,651,695,652,696,697,652,699,653,653,699,698,654,650,652,651,696,694,699,699,696,696,654,652,652,696,655,655,653,655,652,699,652,697,694,655,653,652,654,699,655,697,699,654,651,651,694,696,653,696,698,698,650,653,653,698,650,655,653,695,696,650,655,694,651,695,650,650,699,694,696,652,653,651,698,698,654,655,652,654,655,652,696,651,652,698,698,695,695,652,699,654,652,654,654,652,694,697,695,655,696,650,699,699,698,654,652,655,699,698,654,694,653,696,698,651,653,697,696,696,694,655,651,652,694,650,654,697,699,653,697,694,651,699,652,696,655,654,698,699,697,695,650,650,655,699,651,696,698,696,694,698,652,695,698,650,695,651,655,653,652,654,694,697,650,696,655,650,652,655,696,653,697,698,650,699,650,697,695,650,652,699,694,699,698,697,653,652,699,651,653,696,699,650,698,695,650,650,651,654,699,695,697,650,695,654,698,696,698,695,696,650,695,698,652,654,696,696,654,695,654,696,654,655,699,696,696,655,697,697,694,696,695,653,654,697,699,653,697,698,695,655,650,652,699,650,654,653,696,653,696,651,650,654,698,651,698,699,651,651,653,650,694,655,698,695,652,698,698,697,655,651,696,697,696,655,652,651,696,697,694,696,652,652,694,696,696,698,694,650,696,696,697,654,694,655,650,652,655,697,651,651,699,698,650,650,650,697,652,697,695,650,653,694,699,650,697,650,653,699,651,650,654,653,699,652,655,699,652,650,652,695,655,694,698,653,653,697,651,655,699,696,697,698,698,650,699,650,650,651,654,695,695,697,699,699,699,655,695,652,653,651,653,650,654,651,694,651,695,654,697,699,650,652,697,698,655,655,654,654,654,655,653,697,654,651,655,694,651,695,698,699,696,698,696,695,694,698,699,694,651,652,652,655,694,652,696,697,654,698,651,698,697,655,652,697,694,655,651,694,651,697,694,695,698,653,699,695,653,655,653,696,695,699,696,651,650,696,695,699,655,655,651,652,699,698,653,694,652,695,651,697,697,699,652,696,695,694,696,655,652,696,651,698,699,694,652,696,650,652,698,694,654,699,697,655,694,698,652,698,654,653,699,698,694,654,655,699,697,653,699,699,695,698,652,651,655,697,653,655,699,655,652,655,699,655,695,654,655,696,651,655,694,653,696,698,698,650,652,698,694,653,698,699,651,653,655,652,696,655,654,655,652,694,652,653,650,699,697,652,651,655,697,697,650,698,697,696,695,654,697,653,694,696,652,655,650,654,698,655,654,651,654,652,653,697,697,650,696,653,699,654,695,694,697,696,696,697,695,698,652,699,695,650,697,695,694,698,699,694,694,650,653,652,694,694,650,694,650,653,651,650,698,699,654,650,694,652,697,697,651,695,694,655,697,655,653,653,652,695,652,694,654,696,654,650,696,650,653,696,653,650,698,699,652,653,697,650,697,650,652,652,697,654,653,651,698,697,698,694,695,655,699,698,650,650,695,698,697,655,699,655,652,697,654,654,653,694,699,697,695,651,694,653,655,654,651,696,695,652,696,655,651,655,653,694,654,696,695,652,650,652,654,694,698,699,650,695,694,652,698,698,699,654,696,696,652,698,699,653,697,650,651,654,695,653,695,650,695,650,698,650,697,695,655,652,697,655,696,694,653,653,699,651,698,694,651,694,698,699,696,697,697,695,696,699,695,655,652,697,694,650,695,694,654,652,699,699,699,655,694,652,696,695,653,698,653,698,655,698,696,696,697,653,650,696,650,654,652,694,654,653,651,698,696,654,698,654,694,698,697,697,650,655,699,697,699,653,654,695,699,653,653,655,650,650,695,650,697,651,655,655,696,694,694,650,697,696,654,695,651,699,697,696,654,650,653,695,698,650,698,654,699,699,653,697,698,652,694,653,694,699,697,696,699,696,696,698,655,695,697,697,697,653,698,655,651,697,650,654,694,699,651,695,696,698,654,695,694,653,655,699,699,698,650,654,694,654,697,651,695,651,653,696,698,650,654,651,654,653,696,651,651,699,697,655,652,698,652,653,650,697,697,650,698,651,652,650,699,650,650,694,695,694,655,696,699,653,654,696,652,650,699,653,697,650,696,697,651,696,697,652,653,654,652,654,698,650,652,696,697,655,651,650,698,651,652,698,652,698,695,652,651,654,650,651,655,653,698,695,653,655,651,650,654,695,699,650,696,697,650,697,653,651,651,695,697,651,695,696,652,697,694,654,651,697,654,650,698,652,650,695,651,653,651,
698,699,651,694,651,651,653,696,694,650,698,651,653,653,696,655,652,697,654,653,694,651,695,698,651,655,651,694,653,698,653,696,654,655,652,699,650,655,694,655,694,652,696,652,655,651,698,695,697,654,653,653,696,650,653,651,655,652,652,652,655,697,694,694,655,696,694,697,696,697,697,655,652,651,655,654,696,652,652,695,699,653,654,653,652,698,696,694,655,699,652,651,651,650,655,696,698,694,697,697,654,655,699,695,697,654,695,695,697,694,695,696,654,655,696,653,655,698,698,654,655,694,697,695,699,654,698,652,655,696,655,650,695,698,695,698,696,695,699,653,653,699,699,694,698,697,696,653,694,652,655,654,654,654,694,654,694,697,697,651,697,650,699,654,653,654,655,695,652,654,695,651,698,694,695,699,698,699,650,694,655,654,653,699,650,652,696,694,652,655,694,653,694,651,696,697,650,652,697,697,652,653,655,694,698,654,655,655,654,655,694,699,651,697,698,697,655,695,654,654,697,698,651,652,699,699,654,696,699,653,653,694,650,698,652,696,654,697,698,650,653,655,653,654,655,697,653,650,697,654,696,695,695,650,698,698,698,650,699,694,696,694,699,651,698,697,698,698,696,653,699,653,655,651,652,652,650,696,654,696,654,694,699,651,652,651,655,699,654,654,698,655,696,651,698,697,699,655,652,654,655,696,698,699,697,696,698,694,696,694,654,653,698,652,652,652,651,698,699,654,698,652,699,651,650,699,696,694,697,651,696,694,652,654,655,697,654,697,695,697,654,650,653,694,694,654,651,695,652,651,655,699,653,696,652,651,696,699,695,652,655,650,652,695,650,650,655,653,699,652,651,655,697,651,695,650,697,699,694,653,651,653,654,654,653,698,694,653,650,652,699,650,650,652,698,697,651,695,699,652,699,695,697,694,652,697,652,695,697,651,695,697,654,696,699,697,696,653,697,698,695,650,696,655,653,697,695,655,696,695,694,697,696,653,653,654,652,695,652,655,699,694,699,698,651,696,650,698,651,699,655,652,694,655,655,695,653,695,653,697,694,698,650,652,655,696,695,699,655,697,696,652,697,694,654,697,653,695,698,696,697,650,695,650,694,695,651,695,652,651,698,652,696,652,655,698,694,650,696,652,699,655,653,699,652,655,694,654,655,696,654,694,652,655,698,655,650,654,697,652,655,695,697,653,652,699,698,694,653,650,699,652,694,654,699,653,695,654,651,695,697,694,652,699,699,694,650,653,651,698,650,651,696,699,650,697,655,699,697,655,653,695,652,652,697,651,696,650,650,651,655,697,655,655,650,651,695,655,650,696,651,654,698,653,651,695,650,699,699,650,698,651,695,698,655,695,652,697,699,655,651,654,698,655,654,695,653,698,695,698,650,699,650,696,699,651,695,699,652,655,654,698,651,699,655,653,650,651,652,699,694,699,696,699,697,697,696,698,699,654,697,696,650,699,694,695,698,697,653,653,695,694,651,698,654,650,651,694,699,651,695,695,651,653,653,698,650,652,652,654,699,653,653,655,653,697,651,697,696,650,655,651,696,694,652,655,654,650,655,694,694,696,696,698,652,652,650,696,650,695,654,697,695,650,651,655,696,651,698,695,650,650,654,652,653,652,650,698,654,653,698,694,655,695,695,653,653,651,653,652,650,653,654,652,696,652,698,654,654,655,651,696,651,698,650,698,655,695,696,655,653,699,655,655,650,650,651,699,699,697,694,696,653,697,652,651,650,696,698,651,655,696,655,651,699,694,651,653,655,695,699,697,651,650,699,651,699,698,650,651,694,655,655,653,650,696,696,654,696,698,655,694,694,696,652,697,652,654,651,652,696,694,697,651,698,654,696,695,694,652,699,697,698,694,654,695,698,655,694,654,697,698,699,653,653,698,651,698,697,655,699,653,652,650,650,654,699,650,652,699,652,699,699,653,699,697,655,698,654,699,653,654,696,699,696,697,654,655,695,698,650,694,650,653,696,652,696,694,652,698,654,651,694,698,694,650,695,652,650,652,695,655,699,653,694,653,695,655,694,696,695,655,696,650,696,654,694,650,653,651,654,697,695,697,697,653,694,655,697,655,654,698,652,655,650,654,654,650,650,652,651,655,652,653,651,694,654,654,699,653,650,652,699,650,650,696,652,698,651,654,651,653,695,696,697,653,652,650,655,652,654,697,654,653,699,651,653,694,653,695,654,654,655,650,654,652,694,698,651,650,694,653,696,654,699,694,694,652,653,650,694,699,696,651,694,694,650,697,651,697,
655,651,695,696,652,694,650,652,696,695,651,694,698,651,653,652,655,654,697,652,695,694,652,696,652,695,652,695,655,697,699,653,650,695,697,695,653,694,699,695,652,695,650,696,650,695,695,696,654,699,696,698,653,697,650,653,698,699,653,652,653,696,694,697,694,652,652,696,697,695,653,654,696,698,695,651,651,652,697,698,654,695,653,654,696,699,698,650,694,696,650,699,699,654,653,653,650,655,652,652,652,695,650,697,650,698,654,699,698,652,696,653,699,694,652,695,653,695,652,694,654,698,651,698,650,653,698,699,653,650,653,650,699,652,695,650,697,694,654,696,697,651,655,654,654,694,651,655,653,650,650,694,653,651,650,697,654,697,655,654,699,694,655,654,651,695,654,695,698,654,650,696,695,650,695,695,699,651,699,697,698,650,651,655,651,650,696,698,697,655,697,651,699,654,652,650,654,650,652,698,696,655,651,697,655,697,696,698,698,654,650,699,650,696,652,652,655,650,654,699,695,655,651,654,698,650,698,697,651,653,651,694,699,650,654,654,651,655,697,651,694,698,652,695,655,699,696,650,698,697,653,651,696,697,652,694,652,650,650,697,655,652,655,694,651,697,697,652,698,650,695,654,697,655,653,696,697,694,697,653,651,696,651,650,694,652,655,695,699,694,654,696,655,651,694,699,652,652,655,697,651,654,650,696,655,654,653,653,695,650,654,653,651,651,699,695,652,696,652,652,696,694,697,655,697,698,655,696,698,653,652,654,652,655,699,654,653,695,654,695,655,653,695,699,650,695,697,699,653,650,696,653,696,651,654,699,652,694,651,650,650,696,653,651,651,650,698,694,695,652,694,696,650,653,655,695,696,699,650,651,650,698,650,654,655,650,654,655,694,698,653,694,694,651,698,698,654,650,697,654,699,697,698,696,699,698,698,697,650,698,654,654,652,650,694,653,694,698,650,698,699,653,697,696,697,654,655,650,655,652,650,695,694,655,694,696,650,650,695,655,699,654,697,697,654,654,694,695,655,695,654,653,655,698,695,652,651,694,650,653,695,695,696,695,694,695,654,651,698,698,699,653,654,697,654,695,697,699,653,655,696,697,694,653,651,651,651,696,697,699,698,654,697,654,699,694,696,699,698,655,655,695,698,696,698,651,695,698,694,699,654,650,696,653,654,652,696,696,697,695,699,696,697,655,653,652,650,651,651,699,698,694,651,699,696,699,698,651,652,655,652,654,697,654,650,695,699,651,652,694,654,651,655,655,653,652,652,697,653,654,697,694,651,654,651,652,697,697,653,655,651,650,651,696,654,651,695,652,696,650,650,652,698,651,698,651,698,650,699,698,653,652,655,696,650,653,695,651,651,654,698,650,655,697,699,650,697,699,698,651,652,653,654,699,653,698,696,694,650,651,697,654,652,651,654,697,697,695,699,654,655,699,652,652,652,694,652,699,694,652,650,695,651,651,698,654,653,652,698,653,653,651,698,652,652,698,695,654,694,655,654,653,698,696,655,698,697,698,696,696,653,651,653,651,653,654,695,695,655,694,695,650,651,650,695,694,694,653,655,654,653,651,653,651,655,697,651,698,653,697,654,653,699,695,694,653,694,697,654,651,698,655,655,696,695,695,699,654,650,653,655,694,655,699,651,651,652,696,653,695,650,652,698,651,650,650,655,654,654,694,655,696,695,699,652,650,697,697,653,698,655,694,655,694,654,694,695,698,655,698,652,654,694,655,696,653,694,699,698,651,698,694,697,651,695,694,698,651,694,695,655,654,694,654,698,699,651,651,652,653,651,653,655,695,652,694,651,696,652,653,694,697,650,696,699,697,697,694,696,694,697,694,655,654,653,697,655,694,696,652,650,694,653,650,696,651,653,654,694,699,699,695,699,654,653,698,651,696,698,653,697,694,695,696,694,694,699,652,696,651,650,651,698,650,695,696,650,695,695,652,655,652,695,699,650,698,697,698,694,698,696,697,695,694,653,654,694,694,694,650,653,697,650,653,698,650,696,650,650,655,653,653,655,651,699,698,653,652,697,699,654,699,695,698,654,651,694,654,651,650,650,698,695,694,654,650,654,650,699,694,698,696,698,699,697,655,694,652,699,651,651,651,655,696,699,698,697,699,699,695,696,655,699,695,698,694,697,652,695,694,695,653,697,652,655,652,653,694,694,653,699,698,653,655,652,699,696,698,650,696,650,695,695,694,652,650,650,655,696,651,655,697,699,695,699,653,694,695,695,695,694,697,699,650,654,696,696,698,698,695,
653,653,694,699,697,694,695,654,653,694,699,696,697,652,654,699,652,655,695,699,650,654,650,650,699,696,650,653,699,651,654,694,653,651,654,694,650,695,697,653,655,652,654,697,697,694,696,697,697,699,697,695,699,650,651,697,699,653,654,694,694,652,651,654,650,695,652,653,694,695,698,652,697,696,698,699,653,694,651,651,699,650,651,655,695,650,697,697,654,650,697,650,655,651,651,654,697,653,699,652,698,697,694,651,697,697,650,696,699,652,650,694,695,695,696,652,698,653,696,650,651,698,699,698,654,651,653,652,655,650,699,694,655,694,694,694,698,695,651,696,698,696,697,651,698,650,652,652,699,650,695,695,698,696,650,697,698,655,696,697,653,650,697,653,655,653,655,654,697,698,698,697,651,698,695,652,652,697,655,699,697,695,652,698,653,695,698,694,651,694,653,650,655,654,651,650,694,696,696,652,699,699,654,696,653,651,654,652,695,694,697,696,651,650,694,654,652,652,694,697,694,698,654,696,651,695,698,652,653,655,650,699,650,697,651,696,698,694,654,699,696,653,699,652,653,650,653,694,653,654,654,699,655,650,699,650,699,653,655,650,698,697,651,654,651,653,652,650,698,694,653,697,652,696,652,699,694,651,696,651,654,650,694,694,655,695,652,696,695,698,699,651,654,694,651,698,653,698,652,694,694,651,694,653,694,698,698,654,650,651,650,650,652,651,651,655,650,698,694,654,695,696,695,697,654,697,653,651,694,650,699,698,699,655,652,697,696,699,699,654,697,695,654,651,653,655,694,699,650,651,653,699,697,695,699,650,652,695,651,655,652,653,651,698,655,654,655,655,697,699,695,696,694,650,698,653,694,650,652,698,653,698,655,652,694,699,654,650,652,694,653,654,697,696,653,654,651,650,652,698,651,655,654,654,650,651,698,696,696,651,650,698,651,650,651,650,697,653,651,695,696,650,654,654,698,653,651,651,653,696,697,654,651,695,652,695,654,653,696,695,694,651,650,699,654,696,651,652,697,696,652,650,695,653,653,695,653,695,697,696,696,697,697,652,699,696,699,696,655,654,696,652,698,696,654,697,655,694,695,696,653,694,655,655,651,696,653,655,650,695,651,651,699,652,695,654,695,655,697,695,698,694,699,652,652,655,696,653,699,695,652,653,698,697,652,654,650,695,699,695,652,652,696,694,698,651,694,699,697,697,697,699,650,699,694,653,652,695,694,654,651,697,696,653,651,697,697,653,698,698,694,652,655,654,650,653,698,699,697,696,697,697,653,694,697,699,699,698,699,650,652,654,653,651,652,650,653,699,699,653,695,695,651,695,698,650,699,652,696,699,655,699,654,654,652,653,699,695,695,694,654,694,651,697,698,697,694,697,696,653,696,650,653,652,652,697,695,696,695,698,654,695,651,653,698,654,655,696,694,651,695,696,650,694,699,696,650,654,652,652,654,652,698,652,694,696,653,651,696,652,699,698,652,652,654,654,650,699,653,654,694,694,650,695,695,698,652,653,694,699,696,652,655,698,654,653,650,698,695,654,696,653,695,651,696,653,652,694,655,654,694,655,654,652,694,655,651,651,699,697,655,695,699,651,694,698,695,694,654,698,696,650,652,651,650,696,699,651,653,650,654,698,697,654,654,650,652,698,652,650,699,655,695,694,653,699,652,697,653,655,652,653,655,697,651,699,650,695,695,696,655,697,695,695,696,699,654,694,653,695,697,699,696,650,652,654,699,651,697,699,698,651,696,651,697,695,655,653,650,655,699,695,699,694,653,655,697,650,698,699,654,699,653,695,697,654,694,699,695,696,651,694,697,655,698,651,651,696,654,694,698,655,698,650,650,694,652,698,650,651,697,653,697,651,696,698,653,697,696,655,699,696,652,653,655,652,651,695,699,695,652,650,654,654,696,652,694,653,697,652,697,654,650,650,651,698,652,695,651,697,694,695,653,698,655,654,699,699,652,654,650,653,695,651,697,653,694,653,654,695,653,651,699,652,650,653,655,652,650,655,651,695,696,651,651,654,655,695,653,652,654,654,654,651,655,694,694,654,655,699,699,652,694,650,696,699,651,652,698,695,697,698,652,655,699,697,696,697,697,651,651,654,650,695,698,653,654,695,695,695,652,653,697,699,698,698,651,699,698,651,655,694,651,696,699,698,655,697,651,651,694,695,695,695,651,696,652,653,652,654,652,694,650,650,694,696,653,695,652,653,699,696,653,653,653,699,696,697,653,651,650,698,699,696,696,653,655,695,699,697,
697,653,698,653,694,696,651,694,694,650,699,652,697,654,695,696,698,655,655,654,654,694,698,655,652,695,653,650,652,699,652,697,651,652,695,696,654,650,697,699,653,694,699,699,698,652,651,653,655,697,650,655,652,651,653,651,652,655,698,652,652,699,699,697,699,655,650,653,696,699,698,655,650,654,653,654,698,699,650,652,651,653,655,699,694,695,695,650,655,696,651,652,694,654,653,697,653,694,650,650,653,697,650,653,653,698,694,650,694,654,651,696,697,697,694,694,697,651,653,652,652,650,655,652,654,650,650,694,652,654,699,653,650,653,654,698,653,651,652,696,652,694,651,650,699,699,651,650,695,699,655,652,694,694,698,653,699,651,694,696,698,694,655,696,695,698,651,651,694,696,652,655,650,698,696,655,650,653,699,654,651,653,653,654,695,695,694,695,697,655,650,695,650,650,655,652,699,653,655,654,653,651,652,695,697,655,653,698,697,654,699,653,696,655,694,652,655,695,653,698,697,652,698,698,695,652,654,694,654,655,696,699,697,654,651,697,650,697,697,652,654,697,697,698,652,651,695,698,650,698,694,652,652,654,653,697,696,699,651,698,650,654,651,697,651,696,654,698,651,655,695,697,655,651,698,650,697,653,695,651,653,655,697,655,650,650,654,697,696,698,699,697,654,697,697,699,655,654,652,697,651,655,695,696,653,650,696,655,655,694,694,655,699,697,654,654,652,655,655,697,655,699,651,699,697,651,695,654,698,652,697,654,698,698,655,694,697,698,694,650,696,653,695,696,654,698,694,650,650,654,694,651,654,650,698,654,652,654,650,696,696,655,694,698,651,650,695,694,695,698,698,653,698,650,652,652,695,652,698,696,694,697,655,695,694,699,699,650,655,694,653,651,650,650,698,654,699,696,695,650,653,651,651,655,699,695,652,654,655,698,699,698,698,696,698,695,654,651,653,695,653,654,695,695,696,650,697,651,655,650,654,697,655,698,654,695,694,652,696,695,697,696,654,694,699,699,696,655,698,699,653,653,653,653,695,697,696,654,655,650,698,699,699,695,653,655,650,654,698,699,698,696,654,694,652,654,651,695,650,697,652,655,651,698,694,654,650,652,655,698,654,651,654,694,651,650,694,650,651,653,650,694,654,696,652,695,655,699,694,652,696,697,653,655,697,655,694,655,695,653,651,652,655,698,654,654,699,655,654,655,652,697,651,651,650,699,652,655,697,697,652,699,650,699,655,695,654,696,654,655,694,699,696,696,654,695,655,698,650,652,652,652,695,651,650,696,652,695,652,650,695,650,653,653,699,697,694,654,698,655,695,654,651,653,697,653,651,697,654,695,651,653,650,695,699,699,653,652,698,699,653,694,695,695,699,694,655,697,696,651,655,699,651,651,652,651,695,650,651,654,651,696,694,699,651,696,696,650,653,698,653,697,696,694,653,650,699,699,698,651,655,652,696,655,650,698,699,697,699,694,697,699,652,695,652,655,650,651,698,697,653,694,655,650,696,651,698,651,697,695,698,654,652,699,654,652,698,699,650,698,698,695,697,695,699,651,652,697,695,650,697,654,696,697,654,651,697,695,650,650,651,654,654,698,695,653,694,698,699,694,699,650,652,698,655,698,699,655,694,695,651,653,650,695,696,651,650,652,654,652,652,652,652,698,653,651,654,653,698,697,652,655,655,695,651,696,697,652,694,696,697,653,651,653,652,699,696,696,699,654,696,653,698,655,655,697,653,698,696,694,654,652,653,694,695,695,652,697,695,654,694,653,650,698,653,699,695,696,651,655,653,652,650,651,695,650,696,654,695,699,653,654,655,652,654,695,695,697,652,696,695,697,697,699,695,696,699,699,694,655,698,699,651,694,653,650,699,698,694,652,699,694,696,655,651,694,696,694,694,698,696,698,697,651,655,699,698,652,695,651,694,655,650,695,698,697,654,698,696,699,698,696,696,653,655,654,699,653,653,697,694,650,654,651,696,698,654,697,652,653,651,694,694,652,650,655,653,653,699,650,697,654,654,653,652,652,695,654,697,650,696,654,697,697,650,650,697,654,697,651,698,698,653,654,650,698,697,654,694,653,699,653,650,696,654,650,695,699,699,698,653,699,696,694,652,699,655,694,698,652,698,653,698,654,695,699,654,697,651,699,694,653,650,652,699,695,698,695,650,696,698,655,653,699,694,655,650,651,652,650,698,653,694,651,653,650,654,695,652,697,698,698,651,650,699,652,695,653,650,697,694,699,698,654,652,695,651,695,698,650,
695,697,650,696,695,651,694,695,695,653,651,697,651,651,698,653,699,698,652,698,650,652,694,654,699,698,695,654,695,651,694,697,699,698,650,655,652,694,653,651,696,697,652,695,696,696,652,653,699,696,697,655,695,654,696,654,655,650,650,650,699,695,653,698,697,653,654,696,699,650,653,652,655,650,697,696,651,651,653,697,652,695,696,650,697,650,694,698,694,650,652,650,653,698,694,698,698,697,654,651,651,696,652,695,696,697,697,695,696,694,694,696,651,696,654,655,652,695,653,652,699,653,695,697,694,695,655,699,695,653,698,652,652,655,694,655,694,653,695,653,697,652,651,697,650,699,650,653,697,651,696,650,698,650,698,652,696,652,699,694,694,654,654,651,650,653,651,694,654,696,651,699,650,651,694,651,699,696,653,650,697,653,651,694,651,653,696,694,697,653,652,654,697,697,698,699,696,697,696,695,655,653,651,694,653,698,650,697,696,650,698,655,654,651,650,699,695,699,650,694,651,652,651,652,655,652,650,653,652,698,695,654,652,650,697,699,652,699,652,696,699,699,651,698,696,655,698,651,654,655,695,697,651,695,651,654,655,654,696,694,654,653,697,655,694,697,699,698,655,695,697,652,654,699,697,653,654,695,698,655,655,653,654,694,697,695,654,653,697,652,698,697,650,653,697,651,653,651,654,694,695,695,653,695,652,655,653,695,694,652,696,697,697,697,654,650,651,651,699,654,652,651,651,694,694,698,653,698,655,654,699,698,697,698,694,696,696,651,698,694,694,695,699,698,654,651,654,698,695,654,694,653,696,650,650,655,695,699,654,655,651,654,699,652,694,695,652,652,697,654,652,652,652,654,655,654,650,695,699,697,694,694,652,696,699,695,696,652,699,696,652,652,694,698,654,694,698,654,696,694,695,696,655,651,654,655,699,651,699,697,652,654,695,694,695,698,699,695,655,651,652,697,696,652,653,698,655,650,696,694,651,655,654,695,655,696,697,652,652,694,651,653,697,651,650,652,699,696,699,699,699,655,655,653,698,650,695,698,698,698,650,650,654,695,696,696,694,650,654,650,652,654,653,652,655,696,699,652,696,651,696,695,698,698,654,650,652,695,695,651,695,653,698,699,695,654,651,651,697,655,699,653,695,694,655,652,696,699,695,695,698,699,655,650,655,655,652,655,651,654,651,655,651,655,651,653,654,651,654,653,698,655,698,655,652,696,655,697,698,698,651,653,694,698,650,695,694,696,655,695,697,699,653,696,696,650,694,652,697,699,697,699,654,696,652,698,654,696,694,652,654,695,698,699,650,694,653,694,695,696,652,695,694,698,650,695,696,697,655,655,696,651,652,655,696,695,695,694,698,653,696,696,695,653,694,655,698,696,653,697,651,651,652,695,650,696,655,653,697,653,650,698,652,653,697,698,652,694,652,699,699,654,698,699,650,653,652,651,653,655,654,695,697,694,697,694,653,697,652,655,696,653,652,650,695,655,651,651,699,651,650,652,654,696,653,699,699,694,698,651,653,653,654,653,654,695,654,650,696,694,650,697,697,650,699,697,655,654,655,697,654,697,699,698,650,694,695,695,651,655,652,650,694,698,698,697,653,695,651,651,650,697,697,654,694,653,651,695,650,696,654,695,697,652,653,699,696,694,699,650,652,655,696,652,695,654,653,651,655,694,655,695,697,652,698,655,651,651,653,699,651,695,697,654,699,654,650,655,652,654,694,653,652,696,694,652,651,654,654,650,695,655,654,655,696,654,696,694,698,698,652,652,655,650,652,695,650,650,695,651,694,695,698,652,699,699,698,653,655,698,651,652,650,655,695,653,650,650,655,655,654,698,698,651,699,655,652,697,699,652,697,651,653,697,694,694,694,653,699,697,697,652,698,699,655,653,695,652,653,696,699,650,696,654,695,699,697,655,655,650,697,652,695,651,695,650,697,653,694,696,653,698,694,650,695,652,655,653,655,694,697,697,655,696,695,651,653,653,697,653,653,650,652,655,653,698,650,696,654,651,651,697,695,651,651,651,650,651,699,651,695,654,651,694,653,695,651,652,698,699,697,655,694,694,655,697,655,694,653,654,694,698,695,697,654,652,699,651,652,655,653,697,697,652,650,697,695,652,699,698,652,698,694,695,694,650,655,655,696,694,695,695,695,695,653,695,651,699,696,653,651,651,698,651,650,655,697,695,697,696,655,695,699,655,697,696,651,698,653,697,698,655,694,698,694,694,652,695,697,698,696,654,698,655,697,651,694,654,654,655,
651,651,697,652,696,699,694,697,698,655,699,654,695,696,695,699,699,652,699,694,698,655,695,699,695,653,694,694,654,699,652,653,696,653,696,698,696,696,653,653,650,653,654,696,695,650,654,697,651,652,694,655,695,698,699,650,694,650,652,655,654,652,652,653,697,696,653,695,652,650,695,651,653,696,694,697,655,695,650,652,694,695,654,653,655,699,651,655,696,694,696,695,697,695,697,655,699,694,695,699,650,650,698,694,653,651,699,699,697,695,697,695,694,655,695,696,654,696,699,698,699,697,698,654,697,654,695,699,650,651,655,698,653,697,652,651,697,655,698,653,650,698,651,650,695,696,696,697,653,655,698,653,650,650,652,697,699,652,696,654,698,699,698,653,653,695,653,699,698,696,651,655,650,697,699,651,655,698,650,699,651,655,696,694,653,650,652,696,651,697,655,695,650,655,651,698,697,652,698,695,697,650,653,653,654,695,652,655,652,699,695,651,695,650,699,699,694,651,653,652,654,699,696,654,654,694,655,655,651,698,698,696,650,694,695,696,695,652,698,696,655,650,694,699,655,698,699,650,697,699,651,654,698,699,695,652,696,698,694,696,698,654,650,699,698,652,651,654,695,654,655,698,654,699,695,694,652,654,654,654,699,696,650,698,695,698,652,699,650,695,652,652,655,694,695,695,699,654,650,696,652,695,652,699,694,655,695,652,699,651,697,697,650,697,695,696,698,652,650,655,653,696,698,655,698,694,699,655,695,655,697,699,652,651,653,653,651,697,650,695,655,655,699,655,694,655,698,697,698,695,654,653,654,699,698,654,655,696,655,652,699,654,655,695,698,652,699,697,696,654,698,655,697,653,651,651,650,699,697,694,652,694,699,651,695,695,697,653,652,651,698,699,699,696,699,699,698,695,694,694,696,694,652,695,697,651,655,654,699,651,695,651,698,652,655,655,698,696,654,652,694,698,651,654,651,696,696,698,697,694,652,695,653,650,696,654,696,655,653,652,655,697,651,696,696,655,694,651,699,696,698,697,652,697,695,650,655,652,650,696,696,697,651,654,695,698,651,650,651,651,697,699,650,699,694,697,697,651,651,696,698,651,696,654,697,650,652,694,654,698,698,695,699,696,652,695,694,695,696,695,698,699,651,650,651,653,654,699,698,698,697,696,651,697,699,694,654,655,699,696,654,654,653,698,695,697,696,655,697,698,695,695,698,695,699,696,697,655,697,650,696,697,699,650,652,650,697,696,653,696,653,696,694,698,696,698,654,699,694,651,696,696,654,652,650,655,654,694,694,699,697,699,699,655,696,697,651,697,697,652,655,695,655,695,699,654,699,698,651,655,696,655,655,695,696,650,697,696,654,653,653,699,652,698,654,653,696,651,696,698,654,654,650,698,650,655,654,653,697,652,697,696,652,695,653,698,695,694,697,655,695,655,698,696,694,695,695,651,698,655,694,655,697,653,652,699,699,653,654,654,695,655,694,655,696,655,652,651,695,699,655,654,698,655,697,697,697,694,652,650,696,694,651,699,652,695,698,655,652,695,697,655,651,651,699,654,651,652,694,655,652,655,697,696,698,654,695,652,654,650,651,653,653,651,696,650,651,695,694,697,699,699,651,697,650,694,650,694,654,698,696,695,698,697,697,655,655,655,696,650,652,694,695,695,655,694,699,695,696,653,698,694,697,698,697,655,696,694,697,695,655,650,650,698,699,652,653,694,694,699,651,699,655,694,650,698,652,655,697,698,695,696,652,698,695,652,651,654,654,651,650,699,699,698,697,697,695,652,696,654,650,655,652,650,653,698,652,699,650,652,654,699,694,697,651,694,652,653,699,655,699,653,655,696,696,694,699,651,696,651,654,653,651,651,699,654,695,652,650,699,698,694,694,654,651,652,650,654,696,654,652,699,699,653,650,655,654,653,653,650,696,650,652,654,651,697,699,696,653,694,699,654,697,698,650,655,651,651,652,695,695,698,650,653,699,655,650,695,652,655,696,698,695,698,653,653,699,694,694,695,652,653,650,654,655,650,651,652,652,654,696,694,652,699,694,697,697,653,651,696,650,698,695,698,695,653,652,697,696,696,698,655,696,655,652,695,655,651,697,655,695,696,651,652,696,696,699,696,694,695,652,696,696,697,652,696,650,694,652,651,694,694,695,695,699,696,699,698,696,696,695,694,651,698,694,699,694,652,650,699,696,652,651,650,694,654,698,697,654,697,652,654,699,694,697,652,699,653,653,699,696,654,651,655,651,652,696,697,694,696,
653,696,650,650,694,652,695,652,698,651,698,653,699,698,650,699,699,697,697,699,654,653,651,652,694,653,650,654,654,655,697,654,699,694,697,699,697,694,651,654,652,653,694,652,653,652,697,697,653,652,697,653,694,698,698,652,652,653,694,699,654,696,651,652,653,652,696,655,655,695,694,695,699,697,698,650,650,652,694,699,650,650,650,694,698,651,699,698,697,650,699,694,699,654,650,695,654,699,655,694,653,698,652,697,650,651,695,650,698,653,697,650,696,652,694,654,651,696,698,698,699,650,697,651,697,650,653,696,698,653,651,694,650,651,653,651,654,696,694,697,650,694,697,651,696,698,653,650,652,695,653,694,651,697,698,655,653,652,698,653,653,694,653,655,696,697,697,650,652,699,655,698,699,652,654,699,655,697,655,696,654,655,695,694,655,698,698,695,697,652,695,654,695,695,697,655,650,653,650,650,654,698,651,696,694,697,653,653,653,653,694,697,694,697,652,694,699,697,699,695,695,696,697,699,653,650,694,654,697,699,697,653,698,694,698,697,694,654,652,698,699,697,650,698,652,655,651,699,695,654,699,694,652,694,654,651,694,697,697,651,654,652,651,696,696,652,654,650,694,695,697,651,651,654,650,697,698,694,653,650,694,696,698,653,694,652,699,695,699,696,650,653,696,655,695,654,699,699,696,653,694,699,651,653,694,699,696,653,697,651,653,694,698,695,650,650,697,651,652,654,654,651,698,655,652,652,651,652,653,697,652,655,694,651,650,694,695,651,695,696,651,651,697,654,694,698,655,698,699,655,698,652,694,698,654,698,699,695,654,655,695,650,694,650,652,651,696,696,698,697,655,698,652,699,696,695,698,699,650,694,650,650,696,650,694,697,698,654,655,697,696,655,699,699,697,654,695,697,695,655,651,698,652,696,652,696,694,653,654,655,651,654,653,653,651,698,698,650,652,697,696,696,695,652,698,699,652,696,696,694,698,655,653,697,699,653,696,699,654,653,698,655,654,696,650,696,654,652,655,653,698,699,694,699,653,654,696,653,653,696,654,653,699,655,652,696,696,696,699,653,650,653,651,653,650,653,650,650,699,653,694,698,653,654,654,696,650,697,655,699,655,654,654,655,655,655,699,653,652,697,698,696,698,653,651,655,650,697,695,651,699,697,653,696,655,651,699,698,653,651,654,698,698,697,699,694,694,655,652,650,650,652,697,655,696,698,695,694,654,652,694,699,655,695,655,694,653,652,696,655,650,698,655,651,696,699,653,651,697,695,696,655,694,695,652,654,698,650,696,650,651,694,698,697,653,654,650,654,654,652,694,698,694,655,653,696,655,696,651,694,652,698,653,698,650,699,695,650,696,694,650,655,651,698,695,654,694,654,654,696,654,695,654,697,655,650,698,695,694,694,694,655,695,654,699,653,655,654,654,697,697,653,694,654,651,697,652,650,652,654,697,698,652,694,698,651,653,652,694,696,651,695,698,654,651,655,694,694,699,697,653,654,653,694,654,697,652,698,650,653,652,696,697,651,651,655,696,696,650,650,699,652,698,655,695,650,655,653,650,650,652,697,694,694,653,653,655,695,696,697,694,695,650,652,698,650,651,695,695,699,698,653,696,697,698,695,654,699,651,650,653,652,651,653,695,695,699,696,699,699,655,696,652,651,695,652,697,655,698,654,695,699,699,699,654,652,650,651,697,699,654,651,697,654,695,697,698,652,651,695,655,698,651,655,651,696,651,698,694,694,695,696,652,694,653,694,653,650,695,699,697,652,653,695,651,650,654,698,694,697,654,699,655,694,653,652,696,653,695,655,654,652,650,699,698,651,695,694,697,694,697,654,697,655,655,652,654,654,654,698,655,694,654,695,697,655,655,699,696,652,650,698,695,650,696,694,698,698,695,695,652,652,651,696,699,694,654,650,655,652,698,695,650,651,696,653,695,695,694,652,650,699,650,653,697,694,698,698,698,697,651,695,652,655,653,694,696,652,655,653,699,650,653,696,699,697,651,695,698,651,696,653,699,652,651,694,655,697,699,694,694,699,654,699,697,695,650,651,698,652,696,655,696,654,651,696,651,650,651,699,650,652,697,655,696,652,695,696,694,699,654,694,697,652,696,699,654,698,697,695,653,651,695,694,699,652,651,655,650,694,699,696,695,694,650,650,695,698,650,695,697,696,654,698,695,653,695,698,696,696,694,651,650,652,697,654,652,699,654,651,694,698,655,655,698,697,696,694,699,650,655,651,654,698,696,654,654,650,695,650,
696,695,697,698,654,655,694,655,695,651,695,651,698,695,694,697,698,650,652,651,694,654,699,698,699,694,652,650,653,650,699,651,652,694,697,695,653,652,696,695,655,694,694,654,695,697,695,697,695,655,696,698,655,696,653,650,652,655,652,655,699,651,651,650,653,655,655,654,653,651,651,699,652,696,654,650,699,694,652,697,651,655,697,651,651,654,696,696,695,697,652,698,654,695,653,699,652,654,651,655,655,695,695,654,655,655,654,698,652,653,650,655,695,653,655,651,654,653,698,650,651,699,651,699,696,696,699,697,651,650,698,650,654,654,695,698,696,696,694,696,650,699,652,699,694,697,697,696,650,652,695,651,699,650,695,655,694,650,653,699,695,655,698,699,650,699,650,699,652,654,699,650,696,699,694,695,653,696,697,651,653,694,698,654,651,699,699,698,694,697,655,697,655,697,650,654,696,651,653,698,654,653,696,695,696,652,655,650,697,650,696,654,652,696,699,696,699,653,651,694,698,699,694,698,652,652,696,699,699,694,650,696,697,698,697,655,698,654,699,652,698,650,652,696,696,652,696,651,652,652,696,694,696,655,655,697,654,655,650,651,697,695,650,695,653,652,696,696,698,652,696,655,653,653,654,697,653,695,698,653,651,655,652,653,699,698,697,696,697,654,697,698,698,650,652,655,698,696,650,650,697,694,694,696,697,655,653,694,696,653,655,695,652,654,695,699,699,699,695,698,698,699,694,697,696,696,654,653,652,654,697,695,694,654,655,650,696,652,653,699,695,651,696,696,697,697,653,652,697,698,699,694,694,653,655,655,654,653,694,695,652,650,652,696,697,652,650,697,695,654,655,653,655,695,695,694,698,695,655,650,651,655,650,698,694,654,650,650,650,650,651,699,695,650,650,652,699,698,696,698,652,694,655,653,654,694,694,695,651,655,697,652,652,694,694,694,694,650,653,653,697,697,654,652,699,652,695,694,696,695,697,651,699,654,696,694,696,699,699,650,651,650,650,650,651,654,650,652,655,651,655,653,655,697,655,652,696,652,695,695,654,655,699,650,650,694,699,697,697,650,699,697,699,698,698,699,653,696,652,695,698,655,655,694,697,653,653,696,699,653,698,655,695,650,655,697,653,697,695,652,697,696,699,651,650,694,651,653,695,653,698,651,698,697,695,654,653,694,696,654,651,694,652,654,699,652,697,697,698,653,652,695,694,697,696,652,650,651,651,698,698,699,698,698,650,699,654,695,697,654,652,650,654,695,694,698,695,696,655,696,653,654,650,655,694,654,654,651,654,697,699,653,699,652,699,698,698,654,652,651,695,695,651,695,652,651,696,694,652,694,655,655,697,654,650,695,695,650,652,697,698,652,694,695,695,698,655,694,652,652,696,694,697,653,650,653,651,654,699,698,699,697,699,696,695,697,650,651,697,655,698,695,699,650,650,653,694,697,696,695,699,696,653,652,695,651,653,650,695,652,654,697,651,652,695,653,650,651,694,651,695,694,697,651,699,655,696,698,654,697,697,650,698,699,698,653,694,697,650,698,651,654,651,696,695,698,650,695,652,655,652,699,699,696,697,698,650,654,653,699,654,651,698,654,651,651,698,652,696,696,651,654,698,650,698,651,653,653,650,698,653,696,695,655,650,695,650,699,695,655,651,655,650,651,695,655,655,699,694,655,696,694,697,655,698,650,695,653,655,650,699,650,695,650,651,696,694,653,654,696,695,697,650,652,654,650,655,650,653,696,694,696,650,652,695,699,695,650,653,654,695,696,651,697,698,654,694,694,654,697,651,652,696,694,655,653,653,652,694,698,652,652,655,653,655,699,653,651,655,651,697,655,653,699,655,696,654,695,694,694,655,699,652,699,694,655,652,694,695,695,698,652,697,651,697,651,654,655,650,699,655,651,650,653,697,652,655,653,653,699,655,654,694,655,655,698,653,651,698,696,650,699,655,650,652,651,697,694,696,695,651,698,655,694,696,652,653,696,696,699,655,699,699,655,650,653,654,652,694,695,655,697,697,699,695,653,654,654,652,651,651,653,699,697,655,651,650,696,699,698,697,654,653,696,694,651,650,653,697,699,653,654,698,696,696,655,655,698,694,652,695,699,655,655,655,653,698,654,697,697,654,655,697,652,697,652,695,653,651,696,696,697,655,698,697,696,697,653,655,650,651,653,654,696,652,696,697,651,655,650,653,695,652,653,696,653,694,654,697,650,654,696,654,653,697,694,651,654,653,696,695,651,652,699,694,694,652,650,695,696,
655,652,699,652,652,655,695,651,653,696,698,699,652,651,697,696,694,653,698,650,697,698,695,650,652,698,655,650,696,696,650,697,653,650,694,699,654,655,652,697,698,655,650,650,655,699,650,654,697,652,655,654,699,697,697,655,650,696,653,694,650,651,650,650,696,653,699,651,695,653,697,650,698,650,696,695,650,696,698,655,695,655,694,695,652,655,695,695,651,654,652,655,699,694,699,699,699,698,697,698,655,698,695,695,652,651,650,698,655,651,695,696,697,699,695,698,697,651,655,652,651,695,697,694,650,655,650,652,654,695,650,654,696,650,653,652,694,652,650,697,699,651,650,697,653,650,650,652,699,697,654,699,655,697,655,699,694,650,698,653,652,698,653,697,654,696,650,652,651,694,650,698,698,650,696,651,698,651,698,697,694,698,650,654,651,694,699,654,698,696,655,653,654,695,655,698,650,696,699,654,696,652,653,698,654,654,655,699,695,699,694,695,652,695,655,655,654,654,650,696,696,696,653,654,651,694,650,694,695,651,650,655,655,655,698,694,651,697,695,654,653,694,654,655,696,696,650,694,653,698,654,697,698,653,653,650,650,654,654,699,652,654,651,698,698,650,695,653,694,699,653,655,695,652,694,650,699,695,655,694,694,654,697,699,652,697,653,698,653,653,652,698,695,654,654,654,697,696,650,694,694,696,696,699,651,654,653,696,654,655,655,653,698,655,655,655,650,650,654,694,651,699,699,697,653,654,654,696,650,694,697,653,655,651,694,654,650,697,694,652,698,699,651,654,651,652,699,653,654,655,650,695,655,695,651,695,655,697,650,698,650,655,699,654,651,698,652,654,696,650,652,652,694,655,653,653,698,652,698,697,652,697,651,698,654,697,696,654,655,654,650,699,698,696,653,650,694,650,696,699,652,653,651,696,652,694,654,699,652,698,655,654,697,695,651,653,653,698,654,654,698,694,654,694,694,696,696,653,696,651,652,697,654,698,654,652,694,696,652,653,654,698,697,654,655,699,655,699,655,653,695,653,699,653,652,653,694,695,651,651,654,654,695,698,698,651,699,695,654,654,695,694,652,695,696,652,653,698,698,697,650,655,654,696,650,699,699,694,650,697,654,654,696,653,695,654,653,699,698,654,655,651,650,695,652,652,652,654,655,696,698,650,655,654,652,650,651,698,652,695,650,696,650,654,653,653,652,699,650,651,694,650,651,651,653,698,696,699,696,654,651,652,696,654,695,699,650,655,650,653,695,655,696,654,652,650,698,652,699,698,655,652,650,650,655,695,651,694,651,651,697,697,654,697,653,655,699,655,695,698,699,655,650,652,695,651,654,699,654,695,652,652,696,652,695,699,694,696,650,652,655,653,695,655,655,696,695,653,654,650,697,655,652,650,699,655,695,650,650,655,696,696,699,655,696,699,697,653,652,698,698,653,652,698,651,699,694,652,697,698,653,699,650,699,699,651,653,651,694,694,650,655,651,695,650,696,653,652,653,695,651,652,653,697,650,699,653,654,652,655,655,695,699,655,650,655,655,652,650,654,694,694,694,650,652,699,650,655,653,694,694,696,695,650,650,654,697,653,654,695,697,655,652,694,653,694,654,699,650,695,695,651,651,697,698,653,651,652,696,655,651,654,653,694,651,653,697,653,654,655,694,697,697,696,653,699,694,655,695,697,651,698,655,654,652,650,697,651,698,697,652,699,655,652,653,652,651,653,698,654,695,698,699,699,699,652,650,655,694,651,696,698,698,695,651,697,653,650,650,650,655,696,652,696,650,694,698,655,653,694,653,696,696,652,650,650,697,655,654,655,694,655,699,650,696,698,651,696,699,654,694,699,697,696,696,698,699,655,650,696,651,698,654,652,650,650,698,696,696,695,654,697,697,651,696,650,651,698,653,655,696,655,654,696,654,696,697,699,653,655,655,697,696,699,653,650,696,651,694,697,651,654,695,655,653,697,655,699,694,695,650,695,652,651,655,655,696,651,699,698,699,698,699,651,699,654,699,699,655,696,653,696,655,654,695,694,654,698,655,698,655,695,651,698,652,652,699,697,652,696,694,698,650,699,650,650,695,651,650,650,699,650,694,655,653,650,694,695,651,650,654,650,699,698,653,654,698,652,654,698,696,696,696,698,655,652,699,652,694,697,655,696,655,651,652,697,697,651,655,653,653,697,654,697,655,699,698,651,652,697,654,694,697,696,650,652,695,652,699,651,694,696,696,697,696,650,653,699,653,696,651,698,698,699,696,698,697,654,655,650,
652,698,695,697,699,697,695,653,698,694,652,696,698,699,699,654,651,653,696,653,695,654,695,696,699,699,698,651,694,651,652,699,654,650,696,698,650,654,652,653,651,696,698,695,651,655,651,652,696,699,699,650,698,652,651,699,650,651,655,653,699,697,655,696,651,650,654,655,651,698,654,655,698,653,655,694,699,694,654,655,696,651,655,698,653,697,695,650,653,655,695,655,694,652,697,698,694,698,655,653,698,650,694,655,696,655,695,698,698,654,694,652,696,695,698,698,698,653,694,694,695,650,654,655,697,694,653,694,698,654,650,696,696,650,698,653,697,653,651,699,698,652,655,694,650,655,653,651,651,696,653,695,652,694,651,655,651,696,655,652,696,650,698,653,650,694,653,697,652,696,697,698,652,694,653,653,655,697,650,699,652,697,653,696,696,695,697,694,653,651,650,654,695,653,652,694,699,698,654,694,653,652,695,695,650,653,695,699,653,696,654,697,650,698,651,654,650,653,697,653,694,655,652,697,651,655,699,652,695,650,650,696,653,651,694,655,696,653,654,694,650,654,698,694,652,694,653,696,655,695,696,697,655,696,697,699,653,697,697,650,655,699,651,651,650,654,654,652,696,697,696,654,651,698,698,698,653,653,652,697,695,650,650,697,654,652,695,653,651,697,653,652,694,650,651,696,650,653,650,696,655,653,651,697,698,695,696,654,655,697,652,653,697,653,695,655,650,655,652,694,698,698,694,697,650,652,651,698,655,653,698,654,654,696,653,651,696,653,698,694,651,697,695,650,654,696,695,696,699,696,653,697,654,650,699,653,650,697,654,695,697,650,652,652,699,697,654,655,694,654,699,699,650,650,696,695,696,650,695,651,652,698,698,699,694,699,696,698,697,698,694,695,698,695,694,653,652,696,652,695,699,696,695,694,697,697,694,694,694,696,694,650,654,655,653,651,654,650,651,697,695,654,655,699,655,654,699,698,694,652,655,652,699,650,651,653,698,650,655,694,695,653,699,694,650,655,653,654,698,653,650,695,653,650,697,651,697,695,695,698,654,697,698,699,652,651,652,652,698,653,653,650,655,699,655,695,653,650,650,653,653,694,655,694,651,653,694,652,694,699,653,651,655,654,652,654,698,655,650,653,696,699,653,653,655,699,698,697,697,654,696,651,698,650,652,694,652,698,650,653,650,699,655,694,699,650,699,699,695,653,655,698,694,650,652,699,698,651,697,699,650,655,652,650,695,699,698,699,651,696,654,654,651,694,698,655,653,652,651,654,650,697,654,655,655,654,698,655,696,696,698,651,655,699,650,698,652,697,653,652,652,651,655,653,653,698,694,653,699,696,651,650,696,650,651,653,695,698,699,651,699,654,653,697,696,655,699,698,696,655,651,653,696,655,654,698,694,697,653,695,696,695,654,697,698,699,697,699,696,653,695,650,696,698,696,655,655,696,695,697,695,697,654,652,650,653,698,696,694,697,698,699,655,655,696,695,698,695,650,696,696,695,697,652,652,651,654,654,698,653,694,650,654,694,696,653,654,696,651,655,699,698,655,653,652,652,653,695,695,653,694,698,650,652,651,654,654,694,654,694,697,655,652,651,697,698,653,655,653,695,694,651,655,698,698,699,655,653,654,696,651,699,695,697,651,651,695,655,697,699,697,699,696,699,697,652,699,651,654,652,695,653,652,698,696,650,651,650,696,653,694,655,698,655,655,698,698,652,655,654,651,699,652,650,654,654,651,694,696,698,652,652,696,651,653,652,655,651,695,698,653,650,651,699,695,696,697,696,650,698,697,655,654,654,653,653,654,699,651,697,694,696,651,651,652,696,650,651,696,652,651,694,655,654,652,655,696,650,695,650,651,650,694,695,699,695,653,653,652,651,695,699,650,696,651,653,655,698,698,653,650,655,655,652,651,652,652,696,655,654,696,652,694,653,694,650,653,653,651,654,697,699,695,655,698,694,698,697,695,694,652,696,652,694,697,696,698,651,699,695,698,654,698,696,650,650,652,699,696,654,653,652,655,699,653,655,654,699,653,694,653,698,654,651,695,695,652,695,652,697,695,650,698,655,698,651,654,651,694,697,695,652,653,653,699,652,696,699,697,653,655,694,695,655,697,654,655,652,696,698,655,697,699,695,650,699,699,654,699,653,695,655,699,698,653,650,697,694,699,653,696,653,653,650,652,696,699,697,697,695,654,652,694,652,696,651,698,655,655,651,650,650,699,694,694,650,650,697,652,650,654,654,653,695,655,653,653,698,699,698,
650,698,655,697,650,694,699,651,655,650,653,699,652,694,696,698,653,655,694,697,654,652,651,699,698,654,697,694,694,694,694,698,654,696,654,655,698,697,651,697,651,651,696,654,651,651,651,699,650,655,650,696,653,698,698,699,699,697,695,652,696,695,650,655,652,652,694,652,696,695,695,650,650,654,696,698,696,651,694,654,652,653,694,654,651,652,694,696,652,699,699,694,695,652,695,696,698,696,653,694,697,696,699,698,698,698,698,699,651,650,650,696,654,696,652,651,650,694,699,695,695,653,697,696,697,654,650,654,694,653,651,650,698,697,697,654,696,698,654,650,695,694,694,694,697,654,699,695,695,699,697,654,698,651,697,697,652,651,696,654,694,698,652,696,652,696,698,650,654,695,699,651,694,653,652,653,653,650,650,697,655,698,653,655,698,696,696,699,696,654,652,695,651,699,650,654,653,699,651,695,652,652,694,654,694,695,694,699,654,699,651,653,650,653,650,651,650,653,699,652,699,694,654,650,651,698,654,655,694,652,653,699,695,650,650,653,694,652,699,696,698,654,651,697,694,699,651,654,652,695,650,696,651,696,696,650,696,652,699,651,698,697,652,655,696,654,698,695,653,698,655,652,694,699,694,699,694,694,651,653,699,654,694,650,695,651,653,652,694,698,695,699,651,651,697,697,698,696,655,695,698,697,653,698,653,699,694,650,655,694,696,696,696,652,653,697,696,696,652,695,695,655,697,651,654,698,698,654,654,654,698,650,651,651,654,653,651,653,695,698,699,655,696,698,652,699,696,652,696,651,696,650,695,698,652,651,694,698,650,698,651,650,654,651,655,695,696,650,650,694,696,652,699,655,695,695,698,697,650,696,696,696,694,655,695,654,697,654,699,651,694,654,652,696,694,697,650,654,697,650,652,655,699,695,697,698,653,699,694,650,699,650,651,695,653,653,698,655,695,650,653,655,652,655,695,698,697,694,653,699,651,651,698,655,653,654,696,652,655,698,696,698,699,694,651,650,650,697,696,650,653,697,654,695,699,655,694,650,696,699,654,695,651,696,654,699,695,694,697,695,651,699,695,695,653,695,651,699,696,698,696,696,696,652,654,650,653,696,694,655,651,699,653,651,654,655,695,655,694,654,653,695,653,697,699,651,694,652,654,695,695,650,650,699,698,651,695,696,654,653,654,653,695,651,695,653,699,698,651,694,652,655,653,654,650,697,650,699,694,694,696,654,698,655,699,699,654,696,654,696,698,698,697,650,652,650,699,697,654,653,698,695,652,697,655,697,696,653,652,654,697,698,651,654,653,653,695,655,653,694,655,694,696,650,655,696,697,652,654,694,698,654,655,653,694,655,695,699,699,695,696,696,653,696,697,650,695,698,651,651,652,697,698,651,696,699,696,654,697,697,698,695,696,697,652,698,655,696,652,696,698,653,699,655,699,654,650,653,696,697,698,696,697,655,650,699,655,655,697,699,695,699,697,655,694,697,651,650,696,653,654,654,650,697,695,697,694,654,654,651,651,654,699,651,699,696,695,696,654,694,697,695,654,699,699,696,696,694,699,654,696,698,653,698,650,696,652,699,655,652,698,650,654,694,655,694,653,696,699,651,695,699,654,698,696,699,697,653,697,653,696,654,699,652,697,694,697,694,696,653,696,698,697,695,698,697,698,652,698,650,695,695,698,651,699,694,653,696,655,655,694,696,694,695,697,655,651,697,696,652,694,694,695,699,699,698,699,698,650,695,698,696,695,696,699,651,653,699,651,650,694,653,654,694,694,697,652,696,696,696,652,654,695,651,697,650,698,694,653,696,698,653,694,694,651,654,652,652,697,651,696,697,699,655,653,652,695,651,696,698,651,650,699,694,695,696,655,652,651,697,698,652,698,694,652,696,699,652,651,654,699,697,699,650,654,652,651,652,651,654,652,654,653,652,695,655,651,655,653,699,652,655,654,653,655,699,655,655,652,697,651,650,696,695,651,694,697,653,652,650,653,652,650,695,694,694,695,651,695,694,654,694,652,698,694,654,650,654,655,654,650,699,696,695,696,699,650,699,695,697,698,698,652,699,653,694,655,650,653,654,651,695,655,698,654,652,699,655,697,652,698,655,696,694,650,654,696,698,695,650,654,651,696,699,655,697,650,695,654,654,697,655,694,651,650,654,655,699,655,695,695,695,650,650,655,695,694,697,696,653,694,650,652,699,697,651,654,651,695,695,699,651,694,654,698,698,694,655,697,698,696,654,654,654,699,655,650,650,699,698,
651,655,653,697,697,695,696,699,654,653,699,653,694,650,699,653,697,654,650,699,654,698,650,653,694,698,651,655,698,697,655,698,654,697,698,697,697,652,699,697,694,652,695,698,653,694,652,654,696,653,699,653,654,654,650,654,699,652,650,654,655,652,696,698,653,654,697,655,696,699,655,694,650,652,651,698,697,698,653,694,698,652,698,695,655,652,697,696,651,654,652,699,650,695,651,695,653,655,694,652,696,652,695,653,695,650,650,697,651,695,698,695,698,699,654,697,694,655,697,650,699,696,694,651,698,652,650,654,695,696,695,652,653,653,655,694,697,699,652,650,655,654,652,650,698,698,699,699,694,698,651,694,652,699,653,655,695,651,697,650,655,655,653,694,651,695,697,652,652,655,696,696,696,654,697,696,694,697,655,698,654,698,653,698,653,653,698,655,698,653,653,651,651,699,653,655,698,696,697,654,694,654,653,697,697,698,652,694,650,652,650,651,698,652,699,655,654,694,654,695,694,650,699,655,652,655,651,651,699,695,653,650,699,696,694,695,699,655,652,652,694,651,698,650,699,694,651,651,697,655,655,650,654,698,650,654,698,699,695,650,695,655,696,699,694,651,696,698,650,655,694,651,699,699,650,650,695,650,694,696,697,699,655,650,654,694,652,650,699,654,651,650,697,696,654,652,694,698,699,699,651,696,696,698,650,654,695,654,653,651,654,651,650,654,650,650,650,651,653,698,698,653,653,652,655,694,652,651,653,699,695,652,654,650,651,652,652,697,652,697,651,696,694,699,699,699,650,696,694,699,697,655,652,652,697,695,653,699,695,655,696,697,699,697,652,698,695,652,699,696,651,653,650,652,695,654,697,698,699,655,696,696,652,652,695,650,652,694,695,653,654,694,699,654,652,653,697,694,654,696,651,696,697,650,699,698,699,651,650,652,695,696,695,697,651,697,655,654,696,655,699,655,697,655,698,651,696,651,695,694,698,652,655,653,698,699,699,699,694,652,652,698,650,696,695,697,698,652,650,698,697,651,697,696,699,696,653,651,696,699,695,697,697,697,696,694,697,694,652,653,699,694,699,699,653,699,697,694,653,652,698,654,699,694,653,651,694,695,698,699,653,698,696,699,651,699,695,698,653,653,698,694,651,651,697,696,652,653,694,697,695,652,653,654,654,653,698,651,653,651,695,699,695,654,653,699,652,694,651,651,694,653,654,653,654,652,694,699,694,697,650,655,698,655,696,653,694,654,651,653,698,697,699,654,697,651,695,650,651,697,651,697,651,652,654,697,694,653,695,652,652,652,695,695,651,696,653,652,699,697,695,698,655,694,651,650,652,650,654,697,696,653,653,699,694,695,696,655,653,652,699,653,652,698,655,699,651,699,694,653,694,699,652,697,655,696,650,652,698,694,696,654,695,650,652,696,697,698,650,697,650,651,652,651,695,654,653,652,699,652,694,699,653,698,696,694,655,695,698,654,652,699,650,697,654,697,694,650,699,694,695,695,698,653,697,699,699,651,697,699,654,695,650,653,699,696,697,698,699,654,653,655,696,654,652,699,651,694,696,697,698,652,694,694,655,653,654,698,655,652,655,696,698,697,655,655,652,652,695,695,695,652,654,699,655,650,694,653,655,653,697,696,655,695,654,655,695,696,655,694,699,653,699,699,650,650,655,651,651,653,654,651,652,698,650,699,697,696,652,697,696,695,697,653,653,696,653,696,652,698,651,699,694,654,653,699,694,696,654,698,695,698,698,655,699,655,696,653,650,694,695,698,653,652,697,697,651,652,655,654,655,694,652,651,655,697,654,651,654,651,652,650,655,699,651,651,694,695,653,698,699,696,694,696,652,696,694,697,694,698,655,654,695,654,696,696,698,699,651,650,699,699,698,653,654,654,651,652,652,650,650,650,698,696,651,698,696,654,697,694,696,694,650,694,655,654,652,654,696,699,650,653,653,653,655,654,699,697,651,652,654,655,650,697,652,698,650,652,696,695,697,652,655,698,697,696,653,653,696,654,696,653,651,655,654,654,699,653,654,652,651,694,696,695,698,653,652,651,650,654,694,653,653,698,653,652,695,697,651,654,698,699,652,699,654,651,696,697,696,699,651,652,696,695,655,651,696,699,655,653,696,695,650,654,694,699,697,654,651,696,696,699,650,651,699,652,653,655,699,654,652,696,699,655,698,697,697,694,695,651,653,650,697,655,696,650,650,697,695,652,654,650,653,694,654,653,651,699,650,699,695,655,697,695,699,695,650,654,697,697,
696,652,655,650,653,650,654,697,694,694,655,653,699,652,654,653,695,652,699,652,655,695,694,698,696,695,696,694,653,694,698,695,695,697,697,650,695,699,699,696,655,696,699,651,653,655,694,652,698,653,654,698,655,695,698,697,654,651,655,652,653,696,699,699,698,699,696,653,694,694,654,699,654,695,653,698,698,652,652,694,651,653,698,654,695,698,699,650,699,655,697,697,698,695,695,655,650,695,696,698,696,650,653,650,653,651,653,695,650,652,694,694,698,696,697,698,653,651,694,650,694,697,694,694,654,695,699,651,654,651,655,694,698,694,651,653,697,699,698,699,655,697,695,655,695,694,655,650,651,651,697,650,698,698,699,651,655,699,653,695,651,694,654,650,695,654,696,696,697,651,650,699,694,694,651,695,698,696,695,697,698,655,699,694,695,653,655,694,695,653,651,651,654,695,651,697,698,655,695,652,696,650,651,651,696,651,695,698,694,698,695,697,655,650,650,695,654,694,699,697,699,654,651,652,655,696,699,695,697,697,652,652,651,655,694,697,651,650,652,697,655,694,650,699,695,694,654,694,651,698,655,650,697,653,695,694,653,696,696,697,654,695,654,697,655,651,653,696,653,654,699,650,696,696,655,651,696,655,696,697,697,699,655,655,695,651,651,695,698,699,699,699,653,696,695,696,695,654,650,650,652,695,651,696,652,651,695,696,652,694,650,697,650,654,698,697,653,697,653,655,654,699,697,695,698,694,699,698,697,695,654,650,698,698,699,652,698,695,651,694,650,696,696,650,695,653,655,652,654,654,694,697,699,655,652,697,696,654,695,652,651,652,698,695,695,652,694,655,699,695,653,695,699,653,654,655,652,697,699,694,696,652,696,652,694,654,696,697,652,696,696,697,652,694,655,654,655,653,654,653,696,697,654,655,650,694,698,650,695,653,696,697,652,650,699,697,650,654,652,695,694,654,696,699,694,699,653,695,651,697,699,651,697,694,697,695,694,651,695,699,653,651,696,650,694,696,654,694,654,654,699,695,699,651,695,695,652,651,653,654,652,651,651,698,694,655,699,698,697,652,695,652,652,696,698,695,652,652,698,699,650,698,652,695,653,652,695,650,652,697,697,650,698,655,654,694,654,699,697,699,695,697,651,652,699,655,698,652,695,696,653,653,653,653,653,695,694,653,699,696,698,698,650,652,651,652,696,650,694,694,694,694,699,653,650,654,652,650,652,698,650,653,698,655,650,695,652,696,654,652,695,694,698,653,695,650,695,652,698,695,655,696,698,653,697,652,651,654,655,698,695,699,697,696,654,699,654,699,651,654,699,653,698,698,695,699,698,654,696,654,694,652,696,696,655,699,655,652,652,654,697,653,694,652,694,697,697,695,695,696,651,654,655,655,651,695,699,651,699,654,654,653,655,650,697,655,650,694,697,694,651,650,652,698,696,695,699,654,652,696,699,650,697,652,699,651,694,698,650,696,653,650,652,655,653,651,697,651,696,651,653,653,653,697,697,694,699,653,695,698,650,655,651,655,698,694,654,695,654,697,653,652,650,694,697,655,652,698,655,697,650,651,654,652,698,695,651,655,697,655,650,653,697,698,654,695,653,696,695,699,652,699,694,650,696,650,653,697,653,653,696,699,696,694,650,654,652,695,651,699,698,697,651,699,699,697,650,655,655,698,654,694,697,653,654,652,651,696,651,699,697,654,655,655,694,694,694,655,654,655,653,695,694,698,698,694,695,651,696,654,698,694,650,695,653,650,699,651,655,653,650,650,650,699,655,651,699,697,696,651,697,696,696,653,698,655,697,651,654,697,655,695,651,654,695,653,696,699,697,651,653,655,698,694,695,697,694,694,655,696,653,694,698,651,696,654,650,654,694,650,698,650,655,697,653,699,695,698,697,651,655,652,651,696,697,654,655,694,653,699,650,699,654,650,694,698,654,698,694,651,650,650,652,698,695,695,695,695,655,655,697,696,698,655,699,654,695,698,650,654,694,696,695,651,695,652,699,694,696,697,694,651,655,697,652,653,699,650,698,699,699,652,651,651,654,652,650,651,655,652,695,654,694,697,696,652,695,696,650,695,694,652,699,650,654,655,698,652,697,652,695,655,651,653,654,699,698,655,650,653,699,651,694,699,695,654,651,655,697,695,651,650,655,695,650,699,650,651,699,697,695,655,697,697,653,654,651,699,655,697,696,695,653,654,698,653,652,696,699,655,651,650,651,698,696,697,654,655,651,695,698,652,696,698,651,651,652,695,696,654,
653,699,694,650,651,652,695,652,699,652,651,650,653,694,697,694,654,650,699,695,650,655,652,698,698,650,650,699,653,694,654,653,650,697,653,651,650,650,697,696,655,699,654,652,695,695,654,655,697,696,655,654,652,650,695,694,650,695,655,696,654,655,654,654,652,655,652,698,652,698,694,695,651,655,655,651,650,696,694,695,699,698,697,651,655,696,651,695,653,697,698,651,699,695,699,695,652,651,655,652,650,653,652,697,653,652,652,699,654,650,696,696,651,653,653,655,653,699,699,654,698,653,651,694,699,694,698,650,650,654,651,695,695,694,695,651,654,695,695,654,651,651,696,698,696,698,653,650,699,699,697,695,655,696,650,694,694,651,654,651,695,652,697,698,698,699,655,654,697,655,699,652,694,653,650,650,655,696,699,698,699,694,695,696,695,654,654,695,697,697,697,650,696,694,653,694,653,696,652,651,697,697,652,655,652,694,696,655,695,651,651,652,651,655,653,655,655,697,695,696,695,694,653,651,653,697,654,651,695,699,651,653,698,651,697,698,655,695,694,696,694,654,650,654,698,653,695,697,697,694,652,699,699,654,655,654,697,699,651,696,695,694,655,655,699,699,653,653,696,698,696,650,697,654,652,698,698,695,655,699,698,698,699,655,654,653,696,695,653,653,653,697,694,650,652,698,652,694,651,654,697,696,699,694,655,655,695,655,698,654,698,694,695,652,698,695,654,694,694,699,695,696,652,651,694,698,650,696,650,694,694,698,652,699,694,655,654,651,699,655,696,652,697,695,697,651,699,655,651,695,653,655,697,695,697,654,654,651,695,654,653,651,655,694,697,695,650,653,697,694,654,694,699,650,650,698,697,698,698,653,695,695,698,694,650,698,650,652,698,654,696,654,651,655,654,695,651,698,652,655,698,695,653,697,699,651,695,694,652,655,655,697,653,695,697,694,699,699,654,654,694,698,654,651,654,698,697,654,694,655,699,694,651,699,698,651,653,653,653,698,654,650,697,653,652,653,651,694,695,696,694,653,695,650,651,653,653,699,651,654,655,698,694,695,699,699,699,694,655,652,650,653,650,694,694,655,699,650,654,655,655,695,653,696,650,699,698,697,653,655,650,654,655,698,695,653,653,698,695,655,652,653,654,697,651,698,695,653,698,695,697,654,695,698,696,650,650,651,694,652,653,697,653,652,652,696,699,697,653,696,655,651,655,652,698,697,652,694,698,695,699,698,650,654,698,652,697,697,698,694,697,651,654,653,694,698,652,699,654,695,650,697,655,698,651,699,698,653,652,697,655,652,652,698,694,694,653,698,650,699,694,651,698,694,695,655,653,652,654,697,696,696,694,650,654,697,652,699,699,694,698,699,699,650,652,652,699,654,698,698,650,653,696,699,653,654,698,695,695,699,650,652,653,695,654,694,653,654,651,655,653,651,651,698,697,653,653,653,698,654,654,650,652,698,652,652,655,655,697,652,696,695,651,651,694,696,695,699,652,655,652,651,653,654,695,697,654,652,651,698,655,651,650,696,652,696,695,653,650,653,694,697,694,695,654,697,650,650,696,651,654,695,699,650,696,699,694,654,696,653,650,654,696,654,653,655,695,651,651,695,650,655,655,654,698,652,694,696,699,699,695,694,699,696,654,694,654,655,696,696,655,696,655,696,655,653,651,696,651,655,694,653,694,655,697,698,698,653,698,698,697,652,695,697,651,698,653,698,699,697,651,652,699,652,650,655,653,694,698,654,694,655,655,655,655,654,699,696,697,651,697,697,697,699,650,652,653,652,654,654,695,655,698,651,697,697,652,695,655,698,694,652,698,651,653,653,694,696,696,696,651,651,696,650,694,694,650,651,655,654,698,653,695,655,650,696,652,696,651,694,698,695,696,650,697,695,651,655,694,698,654,650,698,698,694,699,651,651,698,654,652,651,651,654,696,651,699,699,696,654,653,654,653,654,650,698,694,652,654,650,695,652,697,655,653,697,698,697,651,694,694,698,652,694,654,653,695,650,694,655,696,695,699,695,655,696,651,694,697,655,699,651,653,653,654,699,695,696,651,652,698,699,698,697,651,695,699,699,697,654,694,652,695,696,699,699,652,655,698,655,653,654,695,698,654,654,651,696,654,652,655,652,654,697,655,652,695,652,699,655,651,695,653,653,654,696,697,650,652,655,650,694,654,655,651,655,696,651,699,698,652,652,697,651,653,653,697,696,653,694,696,699,694,696,694,696,697,694,653,695,651,697,695,651,655,697,652,696,654,651,
697,698,654,651,697,650,699,695,650,694,654,695,695,694,698,655,654,695,696,698,650,698,697,652,654,697,650,698,655,653,694,696,695,650,650,655,697,697,651,653,698,653,697,696,651,696,694,694,653,650,650,655,694,699,655,695,654,697,699,655,699,655,699,652,651,696,654,694,695,699,655,652,695,695,653,652,695,694,698,651,699,653,651,695,652,652,697,696,653,655,655,655,651,652,699,696,655,650,699,696,652,696,650,695,650,653,655,655,696,653,697,655,696,695,696,697,651,653,650,698,653,695,699,696,654,653,698,699,698,654,694,655,699,651,651,696,699,650,694,654,654,651,698,653,695,698,696,697,652,652,654,698,697,698,699,652,653,695,652,650,653,651,652,696,652,653,694,653,653,655,655,695,653,694,652,650,655,696,650,655,697,654,654,655,695,697,654,699,697,697,694,651,694,651,695,651,697,653,694,650,654,655,650,694,650,698,694,695,699,652,652,695,695,654,694,654,653,651,698,655,696,652,698,695,699,651,650,653,653,654,654,698,655,699,694,653,653,695,652,651,651,650,696,697,651,651,696,655,652,653,697,655,650,650,650,694,653,699,697,654,695,653,697,698,652,653,653,695,699,699,694,652,699,652,650,699,653,653,699,698,651,697,697,695,695,653,653,699,695,699,695,651,651,699,653,650,650,696,694,652,654,653,651,652,654,697,695,653,694,697,654,699,655,655,653,695,655,697,654,698,655,697,695,652,694,696,695,652,653,699,697,653,695,699,698,699,650,696,654,654,650,652,652,698,698,652,698,650,694,651,652,696,698,650,696,651,699,651,651,697,696,694,697,694,698,696,696,652,652,696,694,698,698,650,655,650,694,650,651,655,695,651,650,652,652,697,655,699,695,695,695,652,651,652,650,699,699,652,695,650,696,650,694,699,650,694,650,654,650,653,695,698,652,697,695,655,695,652,651,696,652,695,699,694,650,695,653,697,698,652,652,653,699,654,650,697,696,652,694,696,655,694,650,651,654,654,651,695,698,653,651,698,699,694,651,652,698,650,695,696,694,654,654,695,653,654,652,653,652,652,697,655,653,655,697,695,699,651,655,696,699,695,654,655,697,698,699,655,696,696,698,699,695,651,655,651,695,650,697,652,654,697,653,650,654,699,652,651,694,655,650,697,697,697,650,698,655,698,694,651,652,653,653,695,653,653,654,698,696,651,697,650,651,653,697,651,694,697,697,653,695,653,699,695,652,655,694,695,698,655,694,650,653,694,655,698,698,694,650,694,653,695,651,696,699,650,653,654,697,696,696,651,694,651,654,652,655,654,696,655,654,695,699,699,654,695,652,699,652,699,696,652,699,655,651,699,697,696,694,650,697,655,652,653,698,651,651,652,651,654,699,655,651,699,695,695,696,654,654,655,652,651,652,652,654,652,699,695,699,698,694,652,695,694,651,694,652,696,699,699,651,699,655,654,654,651,652,653,653,695,653,695,650,698,653,699,698,695,655,697,695,699,652,699,695,655,652,695,697,698,695,653,655,697,653,654,653,652,651,697,654,652,697,653,652,697,653,655,695,695,650,652,654,650,654,652,654,695,654,697,654,698,698,695,652,655,699,698,655,655,653,698,697,696,653,699,653,698,652,696,653,698,699,653,695,650,650,652,653,696,695,650,651,650,653,696,655,696,699,654,694,653,650,694,652,655,651,695,694,655,697,651,653,653,650,696,695,697,699,654,650,696,695,653,697,655,696,699,695,652,695,654,694,652,652,650,699,652,699,694,697,651,653,698,695,653,651,694,655,652,655,698,695,655,695,650,653,697,697,699,698,651,695,697,651,650,695,650,653,695,654,652,694,655,654,699,654,651,699,650,699,655,654,650,699,654,698,653,652,650,699,697,698,699,699,654,653,653,650,650,654,654,699,651,695,696,651,697,652,654,652,654,652,694,697,697,694,655,699,695,654,654,697,699,695,694,694,653,697,696,655,694,698,652,651,699,653,651,655,697,655,697,698,652,699,698,696,651,655,653,651,654,697,696,652,696,696,655,697,697,697,650,651,699,699,699,699,655,695,650,653,698,697,698,696,696,652,696,695,651,652,651,696,654,695,654,697,652,652,653,654,694,652,650,650,695,697,699,655,696,653,655,654,695,655,696,653,695,655,699,697,695,695,652,697,652,695,699,650,653,653,699,696,654,653,699,696,653,653,654,653,651,653,652,650,653,698,695,650,694,650,696,697,650,699,655,694,694,652,653,655,654,699,652,696,699,695,694,650,697,
650,698,652,654,655,652,650,698,696,697,698,695,654,654,697,655,699,695,699,653,650,695,654,651,698,650,651,695,653,653,653,651,694,653,651,654,650,697,698,699,650,654,653,695,697,650,652,698,695,695,655,651,698,696,697,654,652,652,652,650,697,652,694,653,650,694,653,650,651,655,696,697,695,650,654,650,698,655,698,655,694,652,695,694,699,655,698,652,695,650,694,698,651,694,654,694,655,651,698,698,699,696,651,654,651,695,695,696,694,655,655,651,698,696,694,653,652,651,695,698,650,694,698,653,694,653,652,699,697,653,697,655,696,652,653,653,651,651,699,655,699,654,655,650,699,697,651,697,650,697,652,698,699,698,651,654,699,695,651,696,653,698,653,698,697,655,651,650,696,696,654,655,697,651,695,652,699,654,699,650,652,695,652,699,695,654,694,694,652,655,698,654,654,651,655,655,697,698,654,653,654,695,651,652,652,650,697,652,655,694,695,650,695,697,698,654,697,695,699,655,696,694,654,699,650,696,655,655,651,698,650,652,699,697,697,699,651,698,650,655,696,654,651,654,655,653,699,650,653,698,698,695,697,651,694,650,699,651,698,652,653,652,650,697,697,654,655,694,651,699,653,696,650,654,655,695,654,698,698,698,697,655,699,653,694,653,655,696,655,654,696,651,654,650,696,650,694,653,694,697,698,650,699,697,655,696,653,651,654,694,651,695,653,655,697,698,655,696,694,652,654,694,655,651,696,695,699,650,654,652,652,699,654,697,699,699,652,653,653,697,697,694,698,696,651,699,698,654,696,655,698,697,655,655,698,651,655,651,694,698,695,654,655,695,655,654,695,697,654,698,654,694,652,652,695,695,695,695,698,650,699,652,697,654,650,650,698,650,697,652,651,655,655,698,654,653,650,654,697,699,655,652,694,695,699,695,653,650,653,699,650,655,655,651,697,653,696,694,694,694,694,651,651,698,654,655,698,650,650,694,651,699,653,694,695,650,651,655,699,653,652,699,655,697,654,652,654,653,650,654,651,699,654,655,653,652,699,654,652,694,696,652,696,652,698,695,695,695,651,697,655,695,651,651,695,699,655,655,652,698,698,654,694,696,694,695,698,655,694,655,652,653,696,698,654,655,694,654,696,698,694,696,653,699,650,654,695,654,696,697,652,696,651,654,650,698,695,653,695,651,651,655,699,695,650,650,699,699,651,652,694,695,695,696,651,652,697,694,654,651,698,654,699,652,699,696,653,695,652,695,653,694,695,655,653,697,695,651,694,695,694,696,653,650,696,651,698,651,654,650,650,695,698,651,696,650,696,699,696,696,651,697,696,653,694,653,699,694,696,653,655,698,697,652,651,695,652,694,651,695,654,655,650,652,654,655,697,696,651,694,652,654,654,695,653,651,696,651,696,699,697,653,655,653,654,650,695,650,699,652,695,654,699,699,652,652,699,698,694,698,650,654,650,699,699,650,694,650,651,694,652,651,655,654,653,698,650,652,695,654,697,696,695,653,695,694,654,653,653,651,697,651,651,696,694,650,654,650,650,699,651,697,694,695,694,651,652,650,650,653,654,698,651,650,697,698,651,651,694,694,655,699,697,694,650,653,654,698,652,699,698,653,699,652,650,698,695,699,652,654,650,694,652,650,650,698,651,699,653,694,652,655,655,695,695,695,696,653,651,698,652,695,699,697,650,655,696,694,650,654,652,697,695,697,651,652,655,696,651,650,697,653,652,653,655,653,695,698,654,650,697,655,698,699,654,694,655,650,694,655,654,651,652,650,695,655,654,699,697,696,651,698,653,697,697,698,655,655,694,696,698,696,698,651,655,654,651,653,694,699,695,697,653,653,655,698,652,699,653,696,696,699,655,652,650,651,697,653,652,699,695,697,653,654,651,653,654,652,654,699,698,650,650,655,655,699,695,694,654,651,653,650,699,651,653,652,699,698,650,650,694,698,695,653,650,695,697,699,654,652,651,653,653,697,698,650,696,654,694,653,650,697,650,695,696,697,695,650,694,698,694,650,650,653,697,650,698,650,652,652,655,696,650,698,653,699,694,697,697,699,697,696,653,651,655,699,699,694,650,654,653,651,699,694,698,697,655,698,696,694,650,654,650,655,696,652,651,695,652,694,650,650,698,696,698,654,654,654,655,652,694,654,699,695,694,697,651,651,694,695,698,697,655,654,697,651,696,653,697,697,699,655,694,699,695,653,652,651,650,653,654,694,650,650,650,655,651,651,696,652,698,653,697,650,694,655,696,652,650,698,
653,697,652,655,653,653,655,650,651,698,653,653,650,696,651,650,651,652,694,654,655,654,654,698,650,694,695,654,655,697,694,694,650,696,694,652,697,654,697,694,697,695,694,694,655,694,699,654,695,652,654,654,698,650,651,654,694,696,699,653,655,697,655,650,698,655,655,696,653,699,650,655,654,696,650,697,696,651,651,695,654,652,651,699,695,698,650,697,650,650,652,698,651,698,697,694,650,650,697,651,651,698,654,697,650,652,651,652,653,695,698,696,655,651,651,650,652,654,655,696,696,697,655,697,694,696,650,653,695,694,654,696,694,654,695,652,653,694,650,652,651,650,650,695,653,699,696,699,698,651,695,652,653,694,651,698,652,651,651,654,695,651,697,699,653,695,698,655,653,651,699,655,698,697,652,698,651,651,697,698,694,654,655,650,697,696,697,651,695,697,652,655,696,650,695,696,697,652,697,694,652,694,694,653,697,694,655,652,655,695,654,699,697,654,696,652,696,650,652,697,697,694,694,652,651,696,696,652,698,651,652,694,652,699,699,694,650,650,652,697,652,699,650,696,653,652,652,696,698,652,699,653,694,694,650,699,696,696,652,696,699,699,654,694,696,651,698,655,653,695,651,650,695,697,651,653,655,695,695,696,696,650,653,655,696,655,699,654,655,654,694,652,699,695,652,655,652,652,695,653,654,651,698,695,696,697,652,652,698,699,694,694,651,699,695,695,653,651,698,650,697,651,697,651,654,653,650,697,697,652,651,697,698,652,698,698,650,697,655,655,650,698,694,654,655,695,695,653,651,699,697,653,652,694,698,694,694,695,655,650,652,698,695,652,694,695,696,696,699,699,651,699,699,695,699,698,696,698,699,698,699,655,652,655,651,696,654,653,654,697,696,698,655,699,694,651,697,654,696,650,698,694,698,699,651,697,697,651,694,655,696,655,655,699,695,655,650,650,651,650,698,696,655,654,651,653,694,696,653,655,695,655,650,650,694,651,699,697,650,694,650,699,654,696,697,654,698,696,699,698,652,653,654,654,655,653,652,654,697,698,651,694,654,652,698,653,651,651,652,696,653,697,654,651,695,694,698,694,653,695,695,654,650,651,654,650,652,655,652,654,696,651,652,697,694,652,653,651,698,699,697,650,694,696,655,651,694,655,698,696,697,697,698,697,650,650,652,654,699,655,697,697,651,654,653,653,698,698,652,698,650,694,654,650,697,694,653,694,699,695,654,696,694,653,653,699,650,698,695,655,655,652,652,698,651,697,694,695,694,696,695,696,698,654,697,698,653,699,653,698,696,698,651,653,694,655,652,652,653,697,697,654,695,654,694,697,655,699,650,694,696,655,696,699,654,699,651,699,650,653,655,697,699,651,699,652,696,698,694,697,694,655,696,694,694,698,699,654,650,695,695,654,699,698,699,650,651,699,695,694,650,695,652,696,654,694,653,655,654,652,650,651,653,696,651,652,650,654,652,653,695,653,651,651,699,696,699,654,697,654,697,699,654,695,695,696,653,699,694,654,699,699,698,694,697,694,695,655,699,694,694,695,650,650,653,697,694,696,651,697,696,699,653,651,696,699,655,696,650,652,651,652,699,699,653,699,695,651,650,699,652,652,651,699,653,695,655,698,652,699,653,651,651,696,653,696,655,655,653,653,696,652,651,697,696,651,696,696,697,650,698,651,695,653,651,695,699,655,652,653,695,651,697,653,651,699,651,655,698,699,699,650,652,650,697,698,696,695,654,698,696,696,699,694,696,695,696,698,650,650,696,653,696,650,698,654,699,653,698,695,694,694,653,654,653,653,650,695,697,695,696,653,655,652,699,652,695,699,698,650,696,699,652,696,699,694,654,652,694,651,698,650,651,696,696,653,650,699,653,652,695,650,698,651,698,696,695,696,650,699,699,699,650,696,653,697,698,655,698,694,655,650,650,694,694,654,697,697,654,694,695,650,697,650,651,696,653,650,653,696,698,699,694,699,653,655,698,651,653,698,699,696,698,652,698,650,652,652,651,654,695,699,654,652,651,698,697,651,695,650,697,699,695,697,694,654,655,699,650,695,651,698,652,655,653,698,695,652,698,698,696,695,697,699,651,652,655,651,653,653,654,653,652,697,654,650,697,697,698,696,698,696,653,650,650,695,699,655,699,699,653,694,696,653,651,652,653,650,650,652,699,654,652,653,696,698,652,697,698,694,654,699,651,694,699,652,697,652,694,694,698,695,694,654,696,694,651,695,650,696,650,697,694,696,699,697,698,652,697,650,
651,650,696,654,697,698,698,694,655,697,655,696,696,695,651,653,655,652,654,696,695,650,651,697,653,651,655,695,653,651,651,697,650,695,696,699,699,695,697,651,696,697,698,696,652,651,651,698,652,699,651,655,651,694,696,698,655,696,696,654,697,653,695,697,653,653,653,694,694,696,694,694,696,695,654,655,653,697,655,653,696,654,695,697,654,694,696,651,652,654,699,652,697,696,694,652,653,653,651,694,653,696,655,651,695,698,655,655,694,697,699,696,694,653,697,699,653,654,697,696,650,652,652,650,695,655,655,696,655,654,652,652,653,699,698,654,654,650,651,651,650,697,650,694,652,695,653,698,652,653,695,694,652,651,699,696,650,695,653,655,653,697,694,694,650,695,696,698,655,654,698,655,699,650,654,650,655,651,655,698,696,698,650,655,651,694,695,697,650,697,698,698,696,695,694,650,652,696,696,696,653,695,653,653,651,697,698,697,654,697,653,696,699,696,696,696,651,653,697,654,697,695,697,650,697,694,697,651,654,695,651,651,698,655,655,695,650,699,654,699,653,694,652,654,655,651,695,654,696,699,699,696,699,652,654,697,695,650,650,694,655,655,694,698,695,652,653,694,696,655,696,699,651,694,697,650,651,694,698,697,651,696,652,695,654,697,653,655,698,655,695,652,698,699,698,699,650,653,652,651,655,652,651,650,654,694,652,654,694,652,696,651,699,698,652,699,655,654,653,652,653,697,695,651,698,697,654,655,696,653,652,697,699,696,650,698,652,699,651,651,697,696,655,650,654,698,655,694,652,697,696,652,698,699,653,698,699,698,697,696,699,653,652,694,652,653,694,696,694,697,694,652,653,698,653,654,653,696,695,698,650,695,654,699,654,652,653,655,696,651,654,652,697,697,699,699,696,696,695,655,694,653,695,694,696,695,698,654,694,651,651,655,651,694,655,696,654,694,654,650,698,696,695,654,652,650,652,651,651,655,699,698,652,654,699,655,650,655,655,696,695,650,698,694,651,650,694,651,699,653,655,655,655,653,696,654,694,696,650,652,696,654,695,699,653,654,652,699,695,650,698,694,696,696,655,652,695,695,695,654,699,650,695,655,652,696,699,650,697,699,655,651,651,694,652,652,653,654,696,698,697,696,697,654,699,654,655,699,697,697,652,653,655,698,653,650,652,654,650,695,694,694,651,695,652,695,650,650,695,698,694,655,655,696,695,654,653,651,655,699,653,653,695,695,652,699,694,697,697,650,697,698,695,650,655,699,694,695,651,697,651,653,694,650,699,654,698,698,698,655,655,655,655,655,650,697,697,694,650,654,694,650,653,694,651,694,697,655,697,653,653,652,695,651,696,652,699,653,699,697,653,697,652,651,651,654,653,653,694,655,697,698,697,650,652,695,696,697,695,694,695,696,653,650,655,696,699,655,695,695,695,653,653,650,698,651,699,696,699,655,652,696,653,653,694,696,695,653,651,699,650,650,695,651,652,696,652,651,696,695,650,697,698,650,653,651,650,650,650,654,697,694,694,694,654,696,650,654,695,652,699,697,650,694,651,650,697,698,652,694,696,696,695,650,655,651,697,697,652,698,699,650,694,653,653,651,694,654,696,653,694,655,697,655,653,653,653,699,697,650,699,650,651,651,697,697,695,650,699,695,652,698,699,653,695,699,653,650,650,655,694,699,699,651,651,655,697,699,655,653,655,698,695,654,697,650,651,650,651,695,697,698,652,650,655,651,655,654,697,652,655,653,699,696,652,650,696,695,696,698,655,699,653,696,694,654,650,695,653,697,653,694,653,651,695,698,699,699,697,651,653,696,696,652,650,653,699,655,697,695,699,694,698,653,696,654,697,696,699,694,652,695,655,651,650,698,695,654,652,654,694,654,699,695,699,696,650,655,655,655,651,650,655,654,695,697,696,698,698,696,694,652,653,694,697,652,694,655,694,695,653,697,698,652,654,654,694,694,655,695,697,651,699,694,695,653,651,653,651,697,699,653,651,694,654,650,654,695,650,650,694,650,653,653,696,655,653,653,650,651,654,695,696,697,694,654,699,653,696,653,696,699,696,655,694,697,698,697,696,698,697,654,653,650,651,650,695,699,697,696,694,650,650,650,652,651,695,654,653,697,697,652,696,699,699,694,699,699,694,694,695,652,650,695,694,697,695,651,696,697,654,698,696,699,651,695,652,695,698,698,696,698,697,697,654,698,650,694,653,699,698,696,697,698,698,653,652,697,696,651,654,652,697,696,699,694,698,695,698,650,
654,650,697,655,652,650,655,699,651,699,695,697,698,652,696,699,650,654,699,695,651,697,652,653,696,694,699,694,652,699,654,653,653,653,650,654,651,650,697,696,655,650,696,654,695,651,698,650,694,695,654,698,697,653,697,653,650,651,698,651,698,650,654,695,699,653,650,655,697,654,699,695,651,653,698,653,651,653,699,655,695,694,699,652,654,652,694,655,653,652,655,696,654,653,653,652,697,696,697,695,698,697,699,654,695,655,650,698,655,697,652,698,655,697,651,653,653,695,696,697,652,697,696,652,653,697,651,654,652,655,697,651,655,653,697,654,650,697,650,652,698,651,655,699,697,651,697,699,695,650,651,698,651,697,654,697,697,694,655,651,653,652,654,696,696,696,653,696,653,697,654,655,655,652,696,699,650,655,697,651,698,698,695,652,695,652,654,699,655,694,655,696,698,653,653,655,698,654,694,652,650,699,696,651,695,698,694,696,699,652,650,697,698,651,651,653,651,695,697,655,651,650,696,698,695,651,695,655,654,655,699,653,695,654,697,698,694,696,696,652,655,655,650,653,650,654,696,652,697,650,696,652,650,695,654,694,652,698,698,696,695,655,652,655,653,699,652,699,697,655,694,698,655,650,699,655,652,650,697,699,653,696,655,694,652,651,696,694,698,653,652,654,694,696,653,696,652,698,655,655,695,699,698,652,651,696,697,651,698,699,695,695,653,699,654,697,652,651,653,653,694,650,697,696,654,650,655,694,654,694,652,695,694,651,652,650,698,652,650,696,695,651,654,650,650,697,650,651,655,655,655,696,655,653,651,698,697,694,698,696,650,698,651,651,655,696,695,696,650,694,652,652,651,654,695,694,697,654,652,698,697,654,694,655,695,654,652,696,699,695,695,651,698,698,653,699,696,653,654,697,652,699,696,698,699,655,654,653,654,651,697,696,652,699,650,696,650,697,696,699,698,654,655,694,652,695,650,695,697,697,654,697,696,697,655,654,694,655,654,695,696,694,655,652,652,652,699,698,653,655,652,698,650,696,655,651,654,694,655,699,651,698,650,699,698,653,654,651,696,653,655,650,695,651,699,695,699,699,696,653,653,651,699,651,699,697,699,651,698,694,655,650,694,654,696,699,653,699,650,696,697,654,650,651,697,697,653,698,653,694,699,698,694,655,695,654,651,695,696,650,697,695,651,653,650,699,651,696,694,650,694,651,652,652,695,699,694,652,650,696,695,652,652,699,698,696,655,694,696,651,655,653,695,653,695,694,697,653,654,694,697,698,697,654,696,651,697,653,697,694,696,655,650,699,698,698,652,655,653,697,650,698,651,696,652,650,651,651,653,652,698,696,652,650,653,694,696,655,654,699,695,655,699,696,653,694,697,652,699,694,695,698,650,651,699,653,651,651,696,695,655,694,697,698,695,695,653,699,697,698,650,651,650,696,694,655,698,652,696,698,699,699,696,694,698,651,696,696,653,697,653,653,654,651,654,694,694,696,696,655,651,654,698,653,699,694,655,698,697,654,651,655,650,651,699,650,699,699,652,696,699,697,652,650,654,651,696,655,695,697,655,653,694,654,654,699,652,652,654,699,697,698,650,697,654,698,651,696,650,696,694,653,696,653,694,695,697,694,653,696,695,655,698,698,695,652,654,653,697,653,653,650,695,654,696,650,695,694,694,694,652,651,698,654,653,696,655,652,694,652,653,697,654,654,651,653,653,696,696,655,697,655,698,653,652,695,696,652,699,696,651,694,695,697,695,650,650,697,697,653,655,694,696,697,696,651,651,696,654,696,651,697,695,695,699,697,697,695,655,651,697,699,696,653,651,695,698,695,651,696,694,694,654,697,650,694,695,697,653,695,694,695,655,694,655,650,699,655,695,698,698,699,651,652,653,651,694,653,652,650,698,652,698,653,698,654,696,696,696,652,655,652,654,653,699,699,699,695,698,652,652,695,655,651,694,651,696,699,655,696,697,653,653,697,696,697,696,696,653,697,695,653,653,650,654,696,654,695,696,651,695,698,695,696,653,652,651,651,696,652,650,695,654,652,699,694,695,655,654,699,650,698,651,653,654,651,652,695,653,652,654,694,699,695,696,654,650,695,652,695,697,695,655,654,696,652,695,699,654,654,695,694,696,696,696,655,694,699,651,653,699,694,651,653,650,650,650,655,695,651,653,652,652,651,651,655,699,698,694,698,651,653,697,699,696,650,696,652,697,699,652,655,696,697,652,697,650,654,695,697,697,655,698,655,695,698,699,699,654,655,
698,654,697,655,655,695,697,699,695,695,652,694,697,654,655,653,653,697,695,694,653,651,698,699,654,652,652,652,697,696,694,654,650,698,695,696,655,699,653,698,695,654,650,698,655,698,697,651,654,653,654,653,695,695,698,654,696,694,654,695,654,697,653,694,695,650,697,650,652,699,652,650,652,698,694,650,655,653,696,650,652,698,695,650,698,651,695,654,654,654,651,696,650,697,655,655,653,650,699,698,650,697,698,652,696,695,697,650,652,695,698,697,655,694,655,653,694,650,699,697,652,699,698,697,695,697,650,699,650,652,650,653,696,696,651,694,694,696,696,653,694,652,654,653,652,698,655,697,699,695,651,653,651,651,651,653,654,652,696,652,698,699,695,651,655,699,696,651,654,651,650,654,696,698,698,650,696,694,651,695,699,699,655,694,696,650,651,654,699,651,695,655,650,650,650,695,697,696,650,697,698,698,654,655,696,695,694,697,654,697,654,654,654,695,654,699,698,696,695,697,697,655,651,651,696,696,699,653,654,654,695,696,650,694,697,652,695,697,651,653,654,654,697,654,650,698,651,650,651,697,694,697,696,698,650,699,694,653,655,650,654,695,650,695,653,695,699,694,698,654,650,653,695,650,694,655,654,651,651,654,694,695,696,696,651,655,697,699,652,652,696,652,650,699,698,650,696,655,695,651,696,651,695,654,653,696,695,696,699,651,695,651,655,694,654,651,699,696,650,694,655,694,697,652,650,651,698,654,697,696,653,650,697,697,697,695,698,694,655,654,696,654,650,699,655,652,650,697,654,654,655,653,654,654,655,653,697,653,694,655,650,651,698,653,696,699,651,699,695,654,698,699,655,652,697,652,694,698,696,654,652,694,653,698,695,654,655,652,655,651,652,653,654,654,651,654,652,698,652,695,651,651,653,650,654,699,699,651,694,650,697,698,696,694,698,651,697,652,650,650,654,650,699,654,699,698,698,694,650,654,695,699,655,695,654,654,695,654,650,695,699,650,653,654,695,650,655,653,694,698,650,654,698,697,697,651,650,652,654,696,696,695,652,699,653,655,696,654,653,698,699,652,699,694,694,653,655,695,699,653,652,699,651,654,654,653,653,699,698,696,652,699,653,655,695,698,695,655,697,698,653,697,654,699,650,698,696,699,698,694,651,695,650,652,695,651,695,699,694,699,653,697,697,655,699,696,696,697,653,698,655,654,653,652,694,695,653,698,699,699,653,695,695,654,651,695,651,697,653,652,651,654,650,651,695,655,699,695,653,651,652,696,650,654,650,654,696,695,651,650,651,697,655,695,651,697,655,694,694,653,651,694,699,651,651,654,651,655,653,651,651,653,655,653,698,651,650,698,655,652,653,655,697,694,653,653,655,652,694,699,653,699,653,651,655,696,651,653,698,696,696,695,694,695,694,653,650,697,652,655,699,694,694,699,653,654,655,654,694,698,695,694,655,697,695,650,655,698,653,654,651,699,696,695,698,650,699,694,652,699,655,654,699,698,699,697,655,698,695,651,654,696,694,651,698,650,651,653,697,652,653,696,650,651,697,655,655,651,655,698,651,653,697,695,654,653,652,654,651,651,650,698,655,698,654,653,653,694,653,655,655,654,699,654,650,697,696,655,654,696,698,698,654,652,652,699,650,699,650,699,695,694,698,653,654,698,655,653,650,650,695,696,650,654,698,695,698,696,699,698,697,652,694,697,650,694,651,654,650,696,696,694,655,650,654,653,652,652,697,694,697,653,652,654,654,695,651,652,697,697,694,652,699,651,699,654,697,699,696,698,699,652,651,655,696,699,694,695,695,695,696,699,699,653,698,650,653,696,699,699,696,652,695,650,653,654,695,697,697,695,695,695,697,699,696,655,652,653,695,699,694,653,654,699,694,698,650,694,698,695,654,695,650,694,696,653,699,655,655,654,695,698,695,654,696,695,652,653,699,698,651,696,651,698,696,699,694,697,650,699,654,694,697,696,650,695,655,655,655,654,651,695,697,697,698,696,654,651,698,695,695,652,697,695,651,698,653,694,651,698,653,654,698,697,699,696,655,695,653,699,697,694,654,651,696,650,697,698,699,695,653,698,654,653,650,697,697,651,651,694,654,653,655,652,653,696,651,699,651,696,699,699,694,652,697,651,655,699,697,650,653,698,650,651,695,653,650,699,652,698,697,651,653,653,696,655,698,697,652,651,654,695,697,655,653,652,654,650,651,655,695,696,651,694,655,699,696,655,653,651,651,697,695,699,697,694,694,650,699,655,
655,652,697,694,698,652,696,694,694,697,699,651,696,696,694,695,698,696,696,651,650,651,694,653,697,695,652,695,653,654,694,695,697,695,697,696,654,698,699,699,655,698,698,698,655,650,654,696,652,650,695,653,698,653,650,694,655,650,695,655,654,655,699,650,696,651,698,650,699,696,695,655,695,695,652,650,694,695,694,696,699,695,694,652,655,695,694,694,698,694,695,651,655,650,650,697,697,654,695,654,655,698,696,698,696,652,651,697,699,696,696,653,651,652,697,650,651,653,699,651,650,654,654,652,694,654,698,652,699,654,650,697,697,696,654,698,653,655,694,655,698,653,699,650,653,699,650,650,651,651,695,652,697,699,699,697,650,696,651,699,695,699,654,650,696,655,698,652,652,655,655,651,695,698,698,650,653,654,653,652,655,696,695,696,696,698,694,655,653,699,653,699,651,653,694,697,654,651,652,699,697,694,697,650,655,697,699,651,652,650,695,653,699,694,694,655,699,694,651,696,652,696,698,695,698,653,695,698,651,696,694,699,696,695,695,654,652,695,699,652,694,698,650,653,698,695,699,699,651,698,651,694,698,699,696,652,654,654,698,653,696,699,655,694,651,650,698,650,699,652,697,696,653,695,654,654,652,654,654,650,653,655,654,650,651,696,694,695,653,694,650,695,654,654,694,655,654,655,652,654,654,695,698,699,698,653,694,655,695,651,696,695,696,698,694,697,652,699,655,650,651,696,696,655,654,655,654,696,651,697,695,650,697,699,694,694,699,652,653,694,695,697,699,651,696,652,653,654,698,650,654,650,696,655,650,655,698,654,695,651,654,652,697,653,697,696,655,651,699,697,653,653,694,695,694,652,654,694,697,654,695,651,655,694,655,695,650,651,695,698,695,653,694,694,699,655,697,652,655,653,655,697,650,698,694,696,653,696,697,699,653,655,699,694,698,651,698,650,694,698,695,699,694,655,698,699,698,652,650,695,652,697,696,696,696,653,654,698,697,699,650,697,698,698,695,695,695,652,655,651,697,654,653,695,699,655,654,652,651,695,652,651,699,695,699,652,695,696,652,694,655,695,654,696,654,695,696,655,699,696,655,699,697,650,698,653,655,697,651,651,694,653,695,697,698,697,651,695,695,653,654,694,697,651,650,697,652,653,697,696,651,695,653,652,697,694,652,695,651,695,652,654,653,652,694,695,694,653,695,652,655,653,654,650,696,651,655,653,655,655,652,654,654,698,697,650,699,696,695,696,655,697,696,694,695,695,655,694,653,655,698,697,651,655,654,652,699,650,653,654,698,651,653,698,650,650,653,697,697,655,654,694,654,694,699,655,654,650,697,696,655,697,652,652,652,653,650,650,651,696,697,651,698,696,695,653,652,694,653,653,652,653,694,651,651,655,698,694,652,652,653,699,697,698,650,697,652,694,653,652,653,695,655,651,699,651,654,650,698,697,697,697,694,650,699,650,695,699,699,696,698,654,696,655,695,698,697,651,696,695,695,654,698,653,695,699,696,652,653,653,650,694,698,697,652,697,698,650,699,651,697,655,695,696,699,655,653,699,694,699,695,651,653,651,650,655,696,697,695,653,698,694,698,694,651,652,696,650,651,652,652,696,695,698,650,651,651,694,655,699,695,654,651,696,698,699,655,650,652,696,650,699,696,652,698,694,654,652,696,697,694,697,654,654,652,655,699,697,697,694,654,699,651,698,699,694,651,653,654,654,650,653,653,651,653,655,652,653,699,655,655,651,694,652,696,699,695,651,698,652,654,653,650,695,698,650,653,695,653,694,651,651,695,697,699,697,652,699,650,652,699,696,653,696,699,652,650,699,699,696,654,655,698,650,699,651,651,654,655,651,653,654,653,699,653,696,698,651,694,652,697,699,651,697,699,653,652,650,694,651,651,654,654,655,695,651,655,695,694,698,651,694,695,697,698,698,653,653,651,697,697,694,650,698,651,651,655,651,697,652,655,699,652,699,653,653,651,695,653,695,699,650,695,695,654,654,655,653,653,652,650,696,654,651,653,651,695,651,699,695,696,652,653,651,650,696,655,650,698,652,650,650,654,654,696,694,698,650,694,651,696,655,695,653,696,650,694,694,650,695,655,695,653,654,653,694,697,694,697,699,698,698,694,652,697,698,699,655,694,697,699,652,699,698,699,654,652,654,694,650,651,696,698,650,654,699,652,651,655,654,695,696,694,698,697,699,698,653,651,655,650,699,654,698,655,654,696,699,698,650,697,698,696,699,650,696,697,651,651,653,
652,694,696,696,650,653,650,651,654,694,652,651,650,654,654,650,655,653,652,653,653,696,697,653,655,697,651,654,695,655,697,696,653,697,696,654,694,697,655,655,695,699,651,694,697,697,694,695,654,654,698,699,696,697,698,697,652,698,697,650,652,696,654,651,697,697,652,694,697,698,694,697,699,651,654,694,698,698,697,696,695,652,650,651,695,651,650,694,696,652,653,650,696,699,698,654,694,650,696,651,696,698,651,651,696,650,654,694,653,696,699,698,699,655,697,697,694,650,696,694,697,650,699,696,698,651,653,651,699,695,699,650,650,697,652,655,695,699,654,650,699,653,652,654,654,698,696,696,696,651,697,652,695,695,696,696,654,695,653,697,654,697,698,650,695,698,652,655,654,653,696,653,653,697,653,653,696,695,695,694,655,696,699,697,696,695,654,694,695,695,699,654,651,695,653,653,652,652,694,698,694,655,699,697,650,698,698,696,697,650,699,650,651,651,696,651,651,652,696,650,694,650,694,651,653,655,651,697,655,695,652,695,650,697,653,652,651,698,653,651,650,698,654,652,653,654,695,696,651,653,652,654,652,655,697,699,651,696,651,697,694,696,652,651,653,651,653,697,699,695,699,655,655,697,651,652,651,651,652,652,651,698,650,697,698,651,651,650,698,655,696,655,652,695,695,694,694,695,650,698,653,654,696,694,698,654,650,653,699,697,697,652,653,655,652,653,655,699,652,698,651,652,697,699,699,695,696,655,654,694,655,696,697,653,655,695,654,654,698,652,653,655,651,695,698,697,651,697,654,654,698,652,698,652,695,650,697,654,698,653,696,655,654,695,653,695,652,654,655,652,653,698,698,650,694,653,696,697,698,695,655,653,699,697,694,699,654,697,698,652,694,699,653,654,695,696,654,652,694,696,655,653,650,697,697,650,694,698,698,699,653,694,695,697,696,698,698,697,695,651,696,698,655,653,696,651,694,696,694,653,654,698,699,697,695,650,655,653,651,697,696,698,650,696,695,650,694,697,694,694,698,653,694,651,655,655,652,694,652,699,650,653,697,652,651,650,695,655,698,655,698,695,655,695,654,654,652,698,699,650,652,651,695,652,698,653,694,698,694,698,652,650,655,699,652,694,652,698,696,655,698,650,654,698,650,698,698,697,652,698,650,650,694,694,650,696,696,698,694,651,650,653,695,650,654,694,650,654,694,699,652,694,697,695,655,698,653,653,696,650,697,654,694,651,652,653,653,654,650,653,653,695,694,651,651,699,651,695,695,654,651,654,697,694,651,650,650,696,654,651,695,652,696,651,699,654,652,699,698,655,699,694,698,695,652,651,654,695,698,653,698,698,655,696,652,694,697,696,696,651,698,655,697,695,654,696,695,654,694,651,695,695,696,650,694,699,650,655,697,694,650,655,651,696,699,694,652,698,655,694,699,698,697,696,695,694,650,695,650,694,650,695,699,694,655,653,654,650,697,699,650,655,654,653,698,695,698,698,695,655,654,698,698,694,655,697,652,699,652,650,650,699,655,694,698,654,650,655,652,699,696,695,694,655,652,653,655,697,696,655,694,654,655,651,651,655,653,650,655,652,695,699,695,655,654,652,698,697,694,698,696,652,653,695,696,654,650,651,695,696,650,653,696,650,653,698,695,697,655,695,696,652,698,653,699,651,699,698,650,654,696,695,655,699,696,696,652,652,698,696,698,699,699,696,694,650,654,695,655,652,699,695,697,651,697,652,655,650,698,652,651,694,698,695,698,695,695,655,650,696,652,694,653,655,650,653,655,699,696,695,696,697,652,696,651,650,655,650,651,654,655,698,652,698,698,654,694,654,654,655,652,651,655,655,699,695,652,699,697,697,698,651,651,698,651,694,699,655,697,694,696,697,696,699,651,651,653,651,694,695,698,698,655,650,697,694,695,696,699,699,653,696,697,699,653,653,698,699,654,695,698,654,698,698,696,699,695,654,652,698,696,699,699,654,697,698,652,652,651,697,699,695,699,699,698,698,697,655,695,652,696,653,697,650,699,695,695,650,699,694,653,651,694,653,651,696,697,694,696,655,699,652,694,694,695,652,654,699,697,653,696,655,698,651,699,699,695,699,697,698,697,652,651,694,650,694,650,652,695,697,653,696,694,654,699,699,654,655,653,654,695,654,653,650,694,697,697,654,653,651,696,651,655,651,696,654,655,650,654,698,694,654,694,652,697,699,694,696,655,699,650,695,695,651,694,698,652,699,694,694,696,652,697,695,651,698,651,697,695,695,
694,650,699,651,651,695,698,697,653,651,654,650,653,699,652,694,694,652,698,653,694,651,651,695,697,653,698,698,697,652,652,653,651,697,694,655,653,655,696,699,697,695,696,654,655,698,652,697,697,653,655,654,698,654,694,695,654,653,653,652,695,655,696,655,699,651,654,650,653,698,697,695,699,694,654,650,651,651,698,699,653,653,653,654,695,654,650,695,651,655,652,653,698,654,698,655,655,699,653,696,694,699,694,653,694,699,697,694,651,699,652,699,651,695,695,652,695,652,697,694,654,699,655,698,694,651,651,650,652,696,696,697,653,653,654,655,652,697,699,652,651,654,696,699,699,655,650,655,655,655,694,650,655,694,699,654,698,652,694,698,699,695,655,654,694,655,654,696,697,655,653,696,654,653,655,651,696,653,652,655,698,697,654,652,651,694,653,650,650,654,696,652,694,696,653,699,696,652,655,695,695,695,650,698,653,655,694,654,651,650,698,650,695,696,694,696,650,655,652,697,698,695,699,698,651,699,655,653,699,653,653,651,650,694,655,653,698,698,651,697,653,694,699,697,654,651,698,698,655,650,650,696,653,697,652,652,652,655,699,699,654,653,651,694,654,652,655,696,655,696,698,698,694,695,694,655,694,698,695,694,654,651,695,650,655,650,654,695,651,696,650,696,698,696,651,698,696,650,655,651,698,651,654,697,697,653,651,695,699,697,696,699,654,655,695,696,698,650,655,654,650,697,699,694,695,650,654,652,652,699,654,699,651,651,652,697,695,694,650,695,651,697,650,650,655,650,652,650,652,694,697,699,698,698,698,696,696,696,699,696,697,699,655,650,652,655,653,651,698,653,698,655,653,653,651,654,653,652,651,694,651,654,650,651,655,652,699,697,696,695,652,652,654,698,655,650,652,650,653,650,650,653,696,653,697,695,654,655,654,652,651,699,696,655,699,651,652,695,695,655,697,650,650,699,654,652,697,696,696,653,697,653,652,695,654,697,696,698,653,653,655,652,697,652,650,652,650,654,696,651,655,694,654,698,650,651,694,651,697,650,651,698,696,651,654,651,699,694,651,697,695,695,655,695,695,699,699,653,697,650,655,655,699,655,694,654,655,654,697,651,696,699,653,650,698,651,696,653,696,654,651,696,655,696,699,654,655,654,695,697,652,697,650,699,652,654,652,698,697,651,652,695,695,652,651,652,650,650,653,654,654,699,655,651,698,654,694,697,653,694,655,696,694,699,650,650,653,654,698,654,698,654,699,694,695,698,655,650,650,699,654,699,652,696,699,694,655,698,699,650,694,698,695,653,651,699,694,696,696,655,697,655,697,698,650,651,652,655,694,694,696,653,655,650,696,650,651,696,651,655,694,650,698,696,696,699,653,653,655,697,651,697,653,697,653,650,654,697,699,695,651,652,651,695,654,655,696,652,654,698,650,699,695,698,695,651,695,654,697,696,652,651,697,650,652,655,698,699,694,652,695,650,650,650,697,696,699,650,654,695,699,694,697,698,654,696,653,698,655,652,695,654,696,653,652,653,653,697,694,653,698,699,698,696,654,699,655,696,652,695,655,655,652,651,653,650,695,651,695,696,650,697,655,696,653,655,697,653,650,695,654,650,652,699,651,695,654,653,650,654,652,694,695,650,654,696,696,654,696,654,698,697,696,654,653,654,696,650,650,695,651,651,655,694,650,650,654,697,694,654,650,654,653,694,652,653,651,696,695,695,651,699,694,651,650,698,651,655,652,697,654,651,655,698,654,651,652,699,654,699,651,654,697,699,697,652,699,652,696,653,652,698,697,695,695,654,653,697,651,654,699,697,698,697,697,696,696,699,653,694,698,654,694,654,698,695,653,697,652,651,696,655,699,655,651,696,650,694,694,697,695,655,696,699,697,697,698,652,697,651,695,698,694,651,652,650,698,650,655,652,655,653,696,652,654,695,698,695,696,699,697,698,697,697,651,654,651,697,652,696,698,696,655,696,698,654,655,694,697,653,650,655,696,698,697,653,698,653,650,653,696,695,698,652,696,653,654,699,655,651,697,695,654,699,695,697,697,697,698,698,697,695,699,652,694,655,695,654,654,653,698,651,655,694,653,654,698,696,697,651,696,698,695,694,696,655,699,695,655,697,698,651,652,650,694,655,651,655,698,694,653,695,651,697,699,696,697,694,653,652,651,699,697,697,653,697,699,650,694,650,653,651,652,654,695,697,699,650,653,699,695,696,651,653,652,651,654,655,694,698,651,697,699,652,652,653,650,653,654,650,
699,652,652,695,694,653,698,695,695,650,695,694,652,694,653,697,699,695,697,696,699,650,694,652,650,654,698,696,695,698,655,651,697,697,698,654,654,652,650,697,651,651,698,652,697,655,654,651,694,653,655,650,697,696,655,650,651,694,650,698,654,696,654,651,699,652,699,695,696,695,694,654,651,697,698,652,655,650,696,650,695,650,695,698,653,654,694,697,695,695,696,652,697,650,652,697,652,653,694,650,694,696,655,654,650,652,696,655,695,652,699,654,698,654,695,697,699,651,699,696,698,652,652,698,655,696,651,651,654,698,699,697,654,654,694,651,697,694,699,696,698,653,651,654,650,651,695,651,695,699,655,653,652,653,652,696,696,654,695,697,697,650,699,652,651,655,655,651,654,695,651,655,697,652,695,698,694,695,694,696,652,699,653,699,699,698,696,696,653,650,651,695,698,653,698,697,694,698,694,655,654,651,694,698,696,650,651,699,650,654,652,650,652,655,652,653,697,695,652,651,650,695,699,698,652,653,655,652,699,654,650,695,650,655,696,653,655,652,694,650,699,694,655,694,653,650,695,655,655,697,654,652,654,699,650,697,695,697,695,699,654,653,694,694,652,696,697,654,695,651,650,694,652,698,651,699,694,698,654,655,654,655,694,655,655,653,651,699,698,650,697,651,698,654,650,654,652,696,651,654,696,655,694,651,652,698,655,696,696,695,699,695,694,699,653,652,697,652,655,650,653,651,650,698,651,694,694,652,698,653,651,655,696,698,654,694,654,651,695,696,698,699,699,699,653,655,697,655,699,655,696,696,697,654,698,652,653,698,654,696,694,650,698,694,652,696,651,652,697,650,651,651,651,652,695,696,651,655,699,650,696,650,694,654,696,652,699,698,695,699,697,695,699,697,650,694,651,655,694,696,655,653,694,699,651,694,654,651,650,650,655,654,696,655,695,696,655,698,696,650,653,699,698,651,651,697,694,697,695,652,695,654,652,651,655,697,651,694,697,654,653,699,699,653,694,655,696,653,695,653,698,694,653,655,655,694,655,699,651,650,654,654,651,695,652,655,655,655,698,696,694,650,651,655,695,651,655,695,698,699,650,655,696,696,651,697,652,694,655,696,650,699,650,694,653,652,696,655,652,697,694,650,653,650,652,652,699,654,654,696,655,655,651,697,695,650,651,655,698,655,654,699,699,699,653,699,697,695,696,694,695,654,699,699,651,694,697,699,653,696,695,696,650,695,650,695,695,694,695,697,655,697,694,650,651,650,694,698,699,650,651,650,695,696,695,699,695,695,695,654,698,652,651,650,655,653,653,654,694,698,697,698,694,694,655,696,698,654,695,651,694,650,694,654,650,696,698,654,695,651,653,695,696,694,655,694,653,651,697,694,654,698,697,651,694,694,698,699,694,699,655,650,652,652,650,695,655,698,697,652,654,650,695,650,694,696,651,650,653,650,694,652,650,655,699,654,695,654,696,696,699,695,697,695,650,650,694,697,698,699,651,695,654,653,655,698,654,653,655,652,694,698,698,699,697,696,654,696,651,655,654,695,654,695,655,655,694,699,695,653,654,697,650,655,652,697,695,654,695,652,694,695,652,653,653,655,698,695,654,650,652,650,651,653,694,652,653,654,699,699,694,653,696,655,653,651,695,698,695,653,651,695,694,652,697,653,654,695,651,652,694,699,650,698,655,699,654,696,651,699,694,699,697,699,694,650,650,699,654,655,655,652,651,652,652,652,694,695,650,695,698,695,653,694,697,655,695,652,651,654,653,695,651,650,699,650,694,653,694,694,696,655,697,696,650,654,695,650,652,650,696,655,653,652,697,652,655,652,655,655,651,655,651,697,697,695,650,694,699,655,697,655,651,694,652,654,698,694,650,654,655,650,698,696,696,653,654,651,652,697,694,652,655,654,696,651,654,650,695,698,652,655,694,651,655,694,695,696,695,655,695,695,694,653,652,654,651,653,653,695,698,650,694,654,695,698,654,655,651,651,650,696,697,699,652,655,651,651,653,652,650,695,655,650,653,654,696,699,695,654,696,654,696,653,650,696,694,655,654,654,698,698,696,697,698,654,699,651,694,697,699,698,654,698,652,696,655,695,652,655,650,654,651,651,699,697,653,699,653,696,652,653,654,650,697,654,697,698,655,655,694,695,697,652,699,698,655,653,696,651,695,695,653,653,697,650,652,694,655,698,650,694,652,697,650,652,655,652,697,650,652,698,695,698,694,652,697,655,655,695,696,651,655,653,694,696,698,696,653,652,
697,699,652,654,655,694,695,697,699,652,698,654,653,651,651,699,696,699,698,650,653,652,698,696,651,699,653,694,650,699,698,651,650,697,695,652,654,694,695,652,695,696,650,652,654,652,699,699,654,696,694,694,698,694,653,654,698,694,653,699,650,654,654,695,695,653,695,651,699,694,652,695,651,651,654,699,694,652,697,698,698,651,694,655,696,651,698,650,653,654,698,651,650,652,652,652,694,699,654,653,699,696,694,699,696,650,697,652,655,696,698,699,653,698,697,696,694,695,655,694,694,694,698,655,655,695,698,697,651,652,652,651,653,698,652,699,696,696,695,655,698,695,654,698,694,651,650,650,694,699,654,697,652,699,695,655,696,696,651,695,655,651,652,650,694,698,696,696,651,699,694,699,653,651,655,655,655,694,698,654,695,694,695,650,698,697,654,652,697,699,696,650,695,654,653,695,696,653,651,653,694,698,655,695,696,697,698,652,697,698,699,655,694,654,655,653,694,699,651,651,697,653,699,698,653,695,697,695,652,651,694,654,699,655,696,698,650,653,650,695,650,653,651,696,696,651,697,655,653,697,695,697,694,653,654,655,698,696,697,653,698,695,652,695,697,698,699,695,652,696,654,696,699,694,697,699,650,655,650,654,696,695,696,651,655,699,653,652,651,655,696,699,699,655,699,654,699,699,654,697,699,652,699,655,650,697,650,696,696,655,650,699,695,698,653,650,695,697,654,697,653,651,694,695,654,654,697,699,697,694,694,652,652,698,696,697,697,694,653,696,655,654,650,694,694,694,698,696,698,697,695,696,695,697,697,652,650,654,698,697,698,655,654,699,654,694,698,655,655,655,694,654,652,651,698,652,650,694,652,654,653,698,696,653,654,653,651,655,694,694,695,653,698,651,654,650,650,650,655,650,696,695,695,695,699,698,696,653,654,651,650,694,652,655,697,654,696,655,650,655,699,652,654,653,655,696,699,697,698,655,653,698,652,698,653,652,697,650,653,655,651,652,652,695,694,650,655,651,653,694,699,655,696,650,698,655,699,651,698,651,696,653,698,697,699,653,698,694,654,650,699,695,655,696,655,654,655,650,653,697,654,654,650,698,650,697,651,655,653,650,697,694,655,653,699,653,699,653,695,697,699,650,697,699,694,654,654,652,696,697,655,699,650,695,699,652,652,654,652,696,699,650,698,694,696,697,653,653,699,694,651,697,651,695,653,699,652,652,653,653,654,654,694,695,652,694,697,695,695,650,697,699,653,697,653,697,698,698,650,652,699,699,694,650,655,653,697,651,652,650,695,694,699,650,694,695,650,698,655,698,694,696,696,699,695,653,655,694,651,650,698,695,655,699,699,694,695,694,655,697,699,698,696,697,698,698,655,651,654,697,652,694,651,695,695,696,699,652,696,698,650,699,696,652,698,697,697,651,651,655,653,695,696,650,698,655,699,695,697,695,699,650,655,650,696,651,655,699,695,694,652,696,651,652,652,655,650,696,694,698,651,654,654,699,655,695,698,653,652,697,655,697,650,654,697,654,650,696,695,694,653,697,697,697,652,696,651,695,654,698,653,655,694,697,655,653,697,695,697,651,654,699,698,654,654,698,699,652,697,654,698,650,654,652,655,697,654,697,655,695,652,654,653,654,654,696,695,653,697,655,699,653,653,696,699,698,655,652,699,698,651,651,653,696,655,650,651,697,650,650,650,695,694,652,694,695,696,652,694,653,697,697,699,652,652,699,651,696,696,654,651,655,694,694,651,695,654,699,650,653,697,699,655,652,694,653,651,699,650,652,650,699,699,698,696,650,697,652,650,694,655,651,694,697,699,653,695,697,694,697,697,652,699,699,652,696,655,695,652,698,699,650,654,696,697,654,654,650,651,653,694,698,655,655,652,651,696,698,697,654,651,650,652,695,695,653,698,651,694,699,654,652,652,654,698,695,650,695,654,651,652,654,695,655,698,652,699,652,654,654,694,694,653,696,651,654,698,654,698,653,697,653,654,697,652,654,651,696,652,652,697,695,655,652,653,653,699,652,655,651,697,694,696,655,696,654,697,696,653,697,654,698,697,655,653,653,651,694,694,697,696,696,650,694,655,699,651,696,652,655,654,698,652,694,654,695,652,696,696,697,698,652,650,651,695,652,699,698,653,654,655,652,655,653,651,698,697,651,652,695,699,654,696,694,653,653,696,653,698,698,695,699,653,651,651,699,695,698,651,694,697,650,653,653,698,655,698,696,695,698,696,655,652,694,695,651,697,698,650,651,
699,699,652,699,650,698,652,696,652,695,655,696,694,695,650,655,651,699,651,696,695,696,650,695,699,651,655,655,698,699,654,695,655,699,653,694,651,652,650,699,695,696,650,653,654,654,694,694,653,655,698,699,655,698,698,650,694,698,695,698,650,652,650,655,650,694,694,655,698,653,654,694,695,698,650,698,653,653,652,652,696,651,695,654,655,697,695,652,699,698,650,654,652,654,654,654,654,697,697,695,697,699,654,650,655,655,696,695,651,696,699,696,654,650,694,696,651,653,654,650,652,652,696,655,697,654,653,699,655,651,698,697,650,697,650,652,698,654,698,653,699,696,697,694,696,654,653,654,698,699,696,655,696,694,650,697,694,695,651,653,699,654,653,694,699,699,694,695,699,698,651,696,694,652,655,696,650,653,697,698,651,651,694,697,699,651,697,697,650,652,653,695,697,697,695,652,697,652,698,695,655,697,654,696,698,695,694,653,653,654,650,694,654,695,694,653,654,652,697,694,698,652,698,695,655,697,650,651,650,654,699,698,655,653,696,654,653,696,699,696,655,696,650,698,655,695,651,694,698,654,695,695,653,698,695,694,696,655,655,652,653,696,650,652,655,694,652,652,650,697,694,697,699,696,697,695,697,652,651,696,699,653,694,654,694,695,655,699,654,698,650,655,695,696,694,652,694,655,651,651,698,652,696,694,698,651,650,652,694,651,654,655,697,697,697,695,694,695,653,654,655,650,698,651,651,651,695,697,653,695,653,697,699,650,651,653,650,650,694,698,696,697,697,655,655,697,695,694,698,699,695,698,651,653,696,694,696,653,652,697,699,653,654,694,694,695,655,695,655,695,697,696,653,699,654,699,697,655,696,697,653,695,653,696,696,696,651,695,699,695,655,654,653,651,697,655,695,650,695,653,652,698,697,698,698,650,655,655,655,652,694,653,699,699,699,694,654,698,698,651,653,650,651,698,694,653,697,650,650,698,695,652,653,696,650,653,699,650,698,696,694,699,650,652,652,697,655,655,695,699,652,654,654,696,694,652,654,650,651,652,696,650,694,654,698,655,655,697,654,652,695,652,653,653,698,695,698,699,655,655,654,696,650,696,698,698,650,696,696,697,698,652,698,651,652,697,650,653,699,696,650,699,651,696,695,694,651,694,697,655,698,654,699,699,652,698,699,696,650,695,652,699,653,695,651,655,652,694,651,652,695,699,653,694,650,651,654,698,650,654,653,694,698,696,655,698,698,695,651,695,655,654,650,694,696,696,696,697,694,653,697,697,694,694,652,698,650,654,651,696,653,651,651,650,650,697,652,654,650,650,696,655,699,650,695,697,698,655,650,655,654,655,694,697,655,652,651,696,650,695,651,697,699,694,696,650,698,652,650,699,696,697,695,696,654,698,651,698,650,698,696,697,652,655,654,695,655,698,650,653,652,696,694,695,697,650,699,653,650,699,650,695,653,695,696,651,694,654,698,650,652,655,655,698,651,652,696,653,650,698,695,651,653,697,651,652,654,650,654,699,697,655,698,695,698,695,697,652,699,694,694,699,696,696,654,697,653,655,697,697,655,653,651,654,654,696,697,653,650,653,652,652,654,699,698,652,697,699,655,652,697,653,655,653,695,651,653,696,694,694,694,694,652,654,653,698,699,652,698,654,696,697,655,651,696,695,699,650,695,654,650,697,699,655,652,699,650,652,694,698,696,654,699,696,699,694,698,651,652,655,653,694,653,654,696,695,652,652,655,694,699,699,695,699,652,650,654,696,654,699,650,694,695,651,650,699,694,697,699,698,694,653,655,650,698,650,698,654,698,699,694,650,696,695,694,651,654,650,694,653,697,699,651,698,655,654,654,696,654,696,694,699,698,652,696,651,698,652,699,697,694,698,698,655,651,652,695,653,696,654,652,651,696,652,694,655,653,695,654,651,695,694,655,697,695,697,651,653,696,695,694,694,697,695,654,696,650,654,654,651,696,696,655,698,698,694,655,652,651,694,694,652,652,654,698,653,696,695,694,652,696,698,695,696,653,652,696,697,699,697,654,655,695,698,695,694,697,699,694,694,697,694,650,654,651,699,652,696,650,653,698,652,654,698,694,650,654,699,654,698,697,654,696,653,699,651,654,698,697,696,697,651,650,651,695,695,655,655,695,697,652,699,695,694,696,654,651,697,652,653,698,650,698,694,694,697,650,652,697,652,694,650,652,653,696,653,650,696,650,655,654,651,654,652,694,698,694,694,695,654,699,695,650,655,696,650,652,654,694,696,
652,697,695,650,699,696,697,650,697,651,695,651,654,654,699,651,650,651,697,654,696,698,699,651,696,697,694,655,696,696,652,698,652,653,696,699,653,654,654,697,651,696,694,695,654,698,697,655,694,698,651,697,697,650,695,652,650,653,698,653,699,652,694,651,650,695,653,697,653,695,651,650,652,696,697,698,699,698,694,655,694,695,697,653,652,650,654,694,699,651,697,695,654,652,695,699,696,695,694,699,696,695,655,652,699,654,652,655,654,697,655,696,694,654,650,653,652,653,699,650,650,654,654,655,651,652,655,655,699,699,655,699,699,650,697,698,696,696,698,653,654,654,650,652,650,697,654,694,651,699,653,698,653,654,652,654,696,694,698,653,696,651,699,699,695,653,651,698,654,651,695,699,696,694,695,697,655,652,653,696,696,651,655,651,696,654,696,651,654,654,650,695,653,652,650,650,695,652,650,699,694,650,698,652,697,650,695,698,650,650,699,653,652,655,655,651,654,650,694,653,697,698,694,699,698,651,696,694,698,699,651,697,655,653,650,697,697,653,698,650,654,697,652,696,696,695,699,654,699,653,651,696,650,652,696,696,655,694,697,654,655,650,699,695,694,698,698,654,699,652,695,654,698,698,698,650,650,699,651,697,650,698,650,655,699,696,651,699,654,696,697,697,694,653,651,697,694,697,655,650,697,654,650,694,651,699,650,654,655,699,655,698,699,655,696,650,655,653,698,653,694,699,653,655,655,651,655,650,655,650,652,699,695,697,694,695,698,654,696,655,694,652,696,654,651,695,694,653,695,698,655,651,653,654,698,655,699,652,651,698,653,696,694,699,698,650,699,695,650,651,652,695,694,696,696,650,652,696,654,694,650,655,652,654,697,650,698,696,653,655,655,695,698,651,699,699,698,699,695,699,652,653,699,695,695,697,695,697,697,652,655,650,655,698,653,655,695,695,651,697,655,654,651,698,694,699,652,694,650,655,696,650,695,652,655,654,652,698,698,694,653,694,695,650,696,699,650,695,650,651,652,652,652,654,695,697,653,699,655,655,695,653,650,696,694,655,651,655,694,699,652,654,652,694,654,650,655,697,699,694,655,699,655,696,653,652,696,655,654,650,697,655,696,698,697,650,653,655,696,698,699,699,695,651,650,698,655,654,654,697,698,652,650,694,694,650,655,695,699,651,653,699,654,699,698,653,695,697,695,650,695,653,654,655,655,698,694,695,697,695,695,652,694,651,696,654,694,652,694,698,698,698,695,652,696,697,655,650,654,698,654,694,696,695,698,695,655,699,699,694,651,650,654,652,696,655,699,655,697,654,655,697,655,696,697,653,699,696,651,651,698,696,696,696,694,655,699,699,698,699,699,652,699,655,652,699,650,654,651,652,695,650,654,651,651,698,653,655,655,695,655,695,650,694,651,652,695,651,654,651,650,695,695,655,650,654,699,697,652,653,697,650,698,654,699,699,653,696,655,650,650,655,653,699,650,698,695,695,694,695,699,654,698,653,653,699,695,651,695,695,653,699,698,695,650,699,694,653,696,650,653,655,695,652,697,655,651,653,653,699,698,696,650,651,653,699,695,655,652,695,652,652,697,696,650,696,652,698,650,652,698,694,699,655,652,697,694,697,650,699,652,654,695,695,698,699,651,651,695,696,651,654,699,697,652,696,698,694,699,654,655,698,650,695,650,696,654,698,655,651,699,653,652,652,695,699,651,654,652,653,650,695,650,651,651,650,655,652,650,696,697,655,655,697,694,653,650,698,694,699,694,655,695,698,651,652,698,694,653,653,654,694,653,651,655,695,695,654,694,652,699,654,652,697,654,699,655,697,695,655,695,651,699,653,654,653,653,694,699,654,653,694,697,694,697,651,650,698,650,698,654,655,699,699,651,694,696,651,695,652,654,698,655,653,653,653,696,652,694,652,698,699,654,655,653,652,652,699,653,654,653,694,651,653,652,699,650,650,655,655,695,651,653,699,695,650,651,653,694,650,652,651,655,696,694,697,695,699,650,699,699,654,695,694,699,695,653,654,697,697,655,655,654,697,652,699,652,655,655,696,655,651,653,652,699,653,694,655,652,699,651,655,651,655,697,694,654,694,654,697,653,694,651,697,696,698,698,654,655,652,697,697,699,651,654,654,653,653,697,650,655,696,695,650,651,651,654,654,696,653,651,654,652,652,652,696,651,697,696,699,698,699,653,694,699,654,653,698,699,655,694,650,699,652,696,697,699,696,697,653,654,696,653,650,653,652,694,654,652,650,
696,653,650,651,655,651,699,652,654,653,654,696,650,695,697,652,699,698,697,695,697,699,655,651,655,694,699,650,653,652,699,695,694,695,695,654,694,697,698,654,651,653,697,696,650,650,651,695,699,655,697,698,698,698,695,651,652,654,654,653,655,699,694,650,651,650,698,653,654,694,694,650,650,652,655,652,695,652,651,650,654,655,655,653,694,699,651,652,654,655,697,696,699,650,654,653,698,699,650,654,654,652,694,699,653,654,654,694,697,655,694,696,651,698,654,695,696,697,698,694,653,695,695,651,651,694,697,698,698,697,694,655,654,694,694,653,695,650,699,697,655,697,697,697,695,655,654,694,699,650,699,653,654,695,652,698,653,655,696,694,695,652,695,695,698,652,653,696,654,694,699,650,699,653,654,697,651,651,650,650,699,653,654,655,655,653,655,654,694,699,696,694,653,655,699,650,698,697,650,694,651,654,654,655,654,696,695,654,694,694,655,652,655,697,653,650,654,655,652,695,654,653,652,650,654,650,651,650,651,653,650,694,651,695,698,650,695,695,695,696,654,652,650,652,695,650,652,654,697,695,699,697,697,655,694,697,697,651,698,695,697,655,651,651,698,650,699,698,650,699,654,652,694,654,695,696,695,695,694,696,650,650,652,655,694,698,698,652,650,650,650,694,653,655,655,696,699,654,650,698,699,651,650,651,699,650,696,698,696,699,651,655,651,696,652,650,696,695,697,698,697,699,651,699,694,696,651,652,696,696,655,696,696,655,650,653,695,699,654,698,699,655,698,699,698,697,652,650,653,652,655,651,695,694,699,695,694,650,694,651,696,699,695,653,653,654,694,697,697,654,654,655,696,653,653,655,694,652,696,695,653,652,655,654,651,651,654,652,695,695,655,696,650,655,696,655,653,694,694,652,695,695,699,654,696,653,697,698,697,697,651,651,650,655,699,654,655,695,650,651,696,696,696,694,652,654,695,654,651,653,697,696,697,699,652,698,698,698,696,652,653,651,653,698,654,650,652,699,654,695,651,699,696,695,698,653,697,651,650,655,654,698,655,697,653,694,695,694,652,698,654,699,697,653,651,699,697,654,696,696,652,652,695,694,699,698,652,655,698,654,654,652,652,694,695,650,694,697,698,655,650,655,653,694,651,651,655,696,695,652,694,698,650,699,698,699,695,696,695,655,699,695,650,651,654,655,696,652,696,653,699,697,696,696,654,651,652,698,695,653,697,654,697,650,650,698,697,655,652,655,698,698,699,698,697,695,654,652,699,698,699,698,695,698,699,698,695,694,695,698,655,694,697,697,697,699,698,650,654,651,699,696,694,698,699,696,699,655,697,652,696,653,698,655,651,651,699,653,655,695,654,653,654,699,697,699,651,653,652,695,699,699,699,651,694,651,652,696,695,699,696,699,652,650,696,696,651,694,698,698,695,696,695,694,694,655,652,653,694,655,695,653,652,694,652,696,699,699,695,696,694,698,654,699,694,653,694,696,694,651,653,697,651,653,694,653,698,698,655,652,695,699,695,651,650,650,651,652,698,695,653,650,696,698,697,695,652,651,652,695,654,653,696,651,695,696,650,696,695,651,698,694,651,697,699,653,651,650,651,698,698,695,699,652,695,650,650,653,654,655,696,654,698,699,653,654,650,699,650,694,650,695,653,697,653,694,652,698,655,652,650,650,653,653,650,697,653,652,655,651,697,652,651,698,696,651,651,694,650,654,650,655,699,697,654,696,696,696,698,654,697,699,698,694,652,698,654,696,650,651,651,694,651,695,650,699,696,653,694,655,697,697,654,655,695,698,697,698,696,694,651,654,699,651,654,654,651,650,653,655,653,697,653,650,694,695,695,698,654,698,694,652,696,653,651,699,654,652,652,696,655,694,652,699,695,695,652,697,650,697,650,653,651,699,652,655,653,653,652,655,695,651,651,654,697,694,699,695,696,655,699,650,653,654,651,699,696,698,652,655,698,653,696,694,652,698,654,650,699,696,650,695,699,650,650,697,651,651,651,653,698,695,651,697,695,699,652,695,653,696,698,695,650,655,652,652,650,655,698,655,655,694,696,698,699,698,652,694,696,651,650,697,650,651,652,694,697,650,696,650,694,651,655,696,699,651,697,697,697,697,697,652,655,655,651,694,695,655,655,652,652,655,651,651,655,653,699,694,650,695,694,694,694,650,651,695,652,696,697,651,696,698,697,653,699,695,698,699,652,694,699,655,697,695,698,698,697,655,652,696,697,696,655,651,655,694,654,654,699,653,
653,654,653,654,697,651,696,696,650,697,655,650,652,695,698,699,694,695,697,695,650,650,694,694,650,655,698,696,650,653,650,698,694,694,652,655,654,696,655,699,651,696,651,695,694,650,697,694,650,696,695,698,653,694,654,698,651,696,655,695,696,652,653,694,654,698,655,654,694,652,650,651,650,694,654,652,696,695,653,698,654,655,652,655,651,655,699,655,697,651,650,699,697,652,695,694,655,694,699,653,651,653,654,694,698,651,698,695,696,651,653,651,654,695,698,655,654,694,696,650,655,651,699,696,694,699,696,698,655,655,653,653,650,655,650,652,650,650,654,651,699,653,651,654,654,697,655,699,695,650,651,696,652,650,655,696,695,655,653,652,694,652,651,695,652,655,652,654,650,652,655,698,696,653,697,653,654,696,651,651,697,650,699,694,654,696,696,698,655,653,698,655,652,653,698,695,697,653,653,695,654,655,696,698,695,651,695,653,696,652,651,651,695,694,654,653,694,698,699,698,694,694,696,654,696,654,695,694,697,651,652,699,696,653,696,653,652,696,655,654,698,654,650,698,694,697,655,653,694,654,694,654,652,650,696,653,652,653,651,696,699,698,694,694,697,655,699,652,699,654,696,698,654,653,694,699,654,699,654,694,694,650,653,652,695,652,655,651,650,655,696,695,654,655,699,698,651,695,651,652,653,653,655,697,652,699,651,652,655,652,653,696,699,650,699,696,654,651,650,697,697,696,698,697,654,653,699,695,697,698,651,655,697,695,655,695,694,654,655,653,652,694,698,696,651,696,696,652,650,697,699,653,699,651,698,655,650,697,652,654,696,653,650,653,654,696,652,650,699,651,698,651,654,695,694,696,653,654,694,652,651,651,651,650,699,699,652,652,697,652,697,699,654,655,654,654,699,699,651,655,654,655,653,655,694,696,655,650,653,652,697,651,697,698,698,655,653,694,650,699,651,651,655,697,650,653,699,654,695,653,695,651,699,652,699,653,694,650,698,652,651,655,697,651,696,695,652,655,653,698,694,697,654,696,651,654,650,694,696,696,650,655,650,698,698,698,695,698,695,698,655,699,653,699,695,650,654,694,652,655,696,699,653,654,653,698,653,654,651,694,694,654,655,654,694,697,652,696,699,654,695,652,699,697,697,653,655,653,699,695,653,697,650,650,694,651,698,654,694,694,696,697,694,697,654,696,652,697,650,694,654,699,650,654,698,698,697,653,650,696,651,655,697,696,697,698,696,699,696,694,652,698,651,651,695,696,694,694,698,653,695,698,699,650,652,654,654,698,653,653,698,651,695,698,652,696,695,697,652,651,695,695,698,651,698,650,695,653,655,697,695,654,650,699,655,650,655,699,698,654,655,694,697,697,653,653,696,655,694,654,699,698,655,651,651,653,654,698,650,697,653,696,653,652,695,699,696,654,694,694,652,653,654,697,650,697,698,651,694,650,651,695,650,652,655,694,650,650,653,695,652,694,696,653,698,697,698,650,653,650,650,695,698,654,650,698,698,651,698,651,655,696,654,653,652,651,655,654,697,651,655,651,650,695,698,654,654,650,655,694,652,699,695,655,698,655,653,694,652,699,652,697,651,698,651,652,695,653,653,650,651,698,694,650,654,650,697,650,699,653,698,696,698,695,652,653,652,652,654,653,695,654,697,696,650,694,697,699,699,653,694,696,699,696,699,696,699,654,652,651,694,697,651,695,650,650,653,654,650,653,651,652,650,651,696,695,696,697,652,696,698,699,695,652,694,695,695,695,694,695,652,698,653,698,695,695,695,697,697,698,651,694,698,694,652,650,652,653,695,699,651,654,653,695,650,695,652,655,652,694,699,699,696,655,654,653,699,654,696,695,697,695,699,650,654,651,698,650,699,653,654,698,653,695,650,654,698,652,699,698,698,655,698,655,652,654,694,697,654,650,653,695,697,651,654,697,696,694,694,694,652,650,695,696,698,697,654,696,652,653,652,650,653,699,653,654,652,654,694,651,651,653,699,698,698,655,655,698,699,695,697,650,653,698,653,653,652,654,694,655,697,651,652,697,652,699,696,698,653,696,650,652,699,650,650,655,696,695,697,651,651,651,694,651,695,655,655,653,653,695,652,654,653,699,651,652,695,696,654,653,694,699,653,650,654,650,655,655,698,652,650,652,652,698,651,654,651,655,699,697,655,650,699,650,697,654,654,694,652,696,654,695,650,650,698,694,695,655,699,653,699,655,699,698,694,650,696,650,694,651,695,652,698,653,694,654,694,653,650,696,
653,697,650,695,654,651,652,650,697,654,655,696,695,699,651,697,699,699,698,651,654,697,650,655,653,650,655,655,699,653,694,694,696,698,653,655,694,654,697,699,653,650,695,697,653,694,650,694,697,694,652,698,653,696,697,655,655,653,650,699,698,650,697,695,653,654,696,695,694,695,697,654,651,698,699,655,652,651,694,696,694,650,653,696,653,696,696,650,695,655,651,699,698,650,650,655,699,650,655,654,697,655,696,650,652,654,694,654,653,699,650,654,696,696,694,654,655,698,697,694,650,698,652,696,696,652,694,697,698,652,655,655,651,653,699,652,694,654,650,650,697,652,650,653,697,694,650,697,694,699,651,698,698,697,655,698,655,699,695,655,653,697,654,697,650,650,694,697,654,650,655,697,697,655,655,694,654,696,697,655,651,697,694,694,652,653,654,698,695,695,699,694,654,653,650,652,651,651,696,695,697,651,652,653,695,699,651,699,696,651,652,699,697,694,653,652,654,650,695,653,655,699,652,696,654,697,654,698,699,694,651,652,698,655,698,651,651,694,654,697,654,699,695,696,650,654,653,651,697,696,655,694,696,694,655,654,652,696,650,695,699,653,696,696,651,694,655,650,699,653,652,654,650,698,696,654,653,650,698,655,697,699,655,696,697,696,694,699,650,655,696,650,697,650,652,651,653,655,696,694,655,651,655,651,655,654,650,655,655,650,654,652,695,699,652,651,650,651,698,694,652,698,697,652,653,696,652,698,697,654,699,695,651,695,699,653,654,651,695,695,699,694,655,654,696,695,655,655,651,696,695,697,652,655,697,651,696,654,694,699,698,697,652,697,697,699,696,652,699,699,651,652,698,698,695,699,655,698,650,698,695,651,655,654,654,651,697,654,694,654,696,697,651,650,652,697,652,699,655,696,650,651,696,652,697,695,695,694,697,650,655,655,696,699,696,698,697,650,652,654,695,695,698,650,655,699,650,651,655,696,651,654,699,698,654,696,651,699,653,699,698,696,651,652,694,653,650,650,698,694,695,694,694,694,694,652,694,655,699,696,653,697,696,655,655,652,695,698,694,694,654,653,654,699,655,655,695,696,696,653,694,652,694,696,653,655,652,694,695,695,697,655,655,652,698,699,698,695,653,653,655,697,652,694,652,697,697,651,651,697,650,699,652,653,650,694,699,698,652,699,655,652,696,652,652,695,650,699,699,696,650,653,655,650,654,652,697,650,695,655,694,655,699,696,652,699,694,654,696,651,654,654,699,653,696,694,650,698,650,694,652,650,651,652,699,694,652,652,696,697,651,651,654,696,699,654,650,699,651,697,698,652,653,699,651,653,697,695,650,650,654,650,653,653,653,696,650,698,698,695,655,694,694,651,698,651,694,655,698,694,695,698,698,695,652,654,695,694,699,694,699,695,698,695,655,651,654,694,652,650,655,651,697,697,652,695,650,696,696,652,651,698,699,697,652,654,695,694,653,650,694,652,697,655,698,694,655,654,652,654,696,653,698,696,696,697,695,698,654,697,696,695,651,698,695,694,652,699,696,699,655,650,650,699,694,697,697,697,655,651,696,696,654,654,654,699,694,696,651,652,694,699,655,696,653,694,698,697,699,694,654,695,654,652,695,650,697,650,655,650,696,654,695,697,651,651,652,697,698,697,652,694,652,652,654,653,699,655,698,694,652,697,695,654,696,695,653,654,653,653,651,697,699,651,653,655,695,655,652,695,695,650,652,650,699,695,650,694,694,652,651,698,654,650,694,651,651,694,696,695,695,699,655,695,651,650,696,651,696,696,698,698,655,650,694,696,698,699,698,650,650,698,650,654,654,653,696,697,651,695,696,652,695,651,653,694,698,697,697,651,699,694,654,699,651,651,697,650,654,694,651,694,655,650,650,650,653,652,697,653,653,650,653,655,651,695,655,696,651,654,650,698,650,699,655,653,696,654,694,694,654,694,699,654,650,694,653,694,696,697,698,694,650,694,695,653,655,651,651,695,654,651,652,650,694,697,696,652,655,699,695,653,698,694,694,651,699,697,694,699,654,699,699,652,695,655,699,655,655,655,651,699,652,655,697,696,696,654,696,695,694,655,697,650,699,653,653,650,696,699,653,696,696,698,652,699,699,696,696,699,699,694,650,652,654,697,698,650,652,650,652,651,698,655,696,694,651,651,697,654,654,697,653,698,652,694,695,654,650,650,699,651,699,652,699,699,655,694,695,652,697,653,694,697,651,695,699,652,655,654,696,655,653,654,654,651,694,652,653,694,
696,651,699,696,651,695,652,696,695,696,655,697,655,652,698,655,650,695,650,650,695,698,697,694,696,655,697,695,654,695,653,653,695,695,698,655,699,652,695,697,694,655,695,651,654,699,651,695,694,652,650,655,698,694,696,696,652,650,695,652,655,699,696,694,655,696,694,696,653,654,653,651,695,655,654,652,652,655,695,694,698,651,651,694,698,697,694,650,695,694,655,695,694,698,652,694,698,651,694,653,650,651,652,652,651,699,652,653,652,651,653,653,697,655,651,695,651,695,653,697,699,696,655,650,651,697,695,699,698,654,651,694,697,652,650,652,697,698,698,698,697,654,695,655,651,696,651,699,699,698,652,695,696,694,651,651,651,651,697,652,698,655,652,654,695,698,695,651,696,654,697,697,652,650,651,697,696,652,651,650,695,651,652,696,699,695,655,696,653,650,654,651,696,651,655,653,651,652,650,694,694,653,650,698,650,655,653,654,653,696,650,652,654,697,650,699,697,694,698,653,651,654,653,695,697,699,699,654,650,654,695,696,650,651,651,655,699,651,694,650,698,699,695,695,694,697,655,694,652,698,653,655,654,651,694,696,698,650,698,699,650,655,699,696,696,652,698,650,694,651,698,697,650,698,695,696,651,651,698,697,699,652,652,655,695,655,655,651,697,652,650,650,698,650,694,694,698,653,695,654,652,654,651,651,652,694,653,699,697,695,652,650,654,653,654,650,653,651,694,697,699,695,699,652,694,651,695,650,653,652,653,654,650,698,696,698,655,695,655,650,695,696,651,696,653,695,654,698,694,651,696,696,695,651,651,651,650,653,655,694,655,698,699,697,653,695,654,697,697,650,696,696,655,695,695,694,651,650,698,696,698,650,697,696,654,694,696,699,695,652,699,698,653,650,654,698,652,653,695,655,652,654,651,655,697,695,697,697,697,651,696,694,698,698,654,699,650,655,651,697,699,695,655,651,651,653,697,652,655,651,655,653,696,694,651,655,695,699,694,696,699,696,655,654,651,650,651,698,653,652,654,699,697,653,695,694,652,699,651,697,651,697,652,654,651,650,699,695,695,655,695,695,694,697,654,653,696,697,653,650,651,699,651,698,655,697,694,655,652,654,655,654,655,698,652,655,654,697,650,699,654,655,651,654,654,699,698,653,651,654,699,695,699,650,654,696,651,654,653,654,650,651,699,698,650,695,652,651,699,652,654,650,695,694,699,653,694,698,697,652,650,650,694,699,697,655,699,652,655,696,696,697,653,650,652,652,698,697,699,697,698,695,652,697,651,697,652,699,650,698,694,653,650,655,695,699,694,696,650,694,655,655,653,651,696,697,697,651,652,655,653,651,652,694,695,650,651,699,651,695,655,699,653,699,652,651,655,697,650,653,699,694,654,695,694,655,697,694,654,652,651,695,654,694,650,699,698,699,652,651,699,699,655,653,650,699,650,650,695,655,699,699,650,695,653,650,655,652,695,654,698,653,699,653,699,699,654,697,651,698,655,694,654,699,697,697,698,697,651,653,653,651,695,695,653,699,696,655,653,655,655,655,650,652,695,650,696,651,699,698,694,695,650,650,652,699,655,698,696,654,695,653,694,695,652,651,696,652,651,694,655,651,652,694,694,655,650,650,697,696,696,651,698,699,650,653,655,698,698,655,697,650,697,654,650,650,699,650,650,655,650,653,655,655,694,653,650,654,653,651,696,653,652,655,654,694,655,694,696,651,699,654,699,654,653,699,650,651,699,650,653,653,696,698,694,697,695,653,654,695,652,655,651,694,694,698,655,695,650,650,694,650,654,652,697,696,653,695,699,654,698,699,652,694,698,697,697,653,655,697,699,652,651,653,653,697,695,653,695,650,696,698,697,695,694,697,654,695,652,650,699,696,699,697,654,695,653,652,653,695,697,655,696,697,695,695,652,697,655,652,694,696,694,699,650,651,698,695,698,653,653,650,694,651,694,694,699,694,699,653,696,655,698,695,696,696,698,697,651,698,697,650,650,651,698,697,653,655,698,697,653,654,652,650,651,651,698,695,696,696,651,695,651,696,699,652,651,655,653,699,652,652,699,696,698,650,655,695,698,695,699,698,655,696,694,651,697,699,653,651,694,699,699,697,697,697,698,696,694,697,655,699,653,652,696,650,650,654,652,653,655,697,694,654,698,651,653,696,695,695,651,653,650,697,696,695,695,651,652,652,696,653,651,652,697,650,655,699,696,696,653,696,699,651,652,650,652,653,697,650,653,653,696,655,694,653,655,655,694,654,
698,697,698,654,651,651,698,699,699,651,654,655,697,694,699,655,651,695,653,651,698,655,655,653,696,650,653,651,653,699,694,651,651,652,696,653,650,699,697,695,651,695,695,697,694,651,694,653,696,699,652,654,698,699,654,699,651,699,698,652,694,655,699,651,698,698,699,655,698,695,650,652,655,652,650,699,652,697,654,655,653,694,651,653,651,699,651,650,697,654,652,654,699,697,652,695,654,652,699,653,654,650,699,653,695,696,650,696,652,654,655,698,654,650,695,694,651,655,698,699,652,698,694,655,699,694,653,655,654,697,697,652,652,650,655,694,651,652,699,698,655,652,696,653,650,655,650,651,653,695,699,650,697,694,651,695,697,652,695,653,651,653,654,694,696,698,699,655,695,654,655,695,699,698,696,696,652,694,653,651,696,651,651,697,655,695,655,653,654,696,651,653,653,698,694,651,695,651,653,697,651,655,652,650,654,697,650,650,652,652,696,695,652,653,696,698,699,698,694,654,651,652,653,650,652,694,697,694,650,651,652,653,655,654,696,652,653,654,697,699,699,650,695,695,652,698,650,696,651,650,651,651,652,651,655,653,655,652,696,653,653,651,652,699,699,697,697,653,652,650,697,698,653,696,696,699,652,651,653,697,697,652,652,699,699,651,652,695,653,653,694,695,652,654,698,650,655,653,651,695,652,654,654,655,695,699,654,694,697,650,698,698,697,698,654,697,652,696,699,698,695,651,653,699,698,699,698,697,699,653,652,655,695,697,697,652,651,694,650,697,695,653,650,650,695,654,697,698,651,699,651,655,651,699,694,697,650,654,650,650,696,654,653,654,654,694,695,654,696,652,652,695,651,655,698,694,653,695,699,650,652,698,694,694,655,698,651,696,698,697,651,653,654,696,694,695,653,699,652,652,653,698,696,651,697,696,651,653,652,694,655,650,655,694,698,697,651,650,695,654,654,650,696,650,650,651,695,652,698,653,698,653,696,654,698,696,653,698,694,698,652,696,655,655,652,653,653,695,655,655,698,696,696,651,698,650,696,695,694,651,699,653,650,653,655,655,654,695,696,699,699,650,699,699,696,699,699,652,655,655,699,694,651,695,695,696,694,695,697,694,651,698,651,652,696,699,655,694,697,652,650,698,696,696,655,698,653,699,694,695,694,652,699,695,655,652,655,650,654,698,653,652,694,655,655,699,652,654,654,694,699,695,652,696,699,655,694,653,654,650,694,696,654,695,650,652,654,651,695,654,650,650,694,655,654,654,653,650,653,652,655,696,655,652,651,655,652,697,697,650,694,699,653,695,694,654,654,697,650,695,699,653,697,650,699,653,696,696,695,698,696,697,654,655,654,655,654,699,651,653,697,694,650,696,652,699,652,698,699,699,695,650,699,655,694,694,651,697,699,698,698,698,699,651,651,653,694,651,694,651,694,654,653,694,650,653,653,695,654,653,650,699,653,655,652,696,654,694,699,652,698,650,655,697,650,652,698,652,695,654,698,653,653,651,652,652,654,699,652,699,650,654,654,650,651,698,655,695,654,655,699,695,650,699,699,694,654,699,650,651,694,696,651,699,697,697,653,650,696,653,655,650,694,695,696,695,695,650,696,695,654,654,652,697,652,696,653,652,651,651,697,650,698,698,698,699,695,650,652,695,696,652,655,698,650,652,695,653,698,696,697,698,697,695,694,694,696,696,697,697,698,653,698,695,652,654,695,698,694,650,694,655,697,696,650,655,697,653,654,697,652,697,650,655,698,695,652,699,650,698,696,651,694,654,654,651,654,695,652,697,699,655,651,698,695,699,696,650,653,651,699,651,698,694,697,697,654,652,696,651,696,650,651,694,696,654,655,653,695,654,652,651,694,652,650,695,655,654,699,695,699,695,695,654,698,650,655,655,651,652,652,655,696,653,696,650,651,695,696,655,695,652,650,653,698,698,695,652,652,653,698,699,652,698,654,695,651,654,697,697,698,654,654,694,696,651,651,695,654,696,651,697,695,655,651,651,652,655,699,651,651,696,697,694,654,653,698,650,653,652,654,651,650,695,655,650,696,698,654,698,695,696,698,694,698,697,652,652,697,654,652,695,653,653,694,651,698,696,699,697,695,652,655,651,699,655,694,696,653,652,695,652,694,696,698,652,696,695,654,695,699,651,650,694,653,695,650,650,655,695,695,697,655,651,696,650,653,652,654,694,654,694,652,695,655,699,696,650,655,651,696,696,699,697,651,650,653,699,650,653,654,651,651,697,652,694,697,653,653,696,
655,654,695,653,695,653,699,697,655,698,652,696,654,694,650,651,654,695,650,696,653,650,697,698,695,696,697,650,653,651,653,650,652,698,698,698,698,652,698,653,698,652,654,697,697,651,652,699,694,653,695,698,650,699,699,654,699,653,650,653,694,653,653,651,651,654,654,694,697,650,699,697,654,698,699,653,650,653,695,696,651,694,699,650,698,698,699,652,699,653,699,653,694,699,653,699,695,698,696,698,698,651,654,695,697,696,696,655,654,697,654,695,695,651,697,694,696,698,652,696,699,654,697,654,699,696,694,652,696,651,697,697,653,694,652,696,695,650,695,655,698,697,652,653,695,655,650,694,698,652,694,651,694,699,653,695,652,695,695,651,699,696,652,651,651,653,694,699,695,655,696,697,652,696,697,651,697,651,653,698,654,651,696,696,696,697,697,652,654,652,695,697,655,652,652,696,650,699,695,650,652,695,698,650,695,696,696,654,653,694,696,695,652,698,698,697,654,699,653,697,650,650,696,652,697,654,695,695,650,652,655,699,698,652,699,650,694,653,697,655,699,653,698,652,651,697,695,695,694,695,695,697,696,651,654,655,654,651,654,653,650,654,694,651,651,651,699,654,654,696,653,655,695,652,655,698,697,651,652,696,694,653,699,652,651,650,698,650,694,653,650,652,695,694,652,651,654,696,694,696,695,652,651,651,655,653,652,653,696,655,651,699,695,698,696,695,695,697,694,698,654,654,694,697,694,651,653,653,696,651,694,696,653,653,698,651,696,650,699,654,699,695,694,653,652,699,652,694,699,694,699,654,694,655,697,698,698,650,651,650,698,695,697,653,650,652,652,652,651,698,699,699,651,654,651,696,695,655,697,650,653,653,694,696,655,655,652,655,695,654,695,699,651,655,697,695,697,695,651,695,699,698,655,652,654,654,697,655,652,650,696,654,698,696,695,697,698,653,695,695,699,652,694,696,698,650,651,698,653,699,694,651,698,654,654,698,694,698,696,694,651,696,699,655,651,652,698,652,694,697,651,652,699,650,655,698,694,698,651,697,698,652,655,652,697,653,654,695,654,696,651,697,696,650,696,695,694,654,696,652,694,698,653,651,652,651,653,694,699,695,653,654,654,696,696,698,696,654,655,650,650,654,655,698,655,654,655,650,652,695,655,698,699,694,696,650,699,653,694,651,652,653,654,652,652,650,698,654,651,699,653,695,694,655,652,699,651,697,655,699,696,651,651,655,698,650,652,654,653,695,653,650,696,650,698,694,695,653,694,653,650,653,698,653,694,654,697,651,651,698,694,654,653,696,653,651,699,651,695,697,650,654,695,654,699,654,652,650,652,650,651,695,694,696,654,697,694,696,651,655,654,698,699,652,653,655,652,694,698,699,695,651,699,651,653,698,699,695,699,653,695,699,694,694,654,653,694,653,652,695,697,650,651,694,654,696,655,654,650,695,699,695,696,655,651,655,651,697,651,698,695,698,694,696,694,654,697,698,650,650,697,699,652,650,697,655,699,651,653,695,696,650,699,653,655,695,651,653,652,652,650,651,695,695,694,698,696,694,695,652,698,695,655,695,695,694,652,694,650,655,653,655,652,650,651,654,655,650,694,698,655,696,697,651,652,651,697,698,653,695,655,653,698,698,695,698,653,694,650,652,696,652,699,653,699,651,651,698,694,698,694,698,652,652,695,653,650,694,654,654,696,695,655,694,698,695,699,695,654,696,650,650,694,652,655,694,653,651,699,694,696,697,654,654,696,695,696,694,694,651,653,699,695,653,651,698,651,655,655,655,695,697,653,654,699,697,699,698,650,650,650,653,698,654,655,650,653,694,694,653,651,651,694,698,696,654,697,652,694,651,655,696,650,698,655,650,651,655,654,698,650,697,651,650,696,697,655,655,655,698,653,651,651,651,697,654,652,653,654,654,650,651,651,697,697,695,694,695,651,653,696,654,654,654,699,694,696,655,698,694,653,655,654,650,651,697,699,654,697,653,698,696,696,696,654,654,699,650,650,699,698,654,699,694,655,650,698,651,695,699,698,652,696,650,694,650,655,697,655,655,697,699,650,694,653,696,696,651,651,697,699,696,694,653,694,653,654,653,698,655,694,653,699,650,697,694,694,650,694,697,695,695,696,699,654,699,698,698,654,695,697,699,655,696,694,653,651,699,698,655,696,696,698,694,651,699,696,699,696,694,652,695,699,651,697,655,697,655,695,650,651,698,696,698,697,655,652,650,650,655,651,652,699,694,653,651,696,699,699,651,
652,698,654,652,652,694,694,699,652,696,696,651,652,696,655,655,697,699,699,651,651,652,695,655,651,651,698,699,695,697,654,697,696,652,654,696,696,650,697,696,651,655,697,698,695,696,651,695,651,695,651,653,696,694,652,650,694,650,698,650,651,654,697,653,650,694,696,654,650,697,698,697,696,650,697,698,650,698,696,697,651,697,654,650,655,654,696,651,655,650,699,652,697,655,650,698,653,655,694,697,655,650,699,651,694,651,653,653,653,653,699,652,651,654,654,651,654,698,694,699,652,650,694,696,652,699,654,697,655,655,651,655,699,698,699,655,696,696,652,654,697,699,654,695,698,654,650,699,654,697,654,651,699,651,698,651,696,652,699,695,655,655,697,650,655,699,697,654,652,651,695,651,655,699,653,653,696,650,697,651,651,699,652,696,652,655,697,653,655,655,652,697,699,694,696,699,696,699,697,697,653,653,652,696,653,655,650,653,650,653,698,653,650,655,697,652,650,699,697,698,655,653,650,653,696,650,695,653,697,653,653,653,654,655,654,697,696,696,650,652,650,694,655,694,694,694,695,695,650,697,655,653,697,654,651,655,650,653,698,651,654,699,652,654,651,650,650,655,653,655,695,698,695,696,697,698,650,652,695,654,697,654,654,653,696,696,696,698,699,655,654,654,655,651,694,694,698,650,653,694,650,653,655,655,655,655,654,655,698,652,650,694,695,694,696,653,653,698,654,694,650,654,694,653,654,698,696,694,696,696,652,655,697,654,696,652,699,695,699,651,697,699,699,694,652,694,652,652,695,655,699,695,698,650,696,696,699,699,652,694,651,694,650,655,655,653,651,696,694,655,653,650,652,655,697,698,650,698,652,650,655,650,696,655,697,653,699,655,697,650,695,695,698,653,655,654,651,651,698,654,694,697,698,655,696,695,655,696,655,695,654,653,697,654,652,650,653,694,699,695,697,654,655,695,696,696,696,694,696,653,694,655,694,697,655,697,698,699,696,698,699,697,655,652,655,697,698,699,655,697,650,655,653,650,697,653,699,651,696,699,652,650,698,699,655,652,699,697,654,652,654,650,654,697,697,694,652,698,695,699,651,652,651,655,698,651,698,695,699,652,655,695,653,654,651,695,698,695,694,653,697,651,651,699,697,650,654,653,654,653,694,651,695,653,699,651,697,699,650,695,695,694,653,698,696,653,694,652,654,699,655,699,698,695,653,696,655,654,655,699,696,653,650,694,694,696,652,651,696,653,697,695,653,697,698,650,654,695,653,652,655,696,650,652,653,652,654,654,650,652,698,695,697,651,654,650,650,694,697,651,654,654,653,694,652,694,652,651,652,696,655,694,698,651,655,698,695,697,653,695,653,696,651,651,650,696,653,653,698,699,651,696,697,651,698,694,651,697,695,694,699,698,654,695,699,650,695,695,699,653,651,652,652,694,699,655,695,650,696,699,696,655,699,651,654,652,695,650,694,695,695,654,652,654,655,653,698,650,699,698,650,655,696,655,698,696,694,698,699,699,699,696,694,699,697,695,652,698,655,697,652,698,695,695,655,694,696,699,695,652,697,697,694,652,695,696,653,652,654,651,652,697,653,650,653,655,697,695,695,697,653,653,650,695,695,655,655,697,696,653,652,695,655,695,650,651,699,698,651,698,651,655,697,655,697,652,654,698,654,697,696,655,694,652,654,698,694,650,699,655,699,654,694,698,697,655,697,695,697,652,696,698,697,695,697,655,699,651,698,699,651,651,694,651,695,699,699,652,696,655,696,654,650,697,695,651,698,652,698,698,650,653,650,650,651,699,652,651,653,698,654,650,696,653,655,651,696,651,655,698,697,655,694,695,698,653,653,655,697,655,696,694,698,699,696,653,694,650,651,653,697,654,650,697,653,696,650,653,694,697,655,651,654,655,650,699,651,652,652,655,696,655,653,654,696,696,697,650,695,651,653,653,650,654,694,653,653,698,695,699,699,698,695,654,652,698,651,695,694,697,697,697,650,698,650,654,697,652,652,652,655,694,695,651,698,654,695,694,699,652,653,651,650,653,695,653,695,654,694,698,695,654,651,697,654,652,652,696,655,654,698,655,650,694,653,654,650,699,652,696,696,653,697,654,652,650,654,655,699,694,697,698,652,653,653,652,698,696,697,650,655,654,653,699,650,695,697,694,653,651,650,695,654,699,650,699,694,695,694,696,697,697,653,651,697,650,698,654,696,696,694,694,650,694,655,697,695,652,696,694,651,654,655,650,696,697,696,698,652,697,
652,695,696,697,655,653,653,698,695,653,696,699,698,653,699,655,654,694,697,651,653,650,694,694,655,695,694,697,696,697,651,653,697,696,655,698,696,651,694,696,695,697,694,698,698,695,697,650,652,653,652,697,696,699,696,653,654,650,698,654,651,651,699,653,655,696,650,697,655,654,699,699,653,694,695,650,699,698,653,698,651,694,697,698,699,652,699,655,699,695,695,653,698,699,653,697,653,654,650,655,654,696,694,651,652,698,650,698,655,695,651,695,652,696,655,653,696,697,699,654,654,699,696,694,697,695,651,652,652,697,651,699,694,650,655,652,650,698,699,651,697,651,694,699,698,698,651,652,699,650,696,653,695,698,654,696,696,655,696,654,650,654,653,695,653,654,655,653,653,697,699,652,694,653,653,655,696,653,652,696,652,655,696,699,694,654,653,696,695,652,655,694,652,655,653,696,654,695,699,654,654,651,694,654,694,694,694,695,695,699,694,653,650,653,654,651,697,694,654,651,654,699,655,652,699,654,650,655,654,698,653,655,694,698,651,654,695,651,695,651,694,651,695,695,695,698,696,699,651,655,699,650,697,696,699,650,697,652,652,654,651,654,651,652,650,695,699,696,652,696,650,699,655,651,698,699,651,696,652,696,698,695,650,697,699,698,655,650,694,694,699,698,653,695,696,652,698,653,694,694,694,652,694,698,694,696,652,698,654,698,699,651,694,694,652,699,650,652,696,697,696,699,652,699,654,695,651,694,699,653,654,696,696,695,651,698,695,695,653,655,697,652,694,698,697,653,654,655,651,695,652,651,695,654,694,651,653,697,654,654,655,650,651,655,654,651,696,654,699,697,652,652,696,696,694,652,697,698,653,650,653,699,655,698,695,694,698,694,698,694,698,697,655,698,694,654,654,653,698,698,650,654,696,694,697,697,655,651,694,650,654,696,650,651,699,698,696,696,655,699,695,697,695,697,694,652,655,654,695,655,695,698,699,695,695,653,652,694,652,650,651,694,655,653,695,696,694,651,694,653,655,652,694,655,699,652,695,698,655,695,696,650,695,696,699,694,695,650,698,654,695,699,697,698,650,650,699,697,696,652,650,696,655,694,651,696,654,655,697,694,698,652,655,696,653,652,698,699,651,697,653,653,650,696,696,694,651,695,654,699,654,696,696,696,653,654,654,652,652,699,655,650,695,653,697,655,652,696,655,699,653,653,697,694,650,695,654,654,651,655,654,654,654,650,697,652,697,699,650,696,698,697,696,696,650,697,653,698,697,698,697,698,695,698,697,652,655,695,653,652,655,655,654,652,696,695,699,695,650,655,652,653,654,696,695,655,651,694,695,697,650,695,653,653,697,698,654,650,650,650,654,653,651,695,696,654,650,652,699,696,651,694,651,655,698,694,653,695,697,694,651,699,694,698,698,654,698,653,699,694,653,696,651,697,695,652,697,655,696,651,650,699,652,696,698,698,694,654,654,696,650,699,653,654,694,653,652,650,652,651,695,651,655,654,654,651,653,652,655,698,695,697,654,652,655,696,650,698,652,698,698,699,651,650,696,697,650,698,698,696,694,655,654,654,699,694,655,698,652,650,654,651,696,655,654,653,694,655,653,651,698,652,694,697,655,697,654,650,699,655,696,698,698,654,694,650,699,698,655,698,697,696,651,694,654,697,694,650,653,655,699,696,698,650,699,694,653,654,652,654,650,699,696,653,698,698,697,698,697,694,698,697,651,698,696,698,654,652,655,698,694,650,696,654,698,697,650,653,650,694,651,654,651,694,696,695,694,650,650,696,697,696,650,652,694,651,697,696,651,696,699,697,650,698,695,653,651,652,699,698,698,694,652,652,655,655,695,653,654,699,651,697,655,650,695,655,653,694,694,696,696,694,695,694,696,650,651,699,654,651,653,650,696,653,698,650,653,694,650,694,694,652,698,697,653,696,651,694,652,652,655,698,652,650,696,652,655,697,697,695,651,696,694,652,654,655,651,651,695,652,655,698,652,652,697,694,652,650,699,654,651,697,698,653,696,696,694,652,653,697,695,655,652,694,652,699,696,696,695,694,652,698,652,653,698,652,654,650,654,696,694,654,651,651,696,698,697,694,655,655,699,696,654,654,694,654,698,652,698,653,698,650,698,698,698,694,655,651,699,651,695,698,651,655,651,654,650,696,696,696,655,651,650,697,654,697,694,695,652,651,651,652,655,698,695,695,694,699,697,651,698,698,697,654,697,697,695,699,694,695,696,694,697,650,699,655,654,699,654,651
</data>
 </layer>
 <layer id="3" name="wall" width="1000" height="50">
  <data encoding="csv">
0,0,0,0,0,0,0,0,0,0,0,0,0,0,0,0,0,0,0,0,0,0,0,0,0,0,0,0,0,0,0,0,0,0,0,0,0,0,0,0,0,0,0,0,0,0,0,0,0,0,0,0,0,0,0,0,0,0,0,0,0,0,0,0,0,0,0,0,0,0,0,0,0,0,0,0,0,0,0,0,0,0,0,0,0,0,0,0,0,0,0,0,0,0,0,0,0,0,0,0,0,0,0,0,0,0,0,0,0,0,0,0,0,0,0,0,0,0,0,0,0,0,0,0,0,0,0,0,0,0,0,0,0,0,0,0,0,0,0,0,0,0,0,0,0,0,0,0,0,0,0,0,0,0,0,0,0,0,0,0,0,0,0,0,0,0,0,0,0,0,0,0,0,0,0,0,0,0,0,0,0,0,0,0,0,0,0,0,0,0,0,0,0,0,0,0,0,0,0,0,0,0,0,0,0,0,0,0,0,0,0,0,0,0,0,0,0,0,0,0,0,0,0,0,0,0,0,0,0,0,0,0,0,0,0,0,0,0,0,0,0,0,0,0,0,0,0,0,0,0,0,0,0,0,0,0,0,0,0,0,0,0,0,0,0,0,0,0,0,0,0,0,0,0,0,0,0,0,0,0,0,0,0,0,0,0,0,0,0,0,0,0,0,0,0,0,0,0,0,0,0,0,0,0,0,0,0,0,0,0,0,0,0,0,0,0,0,0,0,0,0,0,0,0,0,0,0,0,0,0,0,0,0,0,0,0,0,0,0,0,0,0,0,0,0,0,0,0,0,0,0,0,0,0,0,0,0,0,0,0,0,0,0,0,0,0,0,0,0,0,0,0,0,0,0,0,0,0,0,0,0,0,0,0,0,0,0,0,0,0,0,0,0,0,0,0,0,0,0,0,0,0,0,0,0,0,0,0,0,0,0,0,0,0,0,0,0,0,0,0,0,0,0,0,0,0,0,0,0,0,0,0,0,0,0,0,0,0,0,0,0,0,0,0,0,0,0,0,0,0,0,0,0,0,0,0,0,0,0,0,0,0,0,0,0,0,0,0,0,0,0,0,0,0,0,0,0,0,0,0,0,0,0,0,0,0,0,0,0,0,0,0,0,0,0,0,0,0,0,0,0,0,0,0,0,0,0,0,0,0,0,0,0,0,0,0,0,0,0,0,0,0,0,0,0,0,0,0,0,0,0,0,0,0,0,0,0,0,0,0,0,0,0,0,0,0,0,0,0,0,0,0,0,0,0,0,0,0,0,0,0,0,0,0,0,0,0,0,0,0,0,0,0,0,0,0,0,0,0,0,0,0,0,0,0,0,0,0,0,0,0,0,0,0,0,0,0,0,0,0,0,0,0,0,0,0,0,0,0,0,0,0,0,0,0,0,0,0,0,0,0,0,0,0,0,0,0,0,0,0,0,0,0,0,0,0,0,0,0,0,0,0,0,0,0,0,0,0,0,0,0,0,0,0,0,0,0,0,0,0,0,0,0,0,0,0,0,0,0,0,0,0,0,0,0,0,0,0,0,0,0,0,0,0,0,0,0,0,0,0,0,0,0,0,0,0,0,0,0,0,0,0,0,0,0,0,0,0,0,0,0,0,0,0,0,0,0,0,0,0,0,0,0,0,0,0,0,0,0,0,0,0,0,0,0,0,0,0,0,0,0,0,0,0,0,0,0,0,0,0,0,0,0,0,0,0,0,0,0,0,0,0,0,0,0,0,0,0,0,0,0,0,0,0,0,0,0,0,0,0,0,0,0,0,0,0,0,0,0,0,0,0,0,0,0,0,0,0,0,0,0,0,0,0,0,0,0,0,0,0,0,0,0,0,0,0,0,0,0,0,0,0,0,0,0,0,0,0,0,0,0,0,0,0,0,0,0,0,0,0,0,0,0,0,0,0,0,0,0,0,0,0,0,0,0,0,0,0,0,0,0,0,0,0,0,0,0,0,0,0,0,0,0,0,0,0,0,0,0,0,0,0,0,0,0,0,0,0,0,0,0,0,0,0,0,0,0,0,0,0,0,0,0,0,0,0,0,0,0,0,0,0,0,0,0,0,0,0,0,0,0,0,0,0,0,0,0,0,0,0,0,0,0,0,0,0,0,0,0,0,0,0,0,0,0,0,0,0,0,0,0,0,0,0,0,0,0,0,0,0,0,0,0,0,0,0,0,0,0,0,0,0,0,0,0,0,0,0,0,0,0,0,0,0,0,0,0,0,0,0,0,0,0,0,0,0,0,0,0,0,
0,0,0,0,0,0,0,0,0,0,0,0,0,0,0,0,0,0,0,0,0,0,0,0,0,0,0,0,0,0,0,0,0,0,0,0,0,0,0,0,0,0,0,0,0,0,0,0,0,0,0,0,0,0,0,0,0,0,0,0,0,0,0,0,0,0,0,0,0,0,0,0,0,0,0,0,0,0,0,0,0,0,0,0,0,0,0,0,0,0,0,0,0,0,0,0,0,0,0,0,0,0,0,0,0,0,0,0,0,0,0,0,0,0,0,0,0,0,0,0,0,0,0,0,0,0,0,0,0,0,0,0,0,0,0,0,0,0,0,0,0,0,0,0,0,0,0,0,0,0,0,0,0,0,0,0,0,0,0,0,0,0,0,0,0,0,0,0,0,0,0,0,0,0,0,0,0,0,0,0,0,0,0,0,0,0,0,0,0,0,0,0,0,0,0,0,0,0,0,0,0,0,0,0,0,0,0,0,0,0,0,0,0,0,0,0,0,0,0,0,0,0,0,0,0,0,0,0,0,0,0,0,0,0,0,0,0,0,0,0,0,0,0,0,0,0,0,0,0,0,0,0,0,0,0,0,0,0,0,0,0,0,0,0,0,0,0,0,0,0,0,0,0,0,0,0,0,0,0,0,0,0,0,0,0,0,0,0,0,0,0,0,0,0,0,0,0,0,0,0,0,0,0,0,0,0,0,0,0,0,0,0,0,0,0,0,0,0,0,0,0,0,0,0,0,0,0,0,0,0,0,0,0,0,0,0,0,0,0,0,0,0,0,0,0,0,0,0,0,0,0,0,0,0,0,0,0,0,0,0,0,0,0,0,0,0,0,0,0,0,0,0,0,0,0,0,0,0,0,0,0,0,0,0,0,0,0,0,0,0,0,0,0,0,0,0,0,0,0,0,0,0,0,0,0,0,0,0,0,0,0,0,0,0,0,0,0,0,0,0,0,0,0,0,0,0,0,0,0,0,0,0,0,0,0,0,0,0,0,0,0,0,0,0,0,0,0,0,0,0,0,0,0,0,0,0,0,0,0,0,0,0,0,0,0,0,0,0,0,0,0,0,0,0,0,0,0,0,0,0,0,0,0,0,0,0,0,0,0,0,0,0,0,0,0,0,0,0,0,0,0,0,0,0,0,0,0,0,0,0,0,0,0,0,0,0,0,0,0,0,0,0,0,0,0,0,0,0,0,0,0,0,0,0,0,0,0,0,0,0,0,0,0,0,0,0,0,0,0,0,0,0,0,0,0,0,0,0,0,0,0,0,0,0,0,0,0,0,0,0,0,0,0,0,0,0,0,0,0,0,0,0,0,0,0,0,0,0,0,0,0,0,0,0,0,0,0,0,0,0,0,0,0,0,0,0,0,0,0,0,0,0,0,0,0,0,0,0,0,0,0,0,0,0,0,0,0,0,0,0,0,0,0,0,0,0,0,0,0,0,0,0,0,0,0,0,0,0,0,0,0,0,0,0,0,0,0,0,0,0,0,0,0,0,0,0,0,0,0,0,0,0,0,0,0,0,0,0,0,0,0,0,0,0,0,0,0,0,0,0,0,0,0,0,0,0,0,0,0,0,0,0,0,0,0,0,0,0,0,0,0,0,0,0,0,0,0,0,0,0,0,0,0,0,0,0,0,0,0,0,0,0,0,0,0,0,0,0,0,0,0,0,0,0,0,0,0,0,0,0,0,0,0,0,0,0,0,0,0,0,0,0,0,0,0,0,0,0,0,0,0,0,0,0,0,0,0,0,0,0,0,0,0,0,0,0,0,0,0,0,0,0,0,0,0,0,0,0,0,0,0,0,0,0,0,0,0,0,0,0,0,0,0,0,0,0,0,0,0,0,0,0,0,0,0,0,0,0,0,0,0,0,0,0,0,0,0,0,0,0,0,0,0,0,0,0,0,0,0,0,0,0,0,0,0,0,0,0,0,0,0,0,0,0,0,0,0,0,0,0,0,0,0,0,0,0,0,0,0,0,0,0,0,0,0,0,0,0,0,0,0,0,0,0,0,0,0,0,0,0,0,0,0,0,0,0,0,0,0,0,0,0,0,0,0,0,0,0,0,0,0,0,0,0,0,0,0,0,0,0,0,0,0,0,0,0,0,0,0,0,0,0,0,0,0,0,0,0,0,0,0,0,0,0,0,0,0,0,0,0,0,0,0,0,0,0,0,0,0,0,0,0,0,0,0,0,0,0,0,0,0,0,0,0,0,0,0,0,0,0,0,0,0,0,0,0,0,0,0,0,
0,0,0,0,0,0,0,0,0,0,0,0,0,0,0,0,0,0,0,0,0,0,0,0,0,0,0,0,0,0,0,0,0,0,0,0,0,0,0,0,0,0,0,0,0,0,0,0,0,0,0,0,0,0,0,0,0,0,0,0,0,0,0,0,0,0,0,0,0,0,0,0,0,0,0,0,0,0,0,0,0,0,0,0,0,0,0,0,0,0,0,0,0,0,0,0,0,0,0,0,0,0,0,0,0,0,0,0,0,0,0,0,0,0,0,0,0,0,0,0,0,0,0,0,0,0,0,0,0,0,0,0,0,0,0,0,0,0,0,0,0,0,0,0,0,0,0,0,0,0,0,0,0,0,0,0,0,0,0,0,0,0,0,0,0,0,0,0,0,0,0,0,0,0,0,0,0,0,0,0,0,0,0,0,0,0,0,0,0,0,0,0,0,0,0,0,0,0,0,0,0,0,0,0,0,0,0,0,0,0,0,0,0,0,0,0,0,0,0,0,0,0,0,0,0,0,0,0,0,0,0,0,0,0,0,0,0,0,0,0,0,0,0,0,0,0,0,0,0,0,0,0,0,0,0,0,0,0,0,0,0,0,0,0,0,0,0,0,0,0,0,0,0,0,0,0,0,0,0,0,0,0,0,0,0,0,0,0,0,0,0,0,0,0,0,0,0,0,0,0,0,0,0,0,0,0,0,0,0,0,0,0,0,0,0,0,0,0,0,0,0,0,0,0,0,0,0,0,0,0,0,0,0,0,0,0,0,0,0,0,0,0,0,0,0,0,0,0,0,0,0,0,0,0,0,0,0,0,0,0,0,0,0,0,0,0,0,0,0,0,0,0,0,0,0,0,0,0,0,0,0,0,0,0,0,0,0,0,0,0,0,0,0,0,0,0,0,0,0,0,0,0,0,0,0,0,0,0,0,0,0,0,0,0,0,0,0,0,0,0,0,0,0,0,0,0,0,0,0,0,0,0,0,0,0,0,0,0,0,0,0,0,0,0,0,0,0,0,0,0,0,0,0,0,0,0,0,0,0,0,0,0,0,0,0,0,0,0,0,0,0,0,0,0,0,0,0,0,0,0,0,0,0,0,0,0,0,0,0,0,0,0,0,0,0,0,0,0,0,0,0,0,0,0,0,0,0,0,0,0,0,0,0,0,0,0,0,0,0,0,0,0,0,0,0,0,0,0,0,0,0,0,0,0,0,0,0,0,0,0,0,0,0,0,0,0,0,0,0,0,0,0,0,0,0,0,0,0,0,0,0,0,0,0,0,0,0,0,0,0,0,0,0,0,0,0,0,0,0,0,0,0,0,0,0,0,0,0,0,0,0,0,0,0,0,0,0,0,0,0,0,0,0,0,0,0,0,0,0,0,0,0,0,0,0,0,0,0,0,0,0,0,0,0,0,0,0,0,0,0,0,0,0,0,0,0,0,0,0,0,0,0,0,0,0,0,0,0,0,0,0,0,0,0,0,0,0,0,0,0,0,0,0,0,0,0,0,0,0,0,0,0,0,0,0,0,0,0,0,0,0,0,0,0,0,0,0,0,0,0,0,0,0,0,0,0,0,0,0,0,0,0,0,0,0,0,0,0,0,0,0,0,0,0,0,0,0,0,0,0,0,0,0,0,0,0,0,0,0,0,0,0,0,0,0,0,0,0,0,0,0,0,0,0,0,0,0,0,0,0,0,0,0,0,0,0,0,0,0,0,0,0,0,0,0,0,0,0,0,0,0,0,0,0,0,0,0,0,0,0,0,0,0,0,0,0,0,0,0,0,0,0,0,0,0,0,0,0,0,0,0,0,0,0,0,0,0,0,0,0,0,0,0,0,0,0,0,0,0,0,0,0,0,0,0,0,0,0,0,0,0,0,0,0,0,0,0,0,0,0,0,0,0,0,0,0,0,0,0,0,0,0,0,0,0,0,0,0,0,0,0,0,0,0,0,0,0,0,0,0,0,0,0,0,0,0,0,0,0,0,0,0,0,0,0,0,0,0,0,0,0,0,0,0,0,0,0,0,0,0,0,0,0,0,0,0,0,0,0,0,0,0,0,0,0,0,0,0,0,0,0,0,0,0,0,0,0,0,0,0,0,0,0,0,0,0,0,0,0,0,0,0,0,0,0,0,0,0,0,0,0,0,0,0,0,0,0,0,0,0,0,0,0,0,0,0,0,0,0,0,0,0,0,0,0,0,0,0,0,0,0,0,0,0,0,0,0,0,0,0,0,0,0,0,0,0,0,0,0,0,
0,0,0,0,0,0,0,0,0,0,0,0,0,0,0,0,0,0,0,0,0,0,0,0,0,0,0,0,0,0,0,0,0,0,0,0,0,0,0,0,0,0,0,0,0,0,0,0,0,0,0,0,0,0,0,0,0,0,0,0,0,0,0,0,0,0,0,0,0,0,0,0,0,0,0,0,0,0,0,0,0,0,0,0,0,0,0,0,0,0,0,0,0,0,0,0,0,0,0,0,0,0,0,0,0,0,0,0,0,0,0,0,0,0,0,0,0,0,0,0,0,0,0,0,0,0,0,0,0,0,0,0,0,0,0,0,0,0,0,0,0,0,0,0,0,0,0,0,0,0,0,0,0,0,0,0,0,0,0,0,0,0,0,0,0,0,0,0,0,0,0,0,0,0,0,0,0,0,0,0,0,0,0,0,0,0,0,0,0,0,0,0,0,0,0,0,0,0,0,0,0,0,0,0,0,0,0,0,0,0,0,0,0,0,0,0,0,0,0,0,0,0,0,0,0,0,0,0,0,0,0,0,0,0,0,0,0,0,0,0,0,0,0,0,0,0,0,0,0,0,0,0,0,0,0,0,0,0,0,0,0,0,0,0,0,0,0,0,0,0,0,0,0,0,0,0,0,0,0,0,0,0,0,0,0,0,0,0,0,0,0,0,0,0,0,0,0,0,0,0,0,0,0,0,0,0,0,0,0,0,0,0,0,0,0,0,0,0,0,0,0,0,0,0,0,0,0,0,0,0,0,0,0,0,0,0,0,0,0,0,0,0,0,0,0,0,0,0,0,0,0,0,0,0,0,0,0,0,0,0,0,0,0,0,0,0,0,0,0,0,0,0,0,0,0,0,0,0,0,0,0,0,0,0,0,0,0,0,0,0,0,0,0,0,0,0,0,0,0,0,0,0,0,0,0,0,0,0,0,0,0,0,0,0,0,0,0,0,0,0,0,0,0,0,0,0,0,0,0,0,0,0,0,0,0,0,0,0,0,0,0,0,0,0,0,0,0,0,0,0,0,0,0,0,0,0,0,0,0,0,0,0,0,0,0,0,0,0,0,0,0,0,0,0,0,0,0,0,0,0,0,0,0,0,0,0,0,0,0,0,0,0,0,0,0,0,0,0,0,0,0,0,0,0,0,0,0,0,0,0,0,0,0,0,0,0,0,0,0,0,0,0,0,0,0,0,0,0,0,0,0,0,0,0,0,0,0,0,0,0,0,0,0,0,0,0,0,0,0,0,0,0,0,0,0,0,0,0,0,0,0,0,0,0,0,0,0,0,0,0,0,0,0,0,0,0,0,0,0,0,0,0,0,0,0,0,0,0,0,0,0,0,0,0,0,0,0,0,0,0,0,0,0,0,0,0,0,0,0,0,0,0,0,0,0,0,0,0,0,0,0,0,0,0,0,0,0,0,0,0,0,0,0,0,0,0,0,0,0,0,0,0,0,0,0,0,0,0,0,0,0,0,0,0,0,0,0,0,0,0,0,0,0,0,0,0,0,0,0,0,0,0,0,0,0,0,0,0,0,0,0,0,0,0,0,0,0,0,0,0,0,0,0,0,0,0,0,0,0,0,0,0,0,0,0,0,0,0,0,0,0,0,0,0,0,0,0,0,0,0,0,0,0,0,0,0,0,0,0,0,0,0,0,0,0,0,0,0,0,0,0,0,0,0,0,0,0,0,0,0,0,0,0,0,0,0,0,0,0,0,0,0,0,0,0,0,0,0,0,0,0,0,0,0,0,0,0,0,0,0,0,0,0,0,0,0,0,0,0,0,0,0,0,0,0,0,0,0,0,0,0,0,0,0,0,0,0,0,0,0,0,0,0,0,0,0,0,0,0,0,0,0,0,0,0,0,0,0,0,0,0,0,0,0,0,0,0,0,0,0,0,0,0,0,0,0,0,0,0,0,0,0,0,0,0,0,0,0,0,0,0,0,0,0,0,0,0,0,0,0,0,0,0,0,0,0,0,0,0,0,0,0,0,0,0,0,0,0,0,0,0,0,0,0,0,0,0,0,0,0,0,0,0,0,0,0,0,0,0,0,0,0,0,0,0,0,0,0,0,0,0,0,0,0,0,0,0,0,0,0,0,0,0,0,0,0,0,0,0,0,0,0,0,0,0,0,0,0,0,0,0,0,0,0,0,0,0,0,0,0,0,0,0,0,0,0,0,0,0,0,0,0,0,0,0,0,0,0,0,0,0,0,0,0,0,0,0,0,0,0,0,0,0,0,0,0,0,0,0,0,
0,0,0,0,0,0,0,0,0,0,0,0,0,0,0,0,0,0,0,0,0,0,0,0,0,0,0,0,0,0,0,0,0,0,0,0,0,0,0,0,0,0,0,0,0,0,0,0,0,0,0,0,0,0,0,0,0,0,0,0,0,0,0,0,0,0,0,0,0,0,0,0,0,0,0,0,0,0,0,0,0,0,0,0,0,0,0,0,0,0,0,0,0,0,0,0,0,0,0,0,0,0,0,0,0,0,0,0,0,0,0,0,0,0,0,0,0,0,0,0,0,0,0,0,0,0,0,0,0,0,0,0,0,0,0,0,0,0,0,0,0,0,0,0,0,0,0,0,0,0,0,0,0,0,0,0,0,0,0,0,0,0,0,0,0,0,0,0,0,0,0,0,0,0,0,0,0,0,0,0,0,0,0,0,0,0,0,0,0,0,0,0,0,0,0,0,0,0,0,0,0,0,0,0,0,0,0,0,0,0,0,0,0,0,0,0,0,0,0,0,0,0,0,0,0,0,0,0,0,0,0,0,0,0,0,0,0,0,0,0,0,0,0,0,0,0,0,0,0,0,0,0,0,0,0,0,0,0,0,0,0,0,0,0,0,0,0,0,0,0,0,0,0,0,0,0,0,0,0,0,0,0,0,0,0,0,0,0,0,0,0,0,0,0,0,0,0,0,0,0,0,0,0,0,0,0,0,0,0,0,0,0,0,0,0,0,0,0,0,0,0,0,0,0,0,0,0,0,0,0,0,0,0,0,0,0,0,0,0,0,0,0,0,0,0,0,0,0,0,0,0,0,0,0,0,0,0,0,0,0,0,0,0,0,0,0,0,0,0,0,0,0,0,0,0,0,0,0,0,0,0,0,0,0,0,0,0,0,0,0,0,0,0,0,0,0,0,0,0,0,0,0,0,0,0,0,0,0,0,0,0,0,0,0,0,0,0,0,0,0,0,0,0,0,0,0,0,0,0,0,0,0,0,0,0,0,0,0,0,0,0,0,0,0,0,0,0,0,0,0,0,0,0,0,0,0,0,0,0,0,0,0,0,0,0,0,0,0,0,0,0,0,0,0,0,0,0,0,0,0,0,0,0,0,0,0,0,0,0,0,0,0,0,0,0,0,0,0,0,0,0,0,0,0,0,0,0,0,0,0,0,0,0,0,0,0,0,0,0,0,0,0,0,0,0,0,0,0,0,0,0,0,0,0,0,0,0,0,0,0,0,0,0,0,0,0,0,0,0,0,0,0,0,0,0,0,0,0,0,0,0,0,0,0,0,0,0,0,0,0,0,0,0,0,0,0,0,0,0,0,0,0,0,0,0,0,0,0,0,0,0,0,0,0,0,0,0,0,0,0,0,0,0,0,0,0,0,0,0,0,0,0,0,0,0,0,0,0,0,0,0,0,0,0,0,0,0,0,0,0,0,0,0,0,0,0,0,0,0,0,0,0,0,0,0,0,0,0,0,0,0,0,0,0,0,0,0,0,0,0,0,0,0,0,0,0,0,0,0,0,0,0,0,0,0,0,0,0,0,0,0,0,0,0,0,0,0,0,0,0,0,0,0,0,0,0,0,0,0,0,0,0,0,0,0,0,0,0,0,0,0,0,0,0,0,0,0,0,0,0,0,0,0,0,0,0,0,0,0,0,0,0,0,0,0,0,0,0,0,0,0,0,0,0,0,0,0,0,0,0,0,0,0,0,0,0,0,0,0,0,0,0,0,0,0,0,0,0,0,0,0,0,0,0,0,0,0,0,0,0,0,0,0,0,0,0,0,0,0,0,0,0,0,0,0,0,0,0,0,0,0,0,0,0,0,0,0,0,0,0,0,0,0,0,0,0,0,0,0,0,0,0,0,0,0,0,0,0,0,0,0,0,0,0,0,0,0,0,0,0,0,0,0,0,0,0,0,0,0,0,0,0,0,0,0,0,0,0,0,0,0,0,0,0,0,0,0,0,0,0,0,0,0,0,0,0,0,0,0,0,0,0,0,0,0,0,0,0,0,0,0,0,0,0,0,0,0,0,0,0,0,0,0,0,0,0,0,0,0,0,0,0,0,0,0,0,0,0,0,0,0,0,0,0,0,0,0,0,0,0,0,0,0,0,0,0,0,0,0,0,0,0,0,0,0,0,0,0,0,0,0,0,0,0,0,0,0,0,0,0,0,0,0,0,0,0,0,0,0,0,0,0,0,0,0,0,0,0,0,0,0,0,0,0,0,0,0,0,0,0,0,0,0,0,0,0,0,0,0,0,
0,0,0,0,0,0,0,0,0,0,0,0,0,0,0,0,0,0,0,0,0,0,0,0,0,0,0,0,0,0,0,0,0,0,0,0,0,0,0,0,0,0,0,0,0,0,0,0,0,0,0,0,0,0,0,0,0,0,0,0,0,0,0,0,0,0,0,0,0,0,0,0,0,0,0,0,0,0,0,0,0,0,0,0,0,0,0,0,0,0,0,0,0,0,0,0,0,0,0,0,0,0,0,0,0,0,0,0,0,0,0,0,0,0,0,0,0,0,0,0,0,0,0,0,0,0,0,0,0,0,0,0,0,0,0,0,0,0,0,0,0,0,0,0,0,0,0,0,0,0,0,0,0,0,0,0,0,0,0,0,0,0,0,0,0,0,0,0,0,0,0,0,0,0,0,0,0,0,0,0,0,0,0,0,0,0,0,0,0,0,0,0,0,0,0,0,0,0,0,0,0,0,0,0,0,0,0,0,0,0,0,0,0,0,0,0,0,0,0,0,0,0,0,0,0,0,0,0,0,0,0,0,0,0,0,0,0,0,0,0,0,0,0,0,0,0,0,0,0,0,0,0,0,0,0,0,0,0,0,0,0,0,0,0,0,0,0,0,0,0,0,0,0,0,0,0,0,0,0,0,0,0,0,0,0,0,0,0,0,0,0,0,0,0,0,0,0,0,0,0,0,0,0,0,0,0,0,0,0,0,0,0,0,0,0,0,0,0,0,0,0,0,0,0,0,0,0,0,0,0,0,0,0,0,0,0,0,0,0,0,0,0,0,0,0,0,0,0,0,0,0,0,0,0,0,0,0,0,0,0,0,0,0,0,0,0,0,0,0,0,0,0,0,0,0,0,0,0,0,0,0,0,0,0,0,0,0,0,0,0,0,0,0,0,0,0,0,0,0,0,0,0,0,0,0,0,0,0,0,0,0,0,0,0,0,0,0,0,0,0,0,0,0,0,0,0,0,0,0,0,0,0,0,0,0,0,0,0,0,0,0,0,0,0,0,0,0,0,0,0,0,0,0,0,0,0,0,0,0,0,0,0,0,0,0,0,0,0,0,0,0,0,0,0,0,0,0,0,0,0,0,0,0,0,0,0,0,0,0,0,0,0,0,0,0,0,0,0,0,0,0,0,0,0,0,0,0,0,0,0,0,0,0,0,0,0,0,0,0,0,0,0,0,0,0,0,0,0,0,0,0,0,0,0,0,0,0,0,0,0,0,0,0,0,0,0,0,0,0,0,0,0,0,0,0,0,0,0,0,0,0,0,0,0,0,0,0,0,0,0,0,0,0,0,0,0,0,0,0,0,0,0,0,0,0,0,0,0,0,0,0,0,0,0,0,0,0,0,0,0,0,0,0,0,0,0,0,0,0,0,0,0,0,0,0,0,0,0,0,0,0,0,0,0,0,0,0,0,0,0,0,0,0,0,0,0,0,0,0,0,0,0,0,0,0,0,0,0,0,0,0,0,0,0,0,0,0,0,0,0,0,0,0,0,0,0,0,0,0,0,0,0,0,0,0,0,0,0,0,0,0,0,0,0,0,0,0,0,0,0,0,0,0,0,0,0,0,0,0,0,0,0,0,0,0,0,0,0,0,0,0,0,0,0,0,0,0,0,0,0,0,0,0,0,0,0,0,0,0,0,0,0,0,0,0,0,0,0,0,0,0,0,0,0,0,0,0,0,0,0,0,0,0,0,0,0,0,0,0,0,0,0,0,0,0,0,0,0,0,0,0,0,0,0,0,0,0,0,0,0,0,0,0,0,0,0,0,0,0,0,0,0,0,0,0,0,0,0,0,0,0,0,0,0,0,0,0,0,0,0,0,0,0,0,0,0,0,0,0,0,0,0,0,0,0,0,0,0,0,0,0,0,0,0,0,0,0,0,0,0,0,0,0,0,0,0,0,0,0,0,0,0,0,0,0,0,0,0,0,0,0,0,0,0,0,0,0,0,0,0,0,0,0,0,0,0,0,0,0,0,0,0,0,0,0,0,0,0,0,0,0,0,0,0,0,0,0,0,0,0,0,0,0,0,0,0,0,0,0,0,0,0,0,0,0,0,0,0,0,0,0,0,0,0,0,0,0,0,0,0,0,0,0,0,0,0,0,0,0,0,0,0,0,0,0,0,0,0,0,0,0,0,0,0,0,0,0,0,0,0,0,0,0,0,0,0,0,0,0,0,0,0,0,0,0,0,0,0,0,0,0,0,0,0,0,0,0,0,0,0,0,0,0,0,0,0,0,0,0,0,
0,0,0,0,0,0,0,0,0,0,0,0,0,0,0,0,0,0,0,0,0,0,0,0,0,0,0,0,0,0,0,0,0,0,0,0,0,0,0,0,0,0,0,0,0,0,0,0,0,0,0,0,0,0,0,0,0,0,0,0,0,0,0,0,0,0,0,0,0,0,0,0,0,0,0,0,0,0,0,0,0,0,0,0,0,0,0,0,0,0,0,0,0,0,0,0,0,0,0,0,0,0,0,0,0,0,0,0,0,0,0,0,0,0,0,0,0,0,0,0,0,0,0,0,0,0,0,0,0,0,0,0,0,0,0,0,0,0,0,0,0,0,0,0,0,0,0,0,0,0,0,0,0,0,0,0,0,0,0,0,0,0,0,0,0,0,0,0,0,0,0,0,0,0,0,0,0,0,0,0,0,0,0,0,0,0,0,0,0,0,0,0,0,0,0,0,0,0,0,0,0,0,0,0,0,0,0,0,0,0,0,0,0,0,0,0,0,0,0,0,0,0,0,0,0,0,0,0,0,0,0,0,0,0,0,0,0,0,0,0,0,0,0,0,0,0,0,0,0,0,0,0,0,0,0,0,0,0,0,0,0,0,0,0,0,0,0,0,0,0,0,0,0,0,0,0,0,0,0,0,0,0,0,0,0,0,0,0,0,0,0,0,0,0,0,0,0,0,0,0,0,0,0,0,0,0,0,0,0,0,0,0,0,0,0,0,0,0,0,0,0,0,0,0,0,0,0,0,0,0,0,0,0,0,0,0,0,0,0,0,0,0,0,0,0,0,0,0,0,0,0,0,0,0,0,0,0,0,0,0,0,0,0,0,0,0,0,0,0,0,0,0,0,0,0,0,0,0,0,0,0,0,0,0,0,0,0,0,0,0,0,0,0,0,0,0,0,0,0,0,0,0,0,0,0,0,0,0,0,0,0,0,0,0,0,0,0,0,0,0,0,0,0,0,0,0,0,0,0,0,0,0,0,0,0,0,0,0,0,0,0,0,0,0,0,0,0,0,0,0,0,0,0,0,0,0,0,0,0,0,0,0,0,0,0,0,0,0,0,0,0,0,0,0,0,0,0,0,0,0,0,0,0,0,0,0,0,0,0,0,0,0,0,0,0,0,0,0,0,0,0,0,0,0,0,0,0,0,0,0,0,0,0,0,0,0,0,0,0,0,0,0,0,0,0,0,0,0,0,0,0,0,0,0,0,0,0,0,0,0,0,0,0,0,0,0,0,0,0,0,0,0,0,0,0,0,0,0,0,0,0,0,0,0,0,0,0,0,0,0,0,0,0,0,0,0,0,0,0,0,0,0,0,0,0,0,0,0,0,0,0,0,0,0,0,0,0,0,0,0,0,0,0,0,0,0,0,0,0,0,0,0,0,0,0,0,0,0,0,0,0,0,0,0,0,0,0,0,0,0,0,0,0,0,0,0,0,0,0,0,0,0,0,0,0,0,0,0,0,0,0,0,0,0,0,0,0,0,0,0,0,0,0,0,0,0,0,0,0,0,0,0,0,0,0,0,0,0,0,0,0,0,0,0,0,0,0,0,0,0,0,0,0,0,0,0,0,0,0,0,0,0,0,0,0,0,0,0,0,0,0,0,0,0,0,0,0,0,0,0,0,0,0,0,0,0,0,0,0,0,0,0,0,0,0,0,0,0,0,0,0,0,0,0,0,0,0,0,0,0,0,0,0,0,0,0,0,0,0,0,0,0,0,0,0,0,0,0,0,0,0,0,0,0,0,0,0,0,0,0,0,0,0,0,0,0,0,0,0,0,0,0,0,0,0,0,0,0,0,0,0,0,0,0,0,0,0,0,0,0,0,0,0,0,0,0,0,0,0,0,0,0,0,0,0,0,0,0,0,0,0,0,0,0,0,0,0,0,0,0,0,0,0,0,0,0,0,0,0,0,0,0,0,0,0,0,0,0,0,0,0,0,0,0,0,0,0,0,0,0,0,0,0,0,0,0,0,0,0,0,0,0,0,0,0,0,0,0,0,0,0,0,0,0,0,0,0,0,0,0,0,0,0,0,0,0,0,0,0,0,0,0,0,0,0,0,0,0,0,0,0,0,0,0,0,0,0,0,0,0,0,0,0,0,0,0,0,0,0,0,0,0,0,0,0,0,0,0,0,0,0,0,0,0,0,0,0,0,0,0,0,0,0,0,0,0,0,0,0,0,0,0,0,0,0,0,0,0,0,0,0,0,0,0,0,0,0,0,0,0,0,0,0,0,0,0,0,0,0,0,
0,0,0,0,0,0,0,0,0,0,0,0,0,0,0,0,0,0,0,0,0,0,0,0,0,0,0,0,0,0,0,0,0,0,0,0,0,0,0,0,0,0,0,0,0,0,0,0,0,0,0,0,0,0,0,0,0,0,0,0,0,0,0,0,0,0,0,0,0,0,0,0,0,0,0,0,0,0,0,0,0,0,0,0,0,0,0,0,0,0,0,0,0,0,0,0,0,0,0,0,0,0,0,0,0,0,0,0,0,0,0,0,0,0,0,0,0,0,0,0,0,0,0,0,0,0,0,0,0,0,0,0,0,0,0,0,0,0,0,0,0,0,0,0,0,0,0,0,0,0,0,0,0,0,0,0,0,0,0,0,0,0,0,0,0,0,0,0,0,0,0,0,0,0,0,0,0,0,0,0,0,0,0,0,0,0,0,0,0,0,0,0,0,0,0,0,0,0,0,0,0,0,0,0,0,0,0,0,0,0,0,0,0,0,0,0,0,0,0,0,0,0,0,0,0,0,0,0,0,0,0,0,0,0,0,0,0,0,0,0,0,0,0,0,0,0,0,0,0,0,0,0,0,0,0,0,0,0,0,0,0,0,0,0,0,0,0,0,0,0,0,0,0,0,0,0,0,0,0,0,0,0,0,0,0,0,0,0,0,0,0,0,0,0,0,0,0,0,0,0,0,0,0,0,0,0,0,0,0,0,0,0,0,0,0,0,0,0,0,0,0,0,0,0,0,0,0,0,0,0,0,0,0,0,0,0,0,0,0,0,0,0,0,0,0,0,0,0,0,0,0,0,0,0,0,0,0,0,0,0,0,0,0,0,0,0,0,0,0,0,0,0,0,0,0,0,0,0,0,0,0,0,0,0,0,0,0,0,0,0,0,0,0,0,0,0,0,0,0,0,0,0,0,0,0,0,0,0,0,0,0,0,0,0,0,0,0,0,0,0,0,0,0,0,0,0,0,0,0,0,0,0,0,0,0,0,0,0,0,0,0,0,0,0,0,0,0,0,0,0,0,0,0,0,0,0,0,0,0,0,0,0,0,0,0,0,0,0,0,0,0,0,0,0,0,0,0,0,0,0,0,0,0,0,0,0,0,0,0,0,0,0,0,0,0,0,0,0,0,0,0,0,0,0,0,0,0,0,0,0,0,0,0,0,0,0,0,0,0,0,0,0,0,0,0,0,0,0,0,0,0,0,0,0,0,0,0,0,0,0,0,0,0,0,0,0,0,0,0,0,0,0,0,0,0,0,0,0,0,0,0,0,0,0,0,0,0,0,0,0,0,0,0,0,0,0,0,0,0,0,0,0,0,0,0,0,0,0,0,0,0,0,0,0,0,0,0,0,0,0,0,0,0,0,0,0,0,0,0,0,0,0,0,0,0,0,0,0,0,0,0,0,0,0,0,0,0,0,0,0,0,0,0,0,0,0,0,0,0,0,0,0,0,0,0,0,0,0,0,0,0,0,0,0,0,0,0,0,0,0,0,0,0,0,0,0,0,0,0,0,0,0,0,0,0,0,0,0,0,0,0,0,0,0,0,0,0,0,0,0,0,0,0,0,0,0,0,0,0,0,0,0,0,0,0,0,0,0,0,0,0,0,0,0,0,0,0,0,0,0,0,0,0,0,0,0,0,0,0,0,0,0,0,0,0,0,0,0,0,0,0,0,0,0,0,0,0,0,0,0,0,0,0,0,0,0,0,0,0,0,0,0,0,0,0,0,0,0,0,0,0,0,0,0,0,0,0,0,0,0,0,0,0,0,0,0,0,0,0,0,0,0,0,0,0,0,0,0,0,0,0,0,0,0,0,0,0,0,0,0,0,0,0,0,0,0,0,0,0,0,0,0,0,0,0,0,0,0,0,0,0,0,0,0,0,0,0,0,0,0,0,0,0,0,0,0,0,0,0,0,0,0,0,0,0,0,0,0,0,0,0,0,0,0,0,0,0,0,0,0,0,0,0,0,0,0,0,0,0,0,0,0,0,0,0,0,0,0,0,0,0,0,0,0,0,0,0,0,0,0,0,0,0,0,0,0,0,0,0,0,0,0,0,0,0,0,0,0,0,0,0,0,0,0,0,0,0,0,0,0,0,0,0,0,0,0,0,0,0,0,0,0,0,0,0,0,0,0,0,0,0,0,0,0,0,0,0,0,0,0,0,0,0,0,0,0,0,0,0,0,0,0,0,0,0,0,0,0,0,0,0,0,0,0,0,0,0,0,0,0,0,0,0,0,0,0,0,0,0,0,
0,0,0,0,0,0,0,0,0,0,0,0,0,0,0,0,0,0,0,0,0,0,0,0,0,0,0,0,0,0,0,0,0,0,0,0,0,0,0,0,0,0,0,0,0,0,0,0,0,0,0,0,0,0,0,0,0,0,0,0,0,0,0,0,0,0,0,0,0,0,0,0,0,0,0,0,0,0,0,0,0,0,0,0,0,0,0,0,0,0,0,0,0,0,0,0,0,0,0,0,0,0,0,0,0,0,0,0,0,0,0,0,0,0,0,0,0,0,0,0,0,0,0,0,0,0,0,0,0,0,0,0,0,0,0,0,0,0,0,0,0,0,0,0,0,0,0,0,0,0,0,0,0,0,0,0,0,0,0,0,0,0,0,0,0,0,0,0,0,0,0,0,0,0,0,0,0,0,0,0,0,0,0,0,0,0,0,0,0,0,0,0,0,0,0,0,0,0,0,0,0,0,0,0,0,0,0,0,0,0,0,0,0,0,0,0,0,0,0,0,0,0,0,0,0,0,0,0,0,0,0,0,0,0,0,0,0,0,0,0,0,0,0,0,0,0,0,0,0,0,0,0,0,0,0,0,0,0,0,0,0,0,0,0,0,0,0,0,0,0,0,0,0,0,0,0,0,0,0,0,0,0,0,0,0,0,0,0,0,0,0,0,0,0,0,0,0,0,0,0,0,0,0,0,0,0,0,0,0,0,0,0,0,0,0,0,0,0,0,0,0,0,0,0,0,0,0,0,0,0,0,0,0,0,0,0,0,0,0,0,0,0,0,0,0,0,0,0,0,0,0,0,0,0,0,0,0,0,0,0,0,0,0,0,0,0,0,0,0,0,0,0,0,0,0,0,0,0,0,0,0,0,0,0,0,0,0,0,0,0,0,0,0,0,0,0,0,0,0,0,0,0,0,0,0,0,0,0,0,0,0,0,0,0,0,0,0,0,0,0,0,0,0,0,0,0,0,0,0,0,0,0,0,0,0,0,0,0,0,0,0,0,0,0,0,0,0,0,0,0,0,0,0,0,0,0,0,0,0,0,0,0,0,0,0,0,0,0,0,0,0,0,0,0,0,0,0,0,0,0,0,0,0,0,0,0,0,0,0,0,0,0,0,0,0,0,0,0,0,0,0,0,0,0,0,0,0,0,0,0,0,0,0,0,0,0,0,0,0,0,0,0,0,0,0,0,0,0,0,0,0,0,0,0,0,0,0,0,0,0,0,0,0,0,0,0,0,0,0,0,0,0,0,0,0,0,0,0,0,0,0,0,0,0,0,0,0,0,0,0,0,0,0,0,0,0,0,0,0,0,0,0,0,0,0,0,0,0,0,0,0,0,0,0,0,0,0,0,0,0,0,0,0,0,0,0,0,0,0,0,0,0,0,0,0,0,0,0,0,0,0,0,0,0,0,0,0,0,0,0,0,0,0,0,0,0,0,0,0,0,0,0,0,0,0,0,0,0,0,0,0,0,0,0,0,0,0,0,0,0,0,0,0,0,0,0,0,0,0,0,0,0,0,0,0,0,0,0,0,0,0,0,0,0,0,0,0,0,0,0,0,0,0,0,0,0,0,0,0,0,0,0,0,0,0,0,0,0,0,0,0,0,0,0,0,0,0,0,0,0,0,0,0,0,0,0,0,0,0,0,0,0,0,0,0,0,0,0,0,0,0,0,0,0,0,0,0,0,0,0,0,0,0,0,0,0,0,0,0,0,0,0,0,0,0,0,0,0,0,0,0,0,0,0,0,0,0,0,0,0,0,0,0,0,0,0,0,0,0,0,0,0,0,0,0,0,0,0,0,0,0,0,0,0,0,0,0,0,0,0,0,0,0,0,0,0,0,0,0,0,0,0,0,0,0,0,0,0,0,0,0,0,0,0,0,0,0,0,0,0,0,0,0,0,0,0,0,0,0,0,0,0,0,0,0,0,0,0,0,0,0,0,0,0,0,0,0,0,0,0,0,0,0,0,0,0,0,0,0,0,0,0,0,0,0,0,0,0,0,0,0,0,0,0,0,0,0,0,0,0,0,0,0,0,0,0,0,0,0,0,0,0,0,0,0,0,0,0,0,0,0,0,0,0,0,0,0,0,0,0,0,0,0,0,0,0,0,0,0,0,0,0,0,0,0,0,0,0,0,0,0,0,0,0,0,0,0,0,0,0,0,0,0,0,0,0,0,0,0,0,0,0,0,0,0,0,0,0,0,0,0,0,0,0,0,0,0,0,0,0,0,0,0,0,0,0,0,0,0,0,
0,0,0,0,0,0,0,0,0,0,0,0,0,0,0,0,0,0,0,0,0,0,0,0,0,0,0,0,0,0,0,0,0,0,0,0,0,0,0,0,0,0,0,0,0,0,0,0,0,0,0,0,0,0,0,0,0,0,0,0,0,0,0,0,0,0,0,0,0,0,0,0,0,0,0,0,0,0,0,0,0,0,0,0,0,0,0,0,0,0,0,0,0,0,0,0,0,0,0,0,0,0,0,0,0,0,0,0,0,0,0,0,0,0,0,0,0,0,0,0,0,0,0,0,0,0,0,0,0,0,0,0,0,0,0,0,0,0,0,0,0,0,0,0,0,0,0,0,0,0,0,0,0,0,0,0,0,0,0,0,0,0,0,0,0,0,0,0,0,0,0,0,0,0,0,0,0,0,0,0,0,0,0,0,0,0,0,0,0,0,0,0,0,0,0,0,0,0,0,0,0,0,0,0,0,0,0,0,0,0,0,0,0,0,0,0,0,0,0,0,0,0,0,0,0,0,0,0,0,0,0,0,0,0,0,0,0,0,0,0,0,0,0,0,0,0,0,0,0,0,0,0,0,0,0,0,0,0,0,0,0,0,0,0,0,0,0,0,0,0,0,0,0,0,0,0,0,0,0,0,0,0,0,0,0,0,0,0,0,0,0,0,0,0,0,0,0,0,0,0,0,0,0,0,0,0,0,0,0,0,0,0,0,0,0,0,0,0,0,0,0,0,0,0,0,0,0,0,0,0,0,0,0,0,0,0,0,0,0,0,0,0,0,0,0,0,0,0,0,0,0,0,0,0,0,0,0,0,0,0,0,0,0,0,0,0,0,0,0,0,0,0,0,0,0,0,0,0,0,0,0,0,0,0,0,0,0,0,0,0,0,0,0,0,0,0,0,0,0,0,0,0,0,0,0,0,0,0,0,0,0,0,0,0,0,0,0,0,0,0,0,0,0,0,0,0,0,0,0,0,0,0,0,0,0,0,0,0,0,0,0,0,0,0,0,0,0,0,0,0,0,0,0,0,0,0,0,0,0,0,0,0,0,0,0,0,0,0,0,0,0,0,0,0,0,0,0,0,0,0,0,0,0,0,0,0,0,0,0,0,0,0,0,0,0,0,0,0,0,0,0,0,0,0,0,0,0,0,0,0,0,0,0,0,0,0,0,0,0,0,0,0,0,0,0,0,0,0,0,0,0,0,0,0,0,0,0,0,0,0,0,0,0,0,0,0,0,0,0,0,0,0,0,0,0,0,0,0,0,0,0,0,0,0,0,0,0,0,0,0,0,0,0,0,0,0,0,0,0,0,0,0,0,0,0,0,0,0,0,0,0,0,0,0,0,0,0,0,0,0,0,0,0,0,0,0,0,0,0,0,0,0,0,0,0,0,0,0,0,0,0,0,0,0,0,0,0,0,0,0,0,0,0,0,0,0,0,0,0,0,0,0,0,0,0,0,0,0,0,0,0,0,0,0,0,0,0,0,0,0,0,0,0,0,0,0,0,0,0,0,0,0,0,0,0,0,0,0,0,0,0,0,0,0,0,0,0,0,0,0,0,0,0,0,0,0,0,0,0,0,0,0,0,0,0,0,0,0,0,0,0,0,0,0,0,0,0,0,0,0,0,0,0,0,0,0,0,0,0,0,0,0,0,0,0,0,0,0,0,0,0,0,0,0,0,0,0,0,0,0,0,0,0,0,0,0,0,0,0,0,0,0,0,0,0,0,0,0,0,0,0,0,0,0,0,0,0,0,0,0,0,0,0,0,0,0,0,0,0,0,0,0,0,0,0,0,0,0,0,0,0,0,0,0,0,0,0,0,0,0,0,0,0,0,0,0,0,0,0,0,0,0,0,0,0,0,0,0,0,0,0,0,0,0,0,0,0,0,0,0,0,0,0,0,0,0,0,0,0,0,0,0,0,0,0,0,0,0,0,0,0,0,0,0,0,0,0,0,0,0,0,0,0,0,0,0,0,0,0,0,0,0,0,0,0,0,0,0,0,0,0,0,0,0,0,0,0,0,0,0,0,0,0,0,0,0,0,0,0,0,0,0,0,0,0,0,0,0,0,0,0,0,0,0,0,0,0,0,0,0,0,0,0,0,0,0,0,0,0,0,0,0,0,0,0,0,0,0,0,0,0,0,0,0,0,0,0,0,0,0,0,0,0,0,0,0,0,0,0,0,0,0,0,0,0,0,0,0,0,0,0,0,0,0,0,0,0,0,0,0,0,0,0,0,0,0,0,0,0,0,
0,0,0,0,0,0,0,0,0,0,0,0,0,0,0,0,0,0,0,0,0,0,0,0,0,0,0,0,0,0,0,0,0,0,0,0,0,0,0,0,0,0,0,0,0,0,0,0,0,0,0,0,0,0,0,0,0,0,0,0,0,0,0,0,0,0,0,0,0,0,0,0,0,0,0,0,0,0,0,0,0,0,0,0,0,0,0,0,0,0,0,0,0,0,0,0,0,0,0,0,0,0,0,0,0,0,0,0,0,0,0,0,0,0,0,0,0,0,0,0,0,0,0,0,0,0,0,0,0,0,0,0,0,0,0,0,0,0,0,0,0,0,0,0,0,0,0,0,0,0,0,0,0,0,0,0,0,0,0,0,0,0,0,0,0,0,0,0,0,0,0,0,0,0,0,0,0,0,0,0,0,0,0,0,0,0,0,0,0,0,0,0,0,0,0,0,0,0,0,0,0,0,0,0,0,0,0,0,0,0,0,0,0,0,0,0,0,0,0,0,0,0,0,0,0,0,0,0,0,0,0,0,0,0,0,0,0,0,0,0,0,0,0,0,0,0,0,0,0,0,0,0,0,0,0,0,0,0,0,0,0,0,0,0,0,0,0,0,0,0,0,0,0,0,0,0,0,0,0,0,0,0,0,0,0,0,0,0,0,0,0,0,0,0,0,0,0,0,0,0,0,0,0,0,0,0,0,0,0,0,0,0,0,0,0,0,0,0,0,0,0,0,0,0,0,0,0,0,0,0,0,0,0,0,0,0,0,0,0,0,0,0,0,0,0,0,0,0,0,0,0,0,0,0,0,0,0,0,0,0,0,0,0,0,0,0,0,0,0,0,0,0,0,0,0,0,0,0,0,0,0,0,0,0,0,0,0,0,0,0,0,0,0,0,0,0,0,0,0,0,0,0,0,0,0,0,0,0,0,0,0,0,0,0,0,0,0,0,0,0,0,0,0,0,0,0,0,0,0,0,0,0,0,0,0,0,0,0,0,0,0,0,0,0,0,0,0,0,0,0,0,0,0,0,0,0,0,0,0,0,0,0,0,0,0,0,0,0,0,0,0,0,0,0,0,0,0,0,0,0,0,0,0,0,0,0,0,0,0,0,0,0,0,0,0,0,0,0,0,0,0,0,0,0,0,0,0,0,0,0,0,0,0,0,0,0,0,0,0,0,0,0,0,0,0,0,0,0,0,0,0,0,0,0,0,0,0,0,0,0,0,0,0,0,0,0,0,0,0,0,0,0,0,0,0,0,0,0,0,0,0,0,0,0,0,0,0,0,0,0,0,0,0,0,0,0,0,0,0,0,0,0,0,0,0,0,0,0,0,0,0,0,0,0,0,0,0,0,0,0,0,0,0,0,0,0,0,0,0,0,0,0,0,0,0,0,0,0,0,0,0,0,0,0,0,0,0,0,0,0,0,0,0,0,0,0,0,0,0,0,0,0,0,0,0,0,0,0,0,0,0,0,0,0,0,0,0,0,0,0,0,0,0,0,0,0,0,0,0,0,0,0,0,0,0,0,0,0,0,0,0,0,0,0,0,0,0,0,0,0,0,0,0,0,0,0,0,0,0,0,0,0,0,0,0,0,0,0,0,0,0,0,0,0,0,0,0,0,0,0,0,0,0,0,0,0,0,0,0,0,0,0,0,0,0,0,0,0,0,0,0,0,0,0,0,0,0,0,0,0,0,0,0,0,0,0,0,0,0,0,0,0,0,0,0,0,0,0,0,0,0,0,0,0,0,0,0,0,0,0,0,0,0,0,0,0,0,0,0,0,0,0,0,0,0,0,0,0,0,0,0,0,0,0,0,0,0,0,0,0,0,0,0,0,0,0,0,0,0,0,0,0,0,0,0,0,0,0,0,0,0,0,0,0,0,0,0,0,0,0,0,0,0,0,0,0,0,0,0,0,0,0,0,0,0,0,0,0,0,0,0,0,0,0,0,0,0,0,0,0,0,0,0,0,0,0,0,0,0,0,0,0,0,0,0,0,0,0,0,0,0,0,0,0,0,0,0,0,0,0,0,0,0,0,0,0,0,0,0,0,0,0,0,0,0,0,0,0,0,0,0,0,0,0,0,0,0,0,0,0,0,0,0,0,0,0,0,0,0,0,0,0,0,0,0,0,0,0,0,0,0,0,0,0,0,0,0,0,0,0,0,0,0,0,0,0,0,0,0,0,0,0,0,0,0,0,0,0,0,0,0,0,0,0,0,0,0,0,0,0,0,0,0,0,0,0,0,0,0,0,
0,0,0,0,0,0,0,0,0,0,0,0,0,0,0,0,0,0,0,0,0,0,0,0,0,0,0,0,0,0,0,0,0,0,0,0,0,0,0,0,0,0,0,0,0,0,0,0,0,0,0,0,0,0,0,0,0,0,0,0,0,0,0,0,0,0,0,0,0,0,0,0,0,0,0,0,0,0,0,0,0,0,0,0,0,0,0,0,0,0,0,0,0,0,0,0,0,0,0,0,0,0,0,0,0,0,0,0,0,0,0,0,0,0,0,0,0,0,0,0,0,0,0,0,0,0,0,0,0,0,0,0,0,0,0,0,0,0,0,0,0,0,0,0,0,0,0,0,0,0,0,0,0,0,0,0,0,0,0,0,0,0,0,0,0,0,0,0,0,0,0,0,0,0,0,0,0,0,0,0,0,0,0,0,0,0,0,0,0,0,0,0,0,0,0,0,0,0,0,0,0,0,0,0,0,0,0,0,0,0,0,0,0,0,0,0,0,0,0,0,0,0,0,0,0,0,0,0,0,0,0,0,0,0,0,0,0,0,0,0,0,0,0,0,0,0,0,0,0,0,0,0,0,0,0,0,0,0,0,0,0,0,0,0,0,0,0,0,0,0,0,0,0,0,0,0,0,0,0,0,0,0,0,0,0,0,0,0,0,0,0,0,0,0,0,0,0,0,0,0,0,0,0,0,0,0,0,0,0,0,0,0,0,0,0,0,0,0,0,0,0,0,0,0,0,0,0,0,0,0,0,0,0,0,0,0,0,0,0,0,0,0,0,0,0,0,0,0,0,0,0,0,0,0,0,0,0,0,0,0,0,0,0,0,0,0,0,0,0,0,0,0,0,0,0,0,0,0,0,0,0,0,0,0,0,0,0,0,0,0,0,0,0,0,0,0,0,0,0,0,0,0,0,0,0,0,0,0,0,0,0,0,0,0,0,0,0,0,0,0,0,0,0,0,0,0,0,0,0,0,0,0,0,0,0,0,0,0,0,0,0,0,0,0,0,0,0,0,0,0,0,0,0,0,0,0,0,0,0,0,0,0,0,0,0,0,0,0,0,0,0,0,0,0,0,0,0,0,0,0,0,0,0,0,0,0,0,0,0,0,0,0,0,0,0,0,0,0,0,0,0,0,0,0,0,0,0,0,0,0,0,0,0,0,0,0,0,0,0,0,0,0,0,0,0,0,0,0,0,0,0,0,0,0,0,0,0,0,0,0,0,0,0,0,0,0,0,0,0,0,0,0,0,0,0,0,0,0,0,0,0,0,0,0,0,0,0,0,0,0,0,0,0,0,0,0,0,0,0,0,0,0,0,0,0,0,0,0,0,0,0,0,0,0,0,0,0,0,0,0,0,0,0,0,0,0,0,0,0,0,0,0,0,0,0,0,0,0,0,0,0,0,0,0,0,0,0,0,0,0,0,0,0,0,0,0,0,0,0,0,0,0,0,0,0,0,0,0,0,0,0,0,0,0,0,0,0,0,0,0,0,0,0,0,0,0,0,0,0,0,0,0,0,0,0,0,0,0,0,0,0,0,0,0,0,0,0,0,0,0,0,0,0,0,0,0,0,0,0,0,0,0,0,0,0,0,0,0,0,0,0,0,0,0,0,0,0,0,0,0,0,0,0,0,0,0,0,0,0,0,0,0,0,0,0,0,0,0,0,0,0,0,0,0,0,0,0,0,0,0,0,0,0,0,0,0,0,0,0,0,0,0,0,0,0,0,0,0,0,0,0,0,0,0,0,0,0,0,0,0,0,0,0,0,0,0,0,0,0,0,0,0,0,0,0,0,0,0,0,0,0,0,0,0,0,0,0,0,0,0,0,0,0,0,0,0,0,0,0,0,0,0,0,0,0,0,0,0,0,0,0,0,0,0,0,0,0,0,0,0,0,0,0,0,0,0,0,0,0,0,0,0,0,0,0,0,0,0,0,0,0,0,0,0,0,0,0,0,0,0,0,0,0,0,0,0,0,0,0,0,0,0,0,0,0,0,0,0,0,0,0,0,0,0,0,0,0,0,0,0,0,0,0,0,0,0,0,0,0,0,0,0,0,0,0,0,0,0,0,0,0,0,0,0,0,0,0,0,0,0,0,0,0,0,0,0,0,0,0,0,0,0,0,0,0,0,0,0,0,0,0,0,0,0,0,0,0,0,0,0,0,0,0,0,0,0,0,0,0,0,0,0,0,0,0,0,0,0,0,0,0,0,0,0,0,0,0,0,0,0,0,0,0,0,0,0,0,0,0,0,
0,0,0,0,0,0,0,0,0,0,0,0,0,0,0,0,0,0,0,0,0,0,0,0,0,0,0,0,0,0,0,0,0,0,0,0,0,0,0,0,0,0,0,0,0,0,0,0,0,0,0,0,0,0,0,0,0,0,0,0,0,0,0,0,0,0,0,0,0,0,0,0,0,0,0,0,0,0,0,0,0,0,0,0,0,0,0,0,0,0,0,0,0,0,0,0,0,0,0,0,0,0,0,0,0,0,0,0,0,0,0,0,0,0,0,0,0,0,0,0,0,0,0,0,0,0,0,0,0,0,0,0,0,0,0,0,0,0,0,0,0,0,0,0,0,0,0,0,0,0,0,0,0,0,0,0,0,0,0,0,0,0,0,0,0,0,0,0,0,0,0,0,0,0,0,0,0,0,0,0,0,0,0,0,0,0,0,0,0,0,0,0,0,0,0,0,0,0,0,0,0,0,0,0,0,0,0,0,0,0,0,0,0,0,0,0,0,0,0,0,0,0,0,0,0,0,0,0,0,0,0,0,0,0,0,0,0,0,0,0,0,0,0,0,0,0,0,0,0,0,0,0,0,0,0,0,0,0,0,0,0,0,0,0,0,0,0,0,0,0,0,0,0,0,0,0,0,0,0,0,0,0,0,0,0,0,0,0,0,0,0,0,0,0,0,0,0,0,0,0,0,0,0,0,0,0,0,0,0,0,0,0,0,0,0,0,0,0,0,0,0,0,0,0,0,0,0,0,0,0,0,0,0,0,0,0,0,0,0,0,0,0,0,0,0,0,0,0,0,0,0,0,0,0,0,0,0,0,0,0,0,0,0,0,0,0,0,0,0,0,0,0,0,0,0,0,0,0,0,0,0,0,0,0,0,0,0,0,0,0,0,0,0,0,0,0,0,0,0,0,0,0,0,0,0,0,0,0,0,0,0,0,0,0,0,0,0,0,0,0,0,0,0,0,0,0,0,0,0,0,0,0,0,0,0,0,0,0,0,0,0,0,0,0,0,0,0,0,0,0,0,0,0,0,0,0,0,0,0,0,0,0,0,0,0,0,0,0,0,0,0,0,0,0,0,0,0,0,0,0,0,0,0,0,0,0,0,0,0,0,0,0,0,0,0,0,0,0,0,0,0,0,0,0,0,0,0,0,0,0,0,0,0,0,0,0,0,0,0,0,0,0,0,0,0,0,0,0,0,0,0,0,0,0,0,0,0,0,0,0,0,0,0,0,0,0,0,0,0,0,0,0,0,0,0,0,0,0,0,0,0,0,0,0,0,0,0,0,0,0,0,0,0,0,0,0,0,0,0,0,0,0,0,0,0,0,0,0,0,0,0,0,0,0,0,0,0,0,0,0,0,0,0,0,0,0,0,0,0,0,0,0,0,0,0,0,0,0,0,0,0,0,0,0,0,0,0,0,0,0,0,0,0,0,0,0,0,0,0,0,0,0,0,0,0,0,0,0,0,0,0,0,0,0,0,0,0,0,0,0,0,0,0,0,0,0,0,0,0,0,0,0,0,0,0,0,0,0,0,0,0,0,0,0,0,0,0,0,0,0,0,0,0,0,0,0,0,0,0,0,0,0,0,0,0,0,0,0,0,0,0,0,0,0,0,0,0,0,0,0,0,0,0,0,0,0,0,0,0,0,0,0,0,0,0,0,0,0,0,0,0,0,0,0,0,0,0,0,0,0,0,0,0,0,0,0,0,0,0,0,0,0,0,0,0,0,0,0,0,0,0,0,0,0,0,0,0,0,0,0,0,0,0,0,0,0,0,0,0,0,0,0,0,0,0,0,0,0,0,0,0,0,0,0,0,0,0,0,0,0,0,0,0,0,0,0,0,0,0,0,0,0,0,0,0,0,0,0,0,0,0,0,0,0,0,0,0,0,0,0,0,0,0,0,0,0,0,0,0,0,0,0,0,0,0,0,0,0,0,0,0,0,0,0,0,0,0,0,0,0,0,0,0,0,0,0,0,0,0,0,0,0,0,0,0,0,0,0,0,0,0,0,0,0,0,0,0,0,0,0,0,0,0,0,0,0,0,0,0,0,0,0,0,0,0,0,0,0,0,0,0,0,0,0,0,0,0,0,0,0,0,0,0,0,0,0,0,0,0,0,0,0,0,0,0,0,0,0,0,0,0,0,0,0,0,0,0,0,0,0,0,0,0,0,0,0,0,0,0,0,0,0,0,0,0,0,0,0,0,0,0,0,0,0,0,0,0,0,0,0,0,0,0,0,0,0,0,0,0,0,
0,0,0,0,0,0,0,0,0,0,0,0,0,0,0,0,0,0,0,0,0,0,0,0,0,0,0,0,0,0,0,0,0,0,0,0,0,0,0,0,0,0,0,0,0,0,0,0,0,0,0,0,0,0,0,0,0,0,0,0,0,0,0,0,0,0,0,0,0,0,0,0,0,0,0,0,0,0,0,0,0,0,0,0,0,0,0,0,0,0,0,0,0,0,0,0,0,0,0,0,0,0,0,0,0,0,0,0,0,0,0,0,0,0,0,0,0,0,0,0,0,0,0,0,0,0,0,0,0,0,0,0,0,0,0,0,0,0,0,0,0,0,0,0,0,0,0,0,0,0,0,0,0,0,0,0,0,0,0,0,0,0,0,0,0,0,0,0,0,0,0,0,0,0,0,0,0,0,0,0,0,0,0,0,0,0,0,0,0,0,0,0,0,0,0,0,0,0,0,0,0,0,0,0,0,0,0,0,0,0,0,0,0,0,0,0,0,0,0,0,0,0,0,0,0,0,0,0,0,0,0,0,0,0,0,0,0,0,0,0,0,0,0,0,0,0,0,0,0,0,0,0,0,0,0,0,0,0,0,0,0,0,0,0,0,0,0,0,0,0,0,0,0,0,0,0,0,0,0,0,0,0,0,0,0,0,0,0,0,0,0,0,0,0,0,0,0,0,0,0,0,0,0,0,0,0,0,0,0,0,0,0,0,0,0,0,0,0,0,0,0,0,0,0,0,0,0,0,0,0,0,0,0,0,0,0,0,0,0,0,0,0,0,0,0,0,0,0,0,0,0,0,0,0,0,0,0,0,0,0,0,0,0,0,0,0,0,0,0,0,0,0,0,0,0,0,0,0,0,0,0,0,0,0,0,0,0,0,0,0,0,0,0,0,0,0,0,0,0,0,0,0,0,0,0,0,0,0,0,0,0,0,0,0,0,0,0,0,0,0,0,0,0,0,0,0,0,0,0,0,0,0,0,0,0,0,0,0,0,0,0,0,0,0,0,0,0,0,0,0,0,0,0,0,0,0,0,0,0,0,0,0,0,0,0,0,0,0,0,0,0,0,0,0,0,0,0,0,0,0,0,0,0,0,0,0,0,0,0,0,0,0,0,0,0,0,0,0,0,0,0,0,0,0,0,0,0,0,0,0,0,0,0,0,0,0,0,0,0,0,0,0,0,0,0,0,0,0,0,0,0,0,0,0,0,0,0,0,0,0,0,0,0,0,0,0,0,0,0,0,0,0,0,0,0,0,0,0,0,0,0,0,0,0,0,0,0,0,0,0,0,0,0,0,0,0,0,0,0,0,0,0,0,0,0,0,0,0,0,0,0,0,0,0,0,0,0,0,0,0,0,0,0,0,0,0,0,0,0,0,0,0,0,0,0,0,0,0,0,0,0,0,0,0,0,0,0,0,0,0,0,0,0,0,0,0,0,0,0,0,0,0,0,0,0,0,0,0,0,0,0,0,0,0,0,0,0,0,0,0,0,0,0,0,0,0,0,0,0,0,0,0,0,0,0,0,0,0,0,0,0,0,0,0,0,0,0,0,0,0,0,0,0,0,0,0,0,0,0,0,0,0,0,0,0,0,0,0,0,0,0,0,0,0,0,0,0,0,0,0,0,0,0,0,0,0,0,0,0,0,0,0,0,0,0,0,0,0,0,0,0,0,0,0,0,0,0,0,0,0,0,0,0,0,0,0,0,0,0,0,0,0,0,0,0,0,0,0,0,0,0,0,0,0,0,0,0,0,0,0,0,0,0,0,0,0,0,0,0,0,0,0,0,0,0,0,0,0,0,0,0,0,0,0,0,0,0,0,0,0,0,0,0,0,0,0,0,0,0,0,0,0,0,0,0,0,0,0,0,0,0,0,0,0,0,0,0,0,0,0,0,0,0,0,0,0,0,0,0,0,0,0,0,0,0,0,0,0,0,0,0,0,0,0,0,0,0,0,0,0,0,0,0,0,0,0,0,0,0,0,0,0,0,0,0,0,0,0,0,0,0,0,0,0,0,0,0,0,0,0,0,0,0,0,0,0,0,0,0,0,0,0,0,0,0,0,0,0,0,0,0,0,0,0,0,0,0,0,0,0,0,0,0,0,0,0,0,0,0,0,0,0,0,0,0,0,0,0,0,0,0,0,0,0,0,0,0,0,0,0,0,0,0,0,0,0,0,0,0,0,0,0,0,0,0,0,0,0,0,0,0,0,0,0,0,0,0,0,0,0,0,0,0,0,0,0,0,0,0,0,
0,0,0,0,0,0,0,0,0,0,0,0,0,0,0,0,0,0,0,0,0,0,0,0,0,0,0,0,0,0,0,0,0,0,0,0,0,0,0,0,0,0,0,0,0,0,0,0,0,0,0,0,0,0,0,0,0,0,0,0,0,0,0,0,0,0,0,0,0,0,0,0,0,0,0,0,0,0,0,0,0,0,0,0,0,0,0,0,0,0,0,0,0,0,0,0,0,0,0,0,0,0,0,0,0,0,0,0,0,0,0,0,0,0,0,0,0,0,0,0,0,0,0,0,0,0,0,0,0,0,0,0,0,0,0,0,0,0,0,0,0,0,0,0,0,0,0,0,0,0,0,0,0,0,0,0,0,0,0,0,0,0,0,0,0,0,0,0,0,0,0,0,0,0,0,0,0,0,0,0,0,0,0,0,0,0,0,0,0,0,0,0,0,0,0,0,0,0,0,0,0,0,0,0,0,0,0,0,0,0,0,0,0,0,0,0,0,0,0,0,0,0,0,0,0,0,0,0,0,0,0,0,0,0,0,0,0,0,0,0,0,0,0,0,0,0,0,0,0,0,0,0,0,0,0,0,0,0,0,0,0,0,0,0,0,0,0,0,0,0,0,0,0,0,0,0,0,0,0,0,0,0,0,0,0,0,0,0,0,0,0,0,0,0,0,0,0,0,0,0,0,0,0,0,0,0,0,0,0,0,0,0,0,0,0,0,0,0,0,0,0,0,0,0,0,0,0,0,0,0,0,0,0,0,0,0,0,0,0,0,0,0,0,0,0,0,0,0,0,0,0,0,0,0,0,0,0,0,0,0,0,0,0,0,0,0,0,0,0,0,0,0,0,0,0,0,0,0,0,0,0,0,0,0,0,0,0,0,0,0,0,0,0,0,0,0,0,0,0,0,0,0,0,0,0,0,0,0,0,0,0,0,0,0,0,0,0,0,0,0,0,0,0,0,0,0,0,0,0,0,0,0,0,0,0,0,0,0,0,0,0,0,0,0,0,0,0,0,0,0,0,0,0,0,0,0,0,0,0,0,0,0,0,0,0,0,0,0,0,0,0,0,0,0,0,0,0,0,0,0,0,0,0,0,0,0,0,0,0,0,0,0,0,0,0,0,0,0,0,0,0,0,0,0,0,0,0,0,0,0,0,0,0,0,0,0,0,0,0,0,0,0,0,0,0,0,0,0,0,0,0,0,0,0,0,0,0,0,0,0,0,0,0,0,0,0,0,0,0,0,0,0,0,0,0,0,0,0,0,0,0,0,0,0,0,0,0,0,0,0,0,0,0,0,0,0,0,0,0,0,0,0,0,0,0,0,0,0,0,0,0,0,0,0,0,0,0,0,0,0,0,0,0,0,0,0,0,0,0,0,0,0,0,0,0,0,0,0,0,0,0,0,0,0,0,0,0,0,0,0,0,0,0,0,0,0,0,0,0,0,0,0,0,0,0,0,0,0,0,0,0,0,0,0,0,0,0,0,0,0,0,0,0,0,0,0,0,0,0,0,0,0,0,0,0,0,0,0,0,0,0,0,0,0,0,0,0,0,0,0,0,0,0,0,0,0,0,0,0,0,0,0,0,0,0,0,0,0,0,0,0,0,0,0,0,0,0,0,0,0,0,0,0,0,0,0,0,0,0,0,0,0,0,0,0,0,0,0,0,0,0,0,0,0,0,0,0,0,0,0,0,0,0,0,0,0,0,0,0,0,0,0,0,0,0,0,0,0,0,0,0,0,0,0,0,0,0,0,0,0,0,0,0,0,0,0,0,0,0,0,0,0,0,0,0,0,0,0,0,0,0,0,0,0,0,0,0,0,0,0,0,0,0,0,0,0,0,0,0,0,0,0,0,0,0,0,0,0,0,0,0,0,0,0,0,0,0,0,0,0,0,0,0,0,0,0,0,0,0,0,0,0,0,0,0,0,0,0,0,0,0,0,0,0,0,0,0,0,0,0,0,0,0,0,0,0,0,0,0,0,0,0,0,0,0,0,0,0,0,0,0,0,0,0,0,0,0,0,0,0,0,0,0,0,0,0,0,0,0,0,0,0,0,0,0,0,0,0,0,0,0,0,0,0,0,0,0,0,0,0,0,0,0,0,0,0,0,0,0,0,0,0,0,0,0,0,0,0,0,0,0,0,0,0,0,0,0,0,0,0,0,0,0,0,0,0,0,0,0,0,0,0,0,0,0,0,0,0,0,0,0,0,0,0,0,0,0,0,0,0,0,0,0,0,0,0,0,0,0,0,
0,0,0,0,0,0,0,0,0,0,0,0,0,0,0,0,0,0,0,0,0,0,0,0,0,0,0,0,0,0,0,0,0,0,0,0,0,0,0,0,0,0,0,0,0,0,0,0,0,0,0,0,0,0,0,0,0,0,0,0,0,0,0,0,0,0,0,0,0,0,0,0,0,0,0,0,0,0,0,0,0,0,0,0,0,0,0,0,0,0,0,0,0,0,0,0,0,0,0,0,0,0,0,0,0,0,0,0,0,0,0,0,0,0,0,0,0,0,0,0,0,0,0,0,0,0,0,0,0,0,0,0,0,0,0,0,0,0,0,0,0,0,0,0,0,0,0,0,0,0,0,0,0,0,0,0,0,0,0,0,0,0,0,0,0,0,0,0,0,0,0,0,0,0,0,0,0,0,0,0,0,0,0,0,0,0,0,0,0,0,0,0,0,0,0,0,0,0,0,0,0,0,0,0,0,0,0,0,0,0,0,0,0,0,0,0,0,0,0,0,0,0,0,0,0,0,0,0,0,0,0,0,0,0,0,0,0,0,0,0,0,0,0,0,0,0,0,0,0,0,0,0,0,0,0,0,0,0,0,0,0,0,0,0,0,0,0,0,0,0,0,0,0,0,0,0,0,0,0,0,0,0,0,0,0,0,0,0,0,0,0,0,0,0,0,0,0,0,0,0,0,0,0,0,0,0,0,0,0,0,0,0,0,0,0,0,0,0,0,0,0,0,0,0,0,0,0,0,0,0,0,0,0,0,0,0,0,0,0,0,0,0,0,0,0,0,0,0,0,0,0,0,0,0,0,0,0,0,0,0,0,0,0,0,0,0,0,0,0,0,0,0,0,0,0,0,0,0,0,0,0,0,0,0,0,0,0,0,0,0,0,0,0,0,0,0,0,0,0,0,0,0,0,0,0,0,0,0,0,0,0,0,0,0,0,0,0,0,0,0,0,0,0,0,0,0,0,0,0,0,0,0,0,0,0,0,0,0,0,0,0,0,0,0,0,0,0,0,0,0,0,0,0,0,0,0,0,0,0,0,0,0,0,0,0,0,0,0,0,0,0,0,0,0,0,0,0,0,0,0,0,0,0,0,0,0,0,0,0,0,0,0,0,0,0,0,0,0,0,0,0,0,0,0,0,0,0,0,0,0,0,0,0,0,0,0,0,0,0,0,0,0,0,0,0,0,0,0,0,0,0,0,0,0,0,0,0,0,0,0,0,0,0,0,0,0,0,0,0,0,0,0,0,0,0,0,0,0,0,0,0,0,0,0,0,0,0,0,0,0,0,0,0,0,0,0,0,0,0,0,0,0,0,0,0,0,0,0,0,0,0,0,0,0,0,0,0,0,0,0,0,0,0,0,0,0,0,0,0,0,0,0,0,0,0,0,0,0,0,0,0,0,0,0,0,0,0,0,0,0,0,0,0,0,0,0,0,0,0,0,0,0,0,0,0,0,0,0,0,0,0,0,0,0,0,0,0,0,0,0,0,0,0,0,0,0,0,0,0,0,0,0,0,0,0,0,0,0,0,0,0,0,0,0,0,0,0,0,0,0,0,0,0,0,0,0,0,0,0,0,0,0,0,0,0,0,0,0,0,0,0,0,0,0,0,0,0,0,0,0,0,0,0,0,0,0,0,0,0,0,0,0,0,0,0,0,0,0,0,0,0,0,0,0,0,0,0,0,0,0,0,0,0,0,0,0,0,0,0,0,0,0,0,0,0,0,0,0,0,0,0,0,0,0,0,0,0,0,0,0,0,0,0,0,0,0,0,0,0,0,0,0,0,0,0,0,0,0,0,0,0,0,0,0,0,0,0,0,0,0,0,0,0,0,0,0,0,0,0,0,0,0,0,0,0,0,0,0,0,0,0,0,0,0,0,0,0,0,0,0,0,0,0,0,0,0,0,0,0,0,0,0,0,0,0,0,0,0,0,0,0,0,0,0,0,0,0,0,0,0,0,0,0,0,0,0,0,0,0,0,0,0,0,0,0,0,0,0,0,0,0,0,0,0,0,0,0,0,0,0,0,0,0,0,0,0,0,0,0,0,0,0,0,0,0,0,0,0,0,0,0,0,0,0,0,0,0,0,0,0,0,0,0,0,0,0,0,0,0,0,0,0,0,0,0,0,0,0,0,0,0,0,0,0,0,0,0,0,0,0,0,0,0,0,0,0,0,0,0,0,0,0,0,0,0,0,0,0,0,0,0,0,0,0,0,0,0,0,0,0,0,0,0,0,0,0,0,0,0,0,
0,0,0,0,0,0,0,0,0,0,0,0,0,0,0,0,0,0,0,0,0,0,0,0,0,0,0,0,0,0,0,0,0,0,0,0,0,0,0,0,0,0,0,0,0,0,0,0,0,0,0,0,0,0,0,0,0,0,0,0,0,0,0,0,0,0,0,0,0,0,0,0,0,0,0,0,0,0,0,0,0,0,0,0,0,0,0,0,0,0,0,0,0,0,0,0,0,0,0,0,0,0,0,0,0,0,0,0,0,0,0,0,0,0,0,0,0,0,0,0,0,0,0,0,0,0,0,0,0,0,0,0,0,0,0,0,0,0,0,0,0,0,0,0,0,0,0,0,0,0,0,0,0,0,0,0,0,0,0,0,0,0,0,0,0,0,0,0,0,0,0,0,0,0,0,0,0,0,0,0,0,0,0,0,0,0,0,0,0,0,0,0,0,0,0,0,0,0,0,0,0,0,0,0,0,0,0,0,0,0,0,0,0,0,0,0,0,0,0,0,0,0,0,0,0,0,0,0,0,0,0,0,0,0,0,0,0,0,0,0,0,0,0,0,0,0,0,0,0,0,0,0,0,0,0,0,0,0,0,0,0,0,0,0,0,0,0,0,0,0,0,0,0,0,0,0,0,0,0,0,0,0,0,0,0,0,0,0,0,0,0,0,0,0,0,0,0,0,0,0,0,0,0,0,0,0,0,0,0,0,0,0,0,0,0,0,0,0,0,0,0,0,0,0,0,0,0,0,0,0,0,0,0,0,0,0,0,0,0,0,0,0,0,0,0,0,0,0,0,0,0,0,0,0,0,0,0,0,0,0,0,0,0,0,0,0,0,0,0,0,0,0,0,0,0,0,0,0,0,0,0,0,0,0,0,0,0,0,0,0,0,0,0,0,0,0,0,0,0,0,0,0,0,0,0,0,0,0,0,0,0,0,0,0,0,0,0,0,0,0,0,0,0,0,0,0,0,0,0,0,0,0,0,0,0,0,0,0,0,0,0,0,0,0,0,0,0,0,0,0,0,0,0,0,0,0,0,0,0,0,0,0,0,0,0,0,0,0,0,0,0,0,0,0,0,0,0,0,0,0,0,0,0,0,0,0,0,0,0,0,0,0,0,0,0,0,0,0,0,0,0,0,0,0,0,0,0,0,0,0,0,0,0,0,0,0,0,0,0,0,0,0,0,0,0,0,0,0,0,0,0,0,0,0,0,0,0,0,0,0,0,0,0,0,0,0,0,0,0,0,0,0,0,0,0,0,0,0,0,0,0,0,0,0,0,0,0,0,0,0,0,0,0,0,0,0,0,0,0,0,0,0,0,0,0,0,0,0,0,0,0,0,0,0,0,0,0,0,0,0,0,0,0,0,0,0,0,0,0,0,0,0,0,0,0,0,0,0,0,0,0,0,0,0,0,0,0,0,0,0,0,0,0,0,0,0,0,0,0,0,0,0,0,0,0,0,0,0,0,0,0,0,0,0,0,0,0,0,0,0,0,0,0,0,0,0,0,0,0,0,0,0,0,0,0,0,0,0,0,0,0,0,0,0,0,0,0,0,0,0,0,0,0,0,0,0,0,0,0,0,0,0,0,0,0,0,0,0,0,0,0,0,0,0,0,0,0,0,0,0,0,0,0,0,0,0,0,0,0,0,0,0,0,0,0,0,0,0,0,0,0,0,0,0,0,0,0,0,0,0,0,0,0,0,0,0,0,0,0,0,0,0,0,0,0,0,0,0,0,0,0,0,0,0,0,0,0,0,0,0,0,0,0,0,0,0,0,0,0,0,0,0,0,0,0,0,0,0,0,0,0,0,0,0,0,0,0,0,0,0,0,0,0,0,0,0,0,0,0,0,0,0,0,0,0,0,0,0,0,0,0,0,0,0,0,0,0,0,0,0,0,0,0,0,0,0,0,0,0,0,0,0,0,0,0,0,0,0,0,0,0,0,0,0,0,0,0,0,0,0,0,0,0,0,0,0,0,0,0,0,0,0,0,0,0,0,0,0,0,0,0,0,0,0,0,0,0,0,0,0,0,0,0,0,0,0,0,0,0,0,0,0,0,0,0,0,0,0,0,0,0,0,0,0,0,0,0,0,0,0,0,0,0,0,0,0,0,0,0,0,0,0,0,0,0,0,0,0,0,0,0,0,0,0,0,0,0,0,0,0,0,0,0,0,0,0,0,0,0,0,0,0,0,0,0,0,0,0,0,0,0,0,0,0,0,0,0,0,0,0,0,0,0,0,0,0,0,0,0,0,
0,0,0,0,0,0,0,0,0,0,0,0,0,0,0,0,0,0,0,0,0,0,0,0,0,0,0,0,0,0,0,0,0,0,0,0,0,0,0,0,0,0,0,0,0,0,0,0,0,0,0,0,0,0,0,0,0,0,0,0,0,0,0,0,0,0,0,0,0,0,0,0,0,0,0,0,0,0,0,0,0,0,0,0,0,0,0,0,0,0,0,0,0,0,0,0,0,0,0,0,0,0,0,0,0,0,0,0,0,0,0,0,0,0,0,0,0,0,0,0,0,0,0,0,0,0,0,0,0,0,0,0,0,0,0,0,0,0,0,0,0,0,0,0,0,0,0,0,0,0,0,0,0,0,0,0,0,0,0,0,0,0,0,0,0,0,0,0,0,0,0,0,0,0,0,0,0,0,0,0,0,0,0,0,0,0,0,0,0,0,0,0,0,0,0,0,0,0,0,0,0,0,0,0,0,0,0,0,0,0,0,0,0,0,0,0,0,0,0,0,0,0,0,0,0,0,0,0,0,0,0,0,0,0,0,0,0,0,0,0,0,0,0,0,0,0,0,0,0,0,0,0,0,0,0,0,0,0,0,0,0,0,0,0,0,0,0,0,0,0,0,0,0,0,0,0,0,0,0,0,0,0,0,0,0,0,0,0,0,0,0,0,0,0,0,0,0,0,0,0,0,0,0,0,0,0,0,0,0,0,0,0,0,0,0,0,0,0,0,0,0,0,0,0,0,0,0,0,0,0,0,0,0,0,0,0,0,0,0,0,0,0,0,0,0,0,0,0,0,0,0,0,0,0,0,0,0,0,0,0,0,0,0,0,0,0,0,0,0,0,0,0,0,0,0,0,0,0,0,0,0,0,0,0,0,0,0,0,0,0,0,0,0,0,0,0,0,0,0,0,0,0,0,0,0,0,0,0,0,0,0,0,0,0,0,0,0,0,0,0,0,0,0,0,0,0,0,0,0,0,0,0,0,0,0,0,0,0,0,0,0,0,0,0,0,0,0,0,0,0,0,0,0,0,0,0,0,0,0,0,0,0,0,0,0,0,0,0,0,0,0,0,0,0,0,0,0,0,0,0,0,0,0,0,0,0,0,0,0,0,0,0,0,0,0,0,0,0,0,0,0,0,0,0,0,0,0,0,0,0,0,0,0,0,0,0,0,0,0,0,0,0,0,0,0,0,0,0,0,0,0,0,0,0,0,0,0,0,0,0,0,0,0,0,0,0,0,0,0,0,0,0,0,0,0,0,0,0,0,0,0,0,0,0,0,0,0,0,0,0,0,0,0,0,0,0,0,0,0,0,0,0,0,0,0,0,0,0,0,0,0,0,0,0,0,0,0,0,0,0,0,0,0,0,0,0,0,0,0,0,0,0,0,0,0,0,0,0,0,0,0,0,0,0,0,0,0,0,0,0,0,0,0,0,0,0,0,0,0,0,0,0,0,0,0,0,0,0,0,0,0,0,0,0,0,0,0,0,0,0,0,0,0,0,0,0,0,0,0,0,0,0,0,0,0,0,0,0,0,0,0,0,0,0,0,0,0,0,0,0,0,0,0,0,0,0,0,0,0,0,0,0,0,0,0,0,0,0,0,0,0,0,0,0,0,0,0,0,0,0,0,0,0,0,0,0,0,0,0,0,0,0,0,0,0,0,0,0,0,0,0,0,0,0,0,0,0,0,0,0,0,0,0,0,0,0,0,0,0,0,0,0,0,0,0,0,0,0,0,0,0,0,0,0,0,0,0,0,0,0,0,0,0,0,0,0,0,0,0,0,0,0,0,0,0,0,0,0,0,0,0,0,0,0,0,0,0,0,0,0,0,0,0,0,0,0,0,0,0,0,0,0,0,0,0,0,0,0,0,0,0,0,0,0,0,0,0,0,0,0,0,0,0,0,0,0,0,0,0,0,0,0,0,0,0,0,0,0,0,0,0,0,0,0,0,0,0,0,0,0,0,0,0,0,0,0,0,0,0,0,0,0,0,0,0,0,0,0,0,0,0,0,0,0,0,0,0,0,0,0,0,0,0,0,0,0,0,0,0,0,0,0,0,0,0,0,0,0,0,0,0,0,0,0,0,0,0,0,0,0,0,0,0,0,0,0,0,0,0,0,0,0,0,0,0,0,0,0,0,0,0,0,0,0,0,0,0,0,0,0,0,0,0,0,0,0,0,0,0,0,0,0,0,0,0,0,0,0,0,0,0,0,0,0,0,0,0,0,0,0,0,0,0,0,0,0,0,0,0,0,
0,0,0,0,0,0,0,0,0,0,0,0,0,0,0,0,0,0,0,0,0,0,0,0,0,0,0,0,0,0,0,0,0,0,0,0,0,0,0,0,0,0,0,0,0,0,0,0,0,0,0,0,0,0,0,0,0,0,0,0,0,0,0,0,0,0,0,0,0,0,0,0,0,0,0,0,0,0,0,0,0,0,0,0,0,0,0,0,0,0,0,0,0,0,0,0,0,0,0,0,0,0,0,0,0,0,0,0,0,0,0,0,0,0,0,0,0,0,0,0,0,0,0,0,0,0,0,0,0,0,0,0,0,0,0,0,0,0,0,0,0,0,0,0,0,0,0,0,0,0,0,0,0,0,0,0,0,0,0,0,0,0,0,0,0,0,0,0,0,0,0,0,0,0,0,0,0,0,0,0,0,0,0,0,0,0,0,0,0,0,0,0,0,0,0,0,0,0,0,0,0,0,0,0,0,0,0,0,0,0,0,0,0,0,0,0,0,0,0,0,0,0,0,0,0,0,0,0,0,0,0,0,0,0,0,0,0,0,0,0,0,0,0,0,0,0,0,0,0,0,0,0,0,0,0,0,0,0,0,0,0,0,0,0,0,0,0,0,0,0,0,0,0,0,0,0,0,0,0,0,0,0,0,0,0,0,0,0,0,0,0,0,0,0,0,0,0,0,0,0,0,0,0,0,0,0,0,0,0,0,0,0,0,0,0,0,0,0,0,0,0,0,0,0,0,0,0,0,0,0,0,0,0,0,0,0,0,0,0,0,0,0,0,0,0,0,0,0,0,0,0,0,0,0,0,0,0,0,0,0,0,0,0,0,0,0,0,0,0,0,0,0,0,0,0,0,0,0,0,0,0,0,0,0,0,0,0,0,0,0,0,0,0,0,0,0,0,0,0,0,0,0,0,0,0,0,0,0,0,0,0,0,0,0,0,0,0,0,0,0,0,0,0,0,0,0,0,0,0,0,0,0,0,0,0,0,0,0,0,0,0,0,0,0,0,0,0,0,0,0,0,0,0,0,0,0,0,0,0,0,0,0,0,0,0,0,0,0,0,0,0,0,0,0,0,0,0,0,0,0,0,0,0,0,0,0,0,0,0,0,0,0,0,0,0,0,0,0,0,0,0,0,0,0,0,0,0,0,0,0,0,0,0,0,0,0,0,0,0,0,0,0,0,0,0,0,0,0,0,0,0,0,0,0,0,0,0,0,0,0,0,0,0,0,0,0,0,0,0,0,0,0,0,0,0,0,0,0,0,0,0,0,0,0,0,0,0,0,0,0,0,0,0,0,0,0,0,0,0,0,0,0,0,0,0,0,0,0,0,0,0,0,0,0,0,0,0,0,0,0,0,0,0,0,0,0,0,0,0,0,0,0,0,0,0,0,0,0,0,0,0,0,0,0,0,0,0,0,0,0,0,0,0,0,0,0,0,0,0,0,0,0,0,0,0,0,0,0,0,0,0,0,0,0,0,0,0,0,0,0,0,0,0,0,0,0,0,0,0,0,0,0,0,0,0,0,0,0,0,0,0,0,0,0,0,0,0,0,0,0,0,0,0,0,0,0,0,0,0,0,0,0,0,0,0,0,0,0,0,0,0,0,0,0,0,0,0,0,0,0,0,0,0,0,0,0,0,0,0,0,0,0,0,0,0,0,0,0,0,0,0,0,0,0,0,0,0,0,0,0,0,0,0,0,0,0,0,0,0,0,0,0,0,0,0,0,0,0,0,0,0,0,0,0,0,0,0,0,0,0,0,0,0,0,0,0,0,0,0,0,0,0,0,0,0,0,0,0,0,0,0,0,0,0,0,0,0,0,0,0,0,0,0,0,0,0,0,0,0,0,0,0,0,0,0,0,0,0,0,0,0,0,0,0,0,0,0,0,0,0,0,0,0,0,0,0,0,0,0,0,0,0,0,0,0,0,0,0,0,0,0,0,0,0,0,0,0,0,0,0,0,0,0,0,0,0,0,0,0,0,0,0,0,0,0,0,0,0,0,0,0,0,0,0,0,0,0,0,0,0,0,0,0,0,0,0,0,0,0,0,0,0,0,0,0,0,0,0,0,0,0,0,0,0,0,0,0,0,0,0,0,0,0,0,0,0,0,0,0,0,0,0,0,0,0,0,0,0,0,0,0,0,0,0,0,0,0,0,0,0,0,0,0,0,0,0,0,0,0,0,0,0,0,0,0,0,0,0,0,0,0,0,0,0,0,0,0,0,0,0,0,0,0,0,0,0,0,0,0,0,
0,0,0,0,0,0,0,0,0,0,0,0,0,0,0,0,0,0,0,0,0,0,0,0,0,0,0,0,0,0,0,0,0,0,0,0,0,0,0,0,0,0,0,0,0,0,0,0,0,0,0,0,0,0,0,0,0,0,0,0,0,0,0,0,0,0,0,0,0,0,0,0,0,0,0,0,0,0,0,0,0,0,0,0,0,0,0,0,0,0,0,0,0,0,0,0,0,0,0,0,0,0,0,0,0,0,0,0,0,0,0,0,0,0,0,0,0,0,0,0,0,0,0,0,0,0,0,0,0,0,0,0,0,0,0,0,0,0,0,0,0,0,0,0,0,0,0,0,0,0,0,0,0,0,0,0,0,0,0,0,0,0,0,0,0,0,0,0,0,0,0,0,0,0,0,0,0,0,0,0,0,0,0,0,0,0,0,0,0,0,0,0,0,0,0,0,0,0,0,0,0,0,0,0,0,0,0,0,0,0,0,0,0,0,0,0,0,0,0,0,0,0,0,0,0,0,0,0,0,0,0,0,0,0,0,0,0,0,0,0,0,0,0,0,0,0,0,0,0,0,0,0,0,0,0,0,0,0,0,0,0,0,0,0,0,0,0,0,0,0,0,0,0,0,0,0,0,0,0,0,0,0,0,0,0,0,0,0,0,0,0,0,0,0,0,0,0,0,0,0,0,0,0,0,0,0,0,0,0,0,0,0,0,0,0,0,0,0,0,0,0,0,0,0,0,0,0,0,0,0,0,0,0,0,0,0,0,0,0,0,0,0,0,0,0,0,0,0,0,0,0,0,0,0,0,0,0,0,0,0,0,0,0,0,0,0,0,0,0,0,0,0,0,0,0,0,0,0,0,0,0,0,0,0,0,0,0,0,0,0,0,0,0,0,0,0,0,0,0,0,0,0,0,0,0,0,0,0,0,0,0,0,0,0,0,0,0,0,0,0,0,0,0,0,0,0,0,0,0,0,0,0,0,0,0,0,0,0,0,0,0,0,0,0,0,0,0,0,0,0,0,0,0,0,0,0,0,0,0,0,0,0,0,0,0,0,0,0,0,0,0,0,0,0,0,0,0,0,0,0,0,0,0,0,0,0,0,0,0,0,0,0,0,0,0,0,0,0,0,0,0,0,0,0,0,0,0,0,0,0,0,0,0,0,0,0,0,0,0,0,0,0,0,0,0,0,0,0,0,0,0,0,0,0,0,0,0,0,0,0,0,0,0,0,0,0,0,0,0,0,0,0,0,0,0,0,0,0,0,0,0,0,0,0,0,0,0,0,0,0,0,0,0,0,0,0,0,0,0,0,0,0,0,0,0,0,0,0,0,0,0,0,0,0,0,0,0,0,0,0,0,0,0,0,0,0,0,0,0,0,0,0,0,0,0,0,0,0,0,0,0,0,0,0,0,0,0,0,0,0,0,0,0,0,0,0,0,0,0,0,0,0,0,0,0,0,0,0,0,0,0,0,0,0,0,0,0,0,0,0,0,0,0,0,0,0,0,0,0,0,0,0,0,0,0,0,0,0,0,0,0,0,0,0,0,0,0,0,0,0,0,0,0,0,0,0,0,0,0,0,0,0,0,0,0,0,0,0,0,0,0,0,0,0,0,0,0,0,0,0,0,0,0,0,0,0,0,0,0,0,0,0,0,0,0,0,0,0,0,0,0,0,0,0,0,0,0,0,0,0,0,0,0,0,0,0,0,0,0,0,0,0,0,0,0,0,0,0,0,0,0,0,0,0,0,0,0,0,0,0,0,0,0,0,0,0,0,0,0,0,0,0,0,0,0,0,0,0,0,0,0,0,0,0,0,0,0,0,0,0,0,0,0,0,0,0,0,0,0,0,0,0,0,0,0,0,0,0,0,0,0,0,0,0,0,0,0,0,0,0,0,0,0,0,0,0,0,0,0,0,0,0,0,0,0,0,0,0,0,0,0,0,0,0,0,0,0,0,0,0,0,0,0,0,0,0,0,0,0,0,0,0,0,0,0,0,0,0,0,0,0,0,0,0,0,0,0,0,0,0,0,0,0,0,0,0,0,0,0,0,0,0,0,0,0,0,0,0,0,0,0,0,0,0,0,0,0,0,0,0,0,0,0,0,0,0,0,0,0,0,0,0,0,0,0,0,0,0,0,0,0,0,0,0,0,0,0,0,0,0,0,0,0,0,0,0,0,0,0,0,0,0,0,0,0,0,0,0,0,0,0,0,0,0,0,0,0,0,0,0,0,0,0,0,0,0,0,0,0,0,
0,0,0,0,0,0,0,0,0,0,0,0,0,0,0,0,0,0,0,0,0,0,0,0,0,0,0,0,0,0,0,0,0,0,0,0,0,0,0,0,0,0,0,0,0,0,0,0,0,0,0,0,0,0,0,0,0,0,0,0,0,0,0,0,0,0,0,0,0,0,0,0,0,0,0,0,0,0,0,0,0,0,0,0,0,0,0,0,0,0,0,0,0,0,0,0,0,0,0,0,0,0,0,0,0,0,0,0,0,0,0,0,0,0,0,0,0,0,0,0,0,0,0,0,0,0,0,0,0,0,0,0,0,0,0,0,0,0,0,0,0,0,0,0,0,0,0,0,0,0,0,0,0,0,0,0,0,0,0,0,0,0,0,0,0,0,0,0,0,0,0,0,0,0,0,0,0,0,0,0,0,0,0,0,0,0,0,0,0,0,0,0,0,0,0,0,0,0,0,0,0,0,0,0,0,0,0,0,0,0,0,0,0,0,0,0,0,0,0,0,0,0,0,0,0,0,0,0,0,0,0,0,0,0,0,0,0,0,0,0,0,0,0,0,0,0,0,0,0,0,0,0,0,0,0,0,0,0,0,0,0,0,0,0,0,0,0,0,0,0,0,0,0,0,0,0,0,0,0,0,0,0,0,0,0,0,0,0,0,0,0,0,0,0,0,0,0,0,0,0,0,0,0,0,0,0,0,0,0,0,0,0,0,0,0,0,0,0,0,0,0,0,0,0,0,0,0,0,0,0,0,0,0,0,0,0,0,0,0,0,0,0,0,0,0,0,0,0,0,0,0,0,0,0,0,0,0,0,0,0,0,0,0,0,0,0,0,0,0,0,0,0,0,0,0,0,0,0,0,0,0,0,0,0,0,0,0,0,0,0,0,0,0,0,0,0,0,0,0,0,0,0,0,0,0,0,0,0,0,0,0,0,0,0,0,0,0,0,0,0,0,0,0,0,0,0,0,0,0,0,0,0,0,0,0,0,0,0,0,0,0,0,0,0,0,0,0,0,0,0,0,0,0,0,0,0,0,0,0,0,0,0,0,0,0,0,0,0,0,0,0,0,0,0,0,0,0,0,0,0,0,0,0,0,0,0,0,0,0,0,0,0,0,0,0,0,0,0,0,0,0,0,0,0,0,0,0,0,0,0,0,0,0,0,0,0,0,0,0,0,0,0,0,0,0,0,0,0,0,0,0,0,0,0,0,0,0,0,0,0,0,0,0,0,0,0,0,0,0,0,0,0,0,0,0,0,0,0,0,0,0,0,0,0,0,0,0,0,0,0,0,0,0,0,0,0,0,0,0,0,0,0,0,0,0,0,0,0,0,0,0,0,0,0,0,0,0,0,0,0,0,0,0,0,0,0,0,0,0,0,0,0,0,0,0,0,0,0,0,0,0,0,0,0,0,0,0,0,0,0,0,0,0,0,0,0,0,0,0,0,0,0,0,0,0,0,0,0,0,0,0,0,0,0,0,0,0,0,0,0,0,0,0,0,0,0,0,0,0,0,0,0,0,0,0,0,0,0,0,0,0,0,0,0,0,0,0,0,0,0,0,0,0,0,0,0,0,0,0,0,0,0,0,0,0,0,0,0,0,0,0,0,0,0,0,0,0,0,0,0,0,0,0,0,0,0,0,0,0,0,0,0,0,0,0,0,0,0,0,0,0,0,0,0,0,0,0,0,0,0,0,0,0,0,0,0,0,0,0,0,0,0,0,0,0,0,0,0,0,0,0,0,0,0,0,0,0,0,0,0,0,0,0,0,0,0,0,0,0,0,0,0,0,0,0,0,0,0,0,0,0,0,0,0,0,0,0,0,0,0,0,0,0,0,0,0,0,0,0,0,0,0,0,0,0,0,0,0,0,0,0,0,0,0,0,0,0,0,0,0,0,0,0,0,0,0,0,0,0,0,0,0,0,0,0,0,0,0,0,0,0,0,0,0,0,0,0,0,0,0,0,0,0,0,0,0,0,0,0,0,0,0,0,0,0,0,0,0,0,0,0,0,0,0,0,0,0,0,0,0,0,0,0,0,0,0,0,0,0,0,0,0,0,0,0,0,0,0,0,0,0,0,0,0,0,0,0,0,0,0,0,0,0,0,0,0,0,0,0,0,0,0,0,0,0,0,0,0,0,0,0,0,0,0,0,0,0,0,0,0,0,0,0,0,0,0,0,0,0,0,0,0,0,0,0,0,0,0,0,0,0,0,0,0,0,0,0,0,0,0,0,0,0,0,0,0,0,0,0,0,
0,0,0,0,0,0,0,0,0,0,0,0,0,0,0,0,0,0,0,0,0,0,0,0,0,0,0,0,0,0,0,0,0,0,0,0,0,0,0,0,0,0,0,0,0,0,0,0,0,0,0,0,0,0,0,0,0,0,0,0,0,0,0,0,0,0,0,0,0,0,0,0,0,0,0,0,0,0,0,0,0,0,0,0,0,0,0,0,0,0,0,0,0,0,0,0,0,0,0,0,0,0,0,0,0,0,0,0,0,0,0,0,0,0,0,0,0,0,0,0,0,0,0,0,0,0,0,0,0,0,0,0,0,0,0,0,0,0,0,0,0,0,0,0,0,0,0,0,0,0,0,0,0,0,0,0,0,0,0,0,0,0,0,0,0,0,0,0,0,0,0,0,0,0,0,0,0,0,0,0,0,0,0,0,0,0,0,0,0,0,0,0,0,0,0,0,0,0,0,0,0,0,0,0,0,0,0,0,0,0,0,0,0,0,0,0,0,0,0,0,0,0,0,0,0,0,0,0,0,0,0,0,0,0,0,0,0,0,0,0,0,0,0,0,0,0,0,0,0,0,0,0,0,0,0,0,0,0,0,0,0,0,0,0,0,0,0,0,0,0,0,0,0,0,0,0,0,0,0,0,0,0,0,0,0,0,0,0,0,0,0,0,0,0,0,0,0,0,0,0,0,0,0,0,0,0,0,0,0,0,0,0,0,0,0,0,0,0,0,0,0,0,0,0,0,0,0,0,0,0,0,0,0,0,0,0,0,0,0,0,0,0,0,0,0,0,0,0,0,0,0,0,0,0,0,0,0,0,0,0,0,0,0,0,0,0,0,0,0,0,0,0,0,0,0,0,0,0,0,0,0,0,0,0,0,0,0,0,0,0,0,0,0,0,0,0,0,0,0,0,0,0,0,0,0,0,0,0,0,0,0,0,0,0,0,0,0,0,0,0,0,0,0,0,0,0,0,0,0,0,0,0,0,0,0,0,0,0,0,0,0,0,0,0,0,0,0,0,0,0,0,0,0,0,0,0,0,0,0,0,0,0,0,0,0,0,0,0,0,0,0,0,0,0,0,0,0,0,0,0,0,0,0,0,0,0,0,0,0,0,0,0,0,0,0,0,0,0,0,0,0,0,0,0,0,0,0,0,0,0,0,0,0,0,0,0,0,0,0,0,0,0,0,0,0,0,0,0,0,0,0,0,0,0,0,0,0,0,0,0,0,0,0,0,0,0,0,0,0,0,0,0,0,0,0,0,0,0,0,0,0,0,0,0,0,0,0,0,0,0,0,0,0,0,0,0,0,0,0,0,0,0,0,0,0,0,0,0,0,0,0,0,0,0,0,0,0,0,0,0,0,0,0,0,0,0,0,0,0,0,0,0,0,0,0,0,0,0,0,0,0,0,0,0,0,0,0,0,0,0,0,0,0,0,0,0,0,0,0,0,0,0,0,0,0,0,0,0,0,0,0,0,0,0,0,0,0,0,0,0,0,0,0,0,0,0,0,0,0,0,0,0,0,0,0,0,0,0,0,0,0,0,0,0,0,0,0,0,0,0,0,0,0,0,0,0,0,0,0,0,0,0,0,0,0,0,0,0,0,0,0,0,0,0,0,0,0,0,0,0,0,0,0,0,0,0,0,0,0,0,0,0,0,0,0,0,0,0,0,0,0,0,0,0,0,0,0,0,0,0,0,0,0,0,0,0,0,0,0,0,0,0,0,0,0,0,0,0,0,0,0,0,0,0,0,0,0,0,0,0,0,0,0,0,0,0,0,0,0,0,0,0,0,0,0,0,0,0,0,0,0,0,0,0,0,0,0,0,0,0,0,0,0,0,0,0,0,0,0,0,0,0,0,0,0,0,0,0,0,0,0,0,0,0,0,0,0,0,0,0,0,0,0,0,0,0,0,0,0,0,0,0,0,0,0,0,0,0,0,0,0,0,0,0,0,0,0,0,0,0,0,0,0,0,0,0,0,0,0,0,0,0,0,0,0,0,0,0,0,0,0,0,0,0,0,0,0,0,0,0,0,0,0,0,0,0,0,0,0,0,0,0,0,0,0,0,0,0,0,0,0,0,0,0,0,0,0,0,0,0,0,0,0,0,0,0,0,0,0,0,0,0,0,0,0,0,0,0,0,0,0,0,0,0,0,0,0,0,0,0,0,0,0,0,0,0,0,0,0,0,0,0,0,0,0,0,0,0,0,0,0,0,0,0,0,0,0,0,0,0,0,0,0,0,0,0,0,0,0,0,
0,0,0,0,0,0,0,0,0,0,0,0,0,0,0,0,0,0,0,0,0,0,0,0,0,0,0,0,0,0,0,0,0,0,0,0,0,0,0,0,0,0,0,0,0,0,0,0,0,0,0,0,0,0,0,0,0,0,0,0,0,0,0,0,0,0,0,0,0,0,0,0,0,0,0,0,0,0,0,0,0,0,0,0,0,0,0,0,0,0,0,0,0,0,0,0,0,0,0,0,0,0,0,0,0,0,0,0,0,0,0,0,0,0,0,0,0,0,0,0,0,0,0,0,0,0,0,0,0,0,0,0,0,0,0,0,0,0,0,0,0,0,0,0,0,0,0,0,0,0,0,0,0,0,0,0,0,0,0,0,0,0,0,0,0,0,0,0,0,0,0,0,0,0,0,0,0,0,0,0,0,0,0,0,0,0,0,0,0,0,0,0,0,0,0,0,0,0,0,0,0,0,0,0,0,0,0,0,0,0,0,0,0,0,0,0,0,0,0,0,0,0,0,0,0,0,0,0,0,0,0,0,0,0,0,0,0,0,0,0,0,0,0,0,0,0,0,0,0,0,0,0,0,0,0,0,0,0,0,0,0,0,0,0,0,0,0,0,0,0,0,0,0,0,0,0,0,0,0,0,0,0,0,0,0,0,0,0,0,0,0,0,0,0,0,0,0,0,0,0,0,0,0,0,0,0,0,0,0,0,0,0,0,0,0,0,0,0,0,0,0,0,0,0,0,0,0,0,0,0,0,0,0,0,0,0,0,0,0,0,0,0,0,0,0,0,0,0,0,0,0,0,0,0,0,0,0,0,0,0,0,0,0,0,0,0,0,0,0,0,0,0,0,0,0,0,0,0,0,0,0,0,0,0,0,0,0,0,0,0,0,0,0,0,0,0,0,0,0,0,0,0,0,0,0,0,0,0,0,0,0,0,0,0,0,0,0,0,0,0,0,0,0,0,0,0,0,0,0,0,0,0,0,0,0,0,0,0,0,0,0,0,0,0,0,0,0,0,0,0,0,0,0,0,0,0,0,0,0,0,0,0,0,0,0,0,0,0,0,0,0,0,0,0,0,0,0,0,0,0,0,0,0,0,0,0,0,0,0,0,0,0,0,0,0,0,0,0,0,0,0,0,0,0,0,0,0,0,0,0,0,0,0,0,0,0,0,0,0,0,0,0,0,0,0,0,0,0,0,0,0,0,0,0,0,0,0,0,0,0,0,0,0,0,0,0,0,0,0,0,0,0,0,0,0,0,0,0,0,0,0,0,0,0,0,0,0,0,0,0,0,0,0,0,0,0,0,0,0,0,0,0,0,0,0,0,0,0,0,0,0,0,0,0,0,0,0,0,0,0,0,0,0,0,0,0,0,0,0,0,0,0,0,0,0,0,0,0,0,0,0,0,0,0,0,0,0,0,0,0,0,0,0,0,0,0,0,0,0,0,0,0,0,0,0,0,0,0,0,0,0,0,0,0,0,0,0,0,0,0,0,0,0,0,0,0,0,0,0,0,0,0,0,0,0,0,0,0,0,0,0,0,0,0,0,0,0,0,0,0,0,0,0,0,0,0,0,0,0,0,0,0,0,0,0,0,0,0,0,0,0,0,0,0,0,0,0,0,0,0,0,0,0,0,0,0,0,0,0,0,0,0,0,0,0,0,0,0,0,0,0,0,0,0,0,0,0,0,0,0,0,0,0,0,0,0,0,0,0,0,0,0,0,0,0,0,0,0,0,0,0,0,0,0,0,0,0,0,0,0,0,0,0,0,0,0,0,0,0,0,0,0,0,0,0,0,0,0,0,0,0,0,0,0,0,0,0,0,0,0,0,0,0,0,0,0,0,0,0,0,0,0,0,0,0,0,0,0,0,0,0,0,0,0,0,0,0,0,0,0,0,0,0,0,0,0,0,0,0,0,0,0,0,0,0,0,0,0,0,0,0,0,0,0,0,0,0,0,0,0,0,0,0,0,0,0,0,0,0,0,0,0,0,0,0,0,0,0,0,0,0,0,0,0,0,0,0,0,0,0,0,0,0,0,0,0,0,0,0,0,0,0,0,0,0,0,0,0,0,0,0,0,0,0,0,0,0,0,0,0,0,0,0,0,0,0,0,0,0,0,0,0,0,0,0,0,0,0,0,0,0,0,0,0,0,0,0,0,0,0,0,0,0,0,0,0,0,0,0,0,0,0,0,0,0,0,0,0,0,0,0,0,0,0,0,0,0,0,0,0,0,0,0,0,0,0,0,0,0,0,
2502,2503,2504,0,0,0,0,0,0,0,0,0,0,0,0,0,0,0,0,0,0,0,0,0,0,0,0,0,0,0,0,0,0,2502,2503,2504,0,0,0,0,0,0,0,0,0,0,0,0,0,0,0,0,0,0,0,0,0,0,0,0,0,0,0,0,0,0,2502,2503,2504,0,0,0,0,0,0,0,0,0,0,0,0,0,0,0,0,0,0,0,0,0,0,0,0,0,0,0,0,0,0,0,0,0,0,0,0,0,0,0,0,0,0,0,0,0,0,0,0,0,0,0,0,0,0,0,0,0,0,0,0,0,0,0,0,0,0,0,0,0,0,0,0,0,0,0,0,0,0,0,0,0,0,0,0,0,0,0,0,0,0,0,0,0,0,0,0,0,0,0,0,0,0,0,0,0,0,0,0,0,0,0,0,0,0,0,0,0,2502,2503,2504,0,0,0,0,0,0,0,0,0,0,0,0,0,0,0,0,0,0,0,0,0,0,0,0,0,0,0,0,0,0,0,0,0,0,0,0,0,0,0,0,0,0,0,0,0,0,0,0,0,0,0,0,0,0,0,0,0,0,0,0,0,0,0,0,0,0,0,0,0,0,0,0,0,0,0,0,0,0,0,0,0,0,0,0,0,0,0,0,0,0,0,0,0,2502,2503,2504,0,0,0,0,0,0,0,0,0,0,0,0,0,0,0,0,0,0,0,0,0,0,0,0,0,0,0,0,0,0,0,0,0,0,0,0,0,0,0,0,0,0,0,0,0,0,0,0,0,0,0,0,0,0,0,0,0,0,0,0,0,0,0,0,0,0,0,0,0,0,0,0,0,0,0,0,0,0,0,0,0,0,0,0,0,0,0,2502,2503,2504,0,0,0,0,0,0,0,0,0,0,0,0,0,0,0,0,0,0,0,0,0,0,0,0,0,0,0,0,0,0,0,0,0,0,0,0,0,0,0,0,0,0,0,0,0,0,0,0,0,0,0,0,0,0,0,0,0,0,0,0,0,0,0,0,0,0,0,0,0,2502,2503,2504,0,0,0,0,0,0,0,0,0,0,0,0,0,0,0,0,0,0,0,0,0,0,0,0,0,0,0,0,0,0,0,0,0,0,0,0,0,0,0,0,0,0,0,0,0,0,0,0,0,0,0,0,0,0,2766,2767,2768,0,0,0,0,0,0,0,0,0,0,0,0,0,0,2766,2767,2768,0,0,0,0,0,0,0,0,0,0,0,0,0,0,0,0,0,0,0,0,0,0,0,0,0,0,0,0,0,0,0,0,0,0,0,0,0,0,0,0,0,0,0,0,0,0,0,0,0,0,0,0,0,0,0,2502,2503,2504,0,0,0,0,0,0,0,0,0,0,0,0,0,0,0,0,0,0,0,0,0,0,0,0,0,0,0,0,0,0,0,0,0,0,0,0,0,0,0,0,0,0,0,0,0,0,0,0,0,0,0,0,0,0,0,0,0,0,0,0,0,0,0,0,0,0,0,0,0,0,0,0,0,0,0,0,0,0,0,0,0,0,0,0,0,0,0,0,0,0,0,0,0,0,0,0,0,0,0,0,0,0,0,0,0,0,0,0,0,0,0,0,0,0,0,0,0,0,0,0,0,0,0,0,0,0,0,0,0,0,0,0,0,0,0,0,0,0,0,0,0,0,0,0,2502,2503,2504,0,0,0,0,0,0,0,0,0,0,0,0,0,0,0,0,0,0,0,0,0,0,0,0,0,0,0,0,0,0,0,0,0,0,0,0,0,0,0,0,0,0,0,0,0,0,0,0,0,0,0,0,0,0,0,0,0,0,0,0,0,0,0,0,0,0,0,0,0,0,0,0,0,0,0,0,0,0,0,0,0,0,0,0,0,0,0,0,0,0,0,0,0,0,0,0,0,0,0,0,0,0,0,0,0,0,0,0,0,0,0,0,0,0,0,0,0,0,0,0,0,0,0,0,0,0,0,0,0,0,0,0,0,0,0,0,0,0,0,0,0,0,0,0,0,0,0,0,0,0,0,0,0,0,0,0,0,0,0,0,0,0,0,0,0,0,0,0,0,0,0,0,0,0,0,0,0,0,0,0,0,0,0,0,0,0,0,0,0,0,0,0,0,0,0,0,0,0,0,0,0,0,0,0,0,0,0,0,0,0,0,2502,2503,2504,0,0,0,0,0,0,0,0,0,0,0,0,0,0,0,0,0,0,0,0,0,0,0,0,0,0,0,0,0,0,0,0,0,0,0,0,0,0,0,0,0,0,0,0,0,0,0,0,0,0,0,0,0,0,0,0,0,0,0,0,
2522,2523,2524,0,0,0,0,0,0,0,0,0,0,0,0,0,0,0,0,0,0,0,0,0,0,0,0,0,0,0,0,0,0,2522,2523,2524,0,0,0,0,0,0,0,0,0,0,0,0,0,0,0,0,0,0,0,0,0,0,0,0,0,0,0,0,0,0,2522,2523,2524,0,0,0,0,0,0,0,0,0,0,0,0,0,0,0,0,0,0,0,0,0,0,0,0,0,0,0,0,0,0,0,0,0,0,0,0,0,0,0,0,0,0,0,0,0,0,0,0,0,0,0,0,0,0,0,0,0,0,0,0,0,0,0,0,0,0,0,0,0,0,0,0,0,0,0,0,0,0,0,0,0,0,0,0,0,0,0,0,0,0,0,0,0,0,0,0,0,0,0,0,0,0,0,0,0,0,0,0,0,0,0,0,0,0,0,0,0,2522,2523,2524,0,0,0,0,0,0,0,0,0,0,0,0,0,0,0,0,0,0,0,0,0,0,0,0,0,0,0,0,0,0,0,0,0,0,0,0,0,0,0,0,0,0,0,0,0,0,0,0,0,0,0,0,0,0,0,0,0,0,0,0,0,0,0,0,0,0,0,0,0,0,0,0,0,0,0,0,0,0,0,0,0,0,0,0,0,0,0,0,0,0,0,0,0,2522,2523,2524,0,0,0,0,0,0,0,0,0,0,0,0,0,0,0,0,0,0,0,0,0,0,0,0,0,0,0,0,0,0,0,0,0,0,0,0,0,0,0,0,0,0,0,0,0,0,0,0,0,0,0,0,0,0,0,0,0,0,0,0,0,0,0,0,0,0,0,0,0,0,0,0,0,0,0,0,0,0,0,0,0,0,0,0,0,0,0,2522,2523,2524,0,0,0,0,0,0,0,0,0,0,0,0,0,0,0,0,0,0,0,0,0,0,0,0,0,0,0,0,0,0,0,0,0,0,0,0,0,0,0,0,0,0,0,0,0,0,0,0,0,0,0,0,0,0,0,0,0,0,0,0,0,0,0,0,0,0,0,0,0,2522,2523,2524,0,0,0,0,0,0,0,0,0,0,0,0,0,0,0,0,0,0,0,0,0,0,0,0,0,0,0,0,0,0,0,0,0,0,0,0,0,0,0,0,0,0,0,0,0,0,0,0,0,0,0,0,0,0,2799,2800,2801,0,0,0,0,0,0,0,0,0,0,0,0,0,0,2799,2800,2801,0,0,0,0,0,0,0,0,0,0,0,0,0,0,0,0,0,0,0,0,0,0,0,0,0,0,0,0,0,0,0,0,0,0,0,0,0,0,0,0,0,0,0,0,0,0,0,0,0,0,0,0,0,0,0,2522,2523,2524,0,0,0,0,0,0,0,0,0,0,0,0,0,0,0,0,0,0,0,0,0,0,0,0,0,0,0,0,0,0,0,0,0,0,0,0,0,0,0,0,0,0,0,0,0,0,0,0,0,0,0,0,0,0,0,0,0,0,0,0,0,0,0,0,0,0,0,0,0,0,0,0,0,0,0,0,0,0,0,0,0,0,0,0,0,0,0,0,0,0,0,0,0,0,0,0,0,0,0,0,0,0,0,0,0,0,0,0,0,0,0,0,0,0,0,0,0,0,0,0,0,0,0,0,0,0,0,0,0,0,0,0,0,0,0,0,0,0,0,0,0,0,0,0,2522,2523,2524,0,0,0,0,0,0,0,0,0,0,0,0,0,0,0,0,0,0,0,0,0,0,0,0,0,0,0,0,0,0,0,0,0,0,0,0,0,0,0,0,0,0,0,0,0,0,0,0,0,0,0,0,0,0,0,0,0,0,0,0,0,0,0,0,0,0,0,0,0,0,0,0,0,0,0,0,0,0,0,0,0,0,0,0,0,0,0,0,0,0,0,0,0,0,0,0,0,0,0,0,0,0,0,0,0,0,0,0,0,0,0,0,0,0,0,0,0,0,0,0,0,0,0,0,0,0,0,0,0,0,0,0,0,0,0,0,0,0,0,0,0,0,0,0,0,0,0,0,0,0,0,0,0,0,0,0,0,0,0,0,0,0,0,0,0,0,0,0,0,0,0,0,0,0,0,0,0,0,0,0,0,0,0,0,0,0,0,0,0,0,0,0,0,0,0,0,0,0,0,0,0,0,0,0,0,0,0,0,0,0,0,2522,2523,2524,0,0,0,0,0,0,0,0,0,0,0,0,0,0,0,0,0,0,0,0,0,0,0,0,0,0,0,0,0,0,0,0,0,0,0,0,0,0,0,0,0,0,0,0,0,0,0,0,0,0,0,0,0,0,0,0,0,0,0,0,
2542,2543,2544,2505,2506,2507,2505,2506,2507,2505,2506,2507,2505,2506,2507,2505,2506,2507,2505,2506,2507,2505,2506,2507,2505,2506,2507,2505,2506,2507,2505,2506,2507,2542,2543,2544,2505,2506,2507,2505,2506,2507,2505,2506,2507,2505,2506,2507,2505,2506,2507,2505,2506,2507,2505,2506,2507,2505,2506,2507,2505,2506,2507,2505,2506,2507,2542,2543,2544,2505,2506,2507,2505,2506,2507,2505,2506,2507,2505,2506,2507,2505,2506,2507,2505,2506,2507,2505,2506,2507,2505,2506,2507,2505,2506,2507,2505,2506,2507,2505,2506,2507,2505,2506,2507,2505,2506,2507,2505,2506,2507,2505,2506,2507,2505,2506,2507,2505,2506,2507,2505,2506,2507,2505,2506,2507,2505,2506,2507,2505,2506,2507,2505,2506,2507,2505,2506,2507,2505,2506,2507,2505,2506,2507,2505,2506,2507,2505,2506,2507,2505,2506,2507,2505,2506,2507,2505,2506,2507,2505,2506,2507,2505,2506,2507,2505,2506,2507,2505,2506,2507,2505,2506,2507,2505,2506,2507,2505,2506,2507,2505,2506,2507,2505,2506,2507,2542,2543,2544,2505,2506,2507,2505,2506,2507,2505,2506,2507,2505,2506,2507,2505,2506,2507,2505,2506,2507,2505,2506,2507,2505,2506,2507,2505,2506,2507,2505,2506,2507,2505,2506,2507,2505,2506,2507,2505,2506,2507,2505,2506,2507,2505,2506,2507,2505,2506,2507,2505,2506,2507,2505,2506,2507,2505,2506,2507,2505,2506,2507,2505,2506,2507,2505,2506,2507,2505,2506,2507,2505,2506,2507,2505,2506,2507,2505,2506,2507,2505,2506,2507,2505,2506,2507,2505,2506,2507,2505,2506,2507,2505,2506,2507,2542,2543,2544,2505,2506,2507,2505,2506,2507,2505,2506,2507,2505,2506,2507,2505,2506,2507,2505,2506,2507,2505,2506,2507,2505,2506,2507,2505,2506,2507,2505,2506,2507,2505,2506,2507,2505,2506,2507,2505,2506,2507,2505,2506,2507,2505,2506,2507,2505,2506,2507,2505,2506,2507,2505,2506,2507,2505,2506,2507,2505,2506,2507,2505,2506,2507,2505,2506,2507,2505,2506,2507,2505,2506,2507,2505,2506,2507,2505,2506,2507,2505,2506,2507,2505,2506,2507,2505,2506,2507,2542,2543,2544,2505,2506,2507,2505,2506,2507,2505,0,2507,2505,2506,2507,2505,2506,2507,2505,2506,2507,2505,2506,2507,2505,2506,2507,2505,2506,2507,2505,2506,2507,2505,2506,2507,2505,2506,2507,2505,2506,2507,2505,2506,2507,2505,2506,2507,2505,2506,2507,2505,2506,2507,2505,2506,2507,2505,2506,2507,2505,2506,2507,2505,2506,2507,2505,2506,2507,2505,2506,2507,2542,2543,2544,2505,2506,2507,2505,2506,2507,2505,2506,2507,2505,2506,2507,2505,2506,2507,2505,2506,2507,2505,2506,2507,2505,2506,2507,2505,2506,2507,2505,2506,2507,2505,2506,2507,2505,2506,2507,2505,2506,2507,2505,2506,2507,2505,2506,2507,2505,2506,2507,2505,2506,2507,2505,2506,2507,2832,2833,2834,2770,2771,2769,2770,2771,2868,2869,2870,2769,2770,2771,2769,2770,2771,2832,2833,2834,2507,2505,2506,2507,2505,2506,2507,2505,2506,2507,2505,2506,2507,2505,2506,2507,2505,2506,2507,2505,2506,2507,2505,2506,2507,2505,2506,2507,2505,2506,2507,2505,2506,2507,2505,2506,2507,2505,2506,2507,2505,2506,2507,2505,2506,2507,2505,2506,2507,2505,2506,2507,2505,2506,2507,2542,2543,2544,2505,2506,2507,2505,2506,2507,2505,2506,2507,2505,2506,2507,2505,2506,2507,2505,2506,2507,2505,2506,2507,2505,2506,2507,2505,2506,2507,2505,2506,2507,2505,2506,2507,2505,2506,2507,2505,2506,2507,2505,2506,2507,2505,2506,2507,2505,2506,2507,2505,2506,2507,2505,2506,2507,2505,2506,2507,2505,2506,2507,2505,2506,2507,2505,2506,2507,2505,2506,2507,2505,2506,2507,2505,2506,2507,2505,2506,2507,2505,2506,2507,2505,2506,2507,2505,2506,2507,2505,2506,2507,2505,2506,2507,2505,2506,2507,2505,2506,2507,2505,2506,2507,2505,2506,2507,2505,2506,2507,2505,2506,2507,2505,2506,2507,2505,2506,2507,2505,2506,2507,2505,2506,2507,2505,2506,2507,2505,2506,2507,2505,2506,2507,2505,2506,2507,2505,2506,2507,2505,2506,2507,2505,2506,2507,2542,2543,2544,2505,2506,2507,2505,2506,2507,2505,2506,2507,2505,2506,2507,2505,2506,2507,2505,2506,2507,2505,2506,2507,2505,2506,2507,2505,2506,2507,2505,2506,2507,2505,2506,2507,2505,2506,2507,2505,2506,2507,2505,2506,2507,2505,2506,2507,2505,2506,2507,2505,2506,2507,2505,2506,2507,2505,2506,2507,2505,2506,2507,2505,2506,2507,2505,2506,2507,2505,2506,2507,2505,2506,2507,2505,2506,2507,2505,2506,2507,2505,2506,2507,2505,2506,2507,2505,2506,2507,2505,2506,2507,2505,2506,2507,2505,2506,2507,2505,2506,2507,2505,2506,2507,2505,2506,2507,2505,2506,2507,2505,2506,2507,2505,2506,2507,2505,2506,2507,2505,2506,2507,2505,2506,2507,2505,2506,2507,2505,2506,2507,2505,2506,2507,2505,2506,2507,2505,2506,2507,2505,2506,2507,2505,2506,2507,2505,2506,2507,2505,2506,2507,2505,2506,2507,2505,2506,2507,2505,2506,2507,2505,2506,2507,2505,2506,2507,2505,2506,2507,2505,2506,2507,2505,2506,2507,2505,2506,2507,2505,2506,2507,2505,2506,2507,2505,2506,2507,2505,2506,2507,2505,2506,2507,2505,2506,2507,2505,2506,2507,2505,2506,2507,2505,2506,2507,2505,2506,2507,2505,2506,2507,2505,2542,2543,2544,2506,2507,2505,2506,2507,2505,2506,2507,2505,2506,2507,2505,2506,2507,2505,2506,2507,2505,2506,2507,2505,2506,2507,2505,2506,2507,2505,2506,2507,2505,2506,2507,2505,2506,2507,2505,2506,2507,2505,2506,2507,2505,2506,2507,2505,2506,2507,2505,2506,2507,2505,2506,2507,2505,2506,2507,0,0,0,2505,
2562,2563,2564,2525,2526,2527,2525,2526,2527,2525,2526,2527,2525,2526,2527,2525,2526,2527,2525,2526,2527,2525,2526,2527,2525,2526,2527,2525,2526,2527,2525,2526,2527,2562,2563,2564,2525,2526,2527,2525,2526,2527,2525,2526,2527,2525,2526,2527,2525,2526,2527,2525,2526,2527,2525,2526,2527,2525,2526,2527,2525,2526,2527,2525,2526,2527,2562,2563,2564,2525,2526,2527,2525,2526,2527,2525,2526,2527,2525,2526,2527,2525,2526,2527,2525,2526,2527,2525,2526,2527,2525,2526,2527,2525,2526,2527,2525,2526,2527,2525,2526,2527,2525,2526,2527,2525,2526,2527,2525,2526,2527,2525,2526,2527,2525,2526,2527,2525,2526,2527,2525,2526,2527,2525,2526,2527,2525,2526,2527,2525,2526,2527,2525,2526,2527,2525,2526,2527,2525,2526,2527,2525,2526,2527,2525,2526,2527,2525,2526,2527,2525,2526,2527,2525,2526,2527,2525,2526,2527,2525,2526,2527,2525,2526,2527,2525,2526,2527,2525,2526,2527,2525,2526,2527,2525,2526,2527,2525,2526,2527,2525,2526,2527,2525,2526,2527,2562,2563,2564,2525,2526,2527,2525,2526,2527,2525,2526,2527,2525,2526,2527,2525,2526,2527,2525,2526,2527,2525,2526,2527,2525,2526,2527,2525,2526,2527,2525,2526,2527,2525,2526,2527,2525,2526,2527,2525,2526,2527,2525,2526,2527,2525,2526,2527,2525,2526,2527,2525,2526,2527,2525,2526,2527,2525,2526,2527,2525,2526,2527,2525,2526,2527,2525,2526,2527,2525,2526,2527,2525,2526,2527,2525,2526,2527,2525,2526,2527,2525,2526,2527,2525,2526,2527,2525,2526,2527,2525,2526,2527,2525,2526,2527,2562,2563,2564,2525,2526,2527,2525,2526,2527,2525,2526,2527,2525,2526,2527,2525,2526,2527,2525,2526,2527,2525,2526,2527,2525,2526,2527,2525,2526,2527,2525,2526,2527,2525,2526,2527,2525,2526,2527,2525,2526,2527,2525,2526,2527,2525,2526,2527,2525,2526,2527,2525,2526,2527,2525,2526,2527,2525,2526,2527,2525,2526,2527,2525,2526,2527,2525,2526,2527,2525,2526,2527,2525,2526,2527,2525,2526,2527,2525,2526,2527,2525,2526,2527,2525,2526,2527,2525,2526,2527,2562,2563,2564,2525,2526,2527,2525,2526,2527,2525,2526,2527,2525,2526,2527,2525,2526,2527,2525,2526,2527,2525,2526,2527,2525,2526,2527,2525,2526,2527,2525,2526,2527,2525,2526,2527,2525,2526,2527,2525,2526,2527,2525,2526,2527,2525,2526,2527,2525,2526,2527,2525,2526,2527,2525,2526,2527,2525,2526,2527,2525,2526,2527,2525,2526,2527,2525,2526,2527,2525,2526,2527,2562,2563,2564,2525,2526,2527,2525,2526,2527,2525,2526,2527,2525,2526,2527,2525,2526,2527,2525,2526,2527,2525,2526,2527,2525,2526,2527,2525,2526,2527,2525,2526,2527,2525,2526,2527,2525,2526,2527,2525,2526,2527,2525,2526,2527,2525,2526,2527,2525,2526,2527,2525,2526,2527,2525,2526,2527,2865,2866,2867,2803,2804,2802,2803,2804,2901,2902,2903,2802,2803,2804,2802,2803,2804,2865,2866,2867,2527,2525,2526,2527,2525,2526,2527,2525,2526,2527,2525,2526,2527,2525,2526,2527,2525,2526,2527,2525,2526,2527,2525,2526,2527,2525,2526,2527,2525,2526,2527,2525,2526,2527,2525,2526,2527,2525,2526,2527,2525,2526,2527,2525,2526,2527,2525,2526,2527,2525,2526,2527,2525,2526,2527,2562,2563,2564,2525,2526,2527,2525,2526,2527,2525,2526,2527,2525,2526,2527,2525,2526,2527,2525,2526,2527,2525,2526,2527,2525,2526,2527,2525,2526,2527,2525,2526,2527,2525,2526,2527,2525,2526,2527,2525,2526,2527,2525,2526,2527,2525,2526,2527,2525,2526,2527,2525,2526,2527,2525,2526,2527,2525,2526,2527,2525,2526,2527,2525,2526,2527,2525,2526,2527,2525,2526,2527,2525,2526,2527,2525,2526,2527,2525,2526,2527,2525,2526,2527,2525,2526,2527,2525,2526,2527,2525,2526,2527,2525,2526,2527,2525,2526,2527,2525,2526,2527,2525,2526,2527,2525,2526,2527,2525,2526,2527,2525,2526,2527,2525,2526,2527,2525,2526,2527,2525,2526,2527,2525,2526,2527,2525,2526,2527,2525,2526,2527,2525,2526,2527,2525,2526,2527,2525,2526,2527,2525,2526,2527,2525,2526,2527,2562,2563,2564,2525,2526,2527,2525,2526,2527,2525,2526,2527,2525,2526,2527,2525,2526,2527,2525,2526,2527,2525,2526,2527,2525,2526,2527,2525,2526,2527,2525,2526,2527,2525,2526,2527,2525,2526,2527,2525,2526,2527,2525,2526,2527,2525,2526,2527,2525,2526,2527,2525,2526,2527,2525,2526,2527,2525,2526,2527,2525,2526,2527,2525,2526,2527,2525,2526,2527,2525,2526,2527,2525,2526,2527,2525,2526,2527,2525,2526,2527,2525,2526,2527,2525,2526,2527,2525,2526,2527,2525,2526,2527,2525,2526,2527,2525,2526,2527,2525,2526,2527,2525,2526,2527,2525,2526,2527,2525,2526,2527,2525,2526,2527,2525,2526,2527,2525,2526,2527,2525,2526,2527,2525,2526,2527,2525,2526,2527,2525,2526,2527,2525,2526,2527,2525,2526,2527,2525,2526,2527,2525,2526,2527,2525,2526,2527,2525,2526,2527,2525,2526,2527,2525,2526,2527,2525,2526,2527,2525,2526,2527,2525,2526,2527,2525,2526,2527,2525,2526,2527,2525,2526,2527,2525,2526,2527,2525,2526,2527,2525,2526,2527,2525,2526,2527,2525,2526,2527,2525,2526,2527,2525,2526,2527,2525,2526,2527,2525,2526,2527,2525,2526,2527,2525,2526,2527,2525,2526,2527,2525,2526,2527,2525,2562,2563,2564,2526,2527,2525,2526,2527,2525,2526,2527,2525,2526,2527,2525,2526,2527,2525,2526,2527,2525,2526,2527,2525,2526,2527,2525,2526,2527,2525,2526,2527,2525,2526,2527,2525,2526,2527,2525,2526,2527,2525,2526,2527,2525,2526,2527,2525,2526,2527,2525,2526,2527,2525,2526,2527,2525,2526,2527,0,0,0,2525,
2582,2583,2584,2545,2546,2547,2545,2546,2547,2545,2546,2547,2545,2546,2547,2545,2546,2547,2545,2546,2547,2545,2546,2547,2545,2546,2547,2545,2546,2547,2545,2546,2547,2582,2583,2584,2545,2546,2547,2545,2546,2547,2545,2546,2547,2545,2546,2547,2545,2546,2547,2545,2546,2547,2545,2546,2547,2545,2546,2547,2545,2546,2547,2545,2546,2547,2582,2583,2584,2545,2546,2547,2545,2546,2547,2545,2546,2547,2545,2546,2547,2545,2546,2547,2545,2546,2547,2545,2546,2547,2545,2546,2547,2545,2546,2547,2545,2546,2547,2545,2546,2547,2545,2546,2547,2545,2546,2547,2545,2546,2547,2545,2546,2547,2545,2546,2547,2545,2546,2547,2545,2546,2547,2545,2546,2547,2545,2546,2547,2545,2546,2547,2545,2546,2547,2545,2546,2547,2545,2546,2547,2545,2546,2547,2545,2546,2547,2545,2546,2547,2545,2546,2547,2545,2546,2547,2545,2546,2547,2545,2546,2547,2545,2546,2547,2545,2546,2547,2545,2546,2547,2545,2546,2547,2545,2546,2547,2545,2546,2547,2545,2546,2547,2545,2546,2547,2582,2583,2584,0,2546,2547,2545,2546,2547,2545,2546,2547,2545,2546,2547,2545,2546,2547,2545,2546,2547,2545,2546,2547,2545,2546,2547,2545,2546,2547,2545,2546,2547,2545,2546,2547,2545,2546,2547,2545,2546,2547,2545,2546,2547,2545,2546,2547,2545,2546,2547,2545,2546,2547,2545,2546,2547,2545,2546,2547,2545,2546,2547,2545,2546,2547,2545,2546,2547,2545,2546,2547,2545,2546,2547,2545,2546,2547,2545,2546,2547,2545,2546,2547,2545,2546,2547,2545,2546,2547,2545,2546,2547,2545,2546,2547,2582,2583,2584,2545,2546,2547,2545,2546,2547,2545,2546,2547,2545,2546,2547,2545,2546,2547,2545,2546,2547,2545,2546,2547,2545,2546,2547,2545,2546,2547,2545,2546,2547,2545,2546,2547,2545,2546,2547,2545,2546,2547,2545,2546,2547,2545,2546,2547,2545,2546,2547,2545,2546,2547,2545,2546,2547,2545,2546,2547,2545,2546,2547,2545,2546,2547,2545,2546,2547,2545,2546,2547,2545,2546,2547,2545,2546,2547,2545,2546,2547,2545,2546,2547,2545,2546,2547,2545,2546,2547,2582,2583,2584,2545,2546,2547,2545,2546,2547,2545,2546,2547,2545,2546,2547,2545,2546,2547,2545,2546,2547,2545,2546,2547,2545,2546,2547,2545,2546,2547,2545,2546,2547,2545,2546,2547,2545,2546,2547,2545,2546,2547,2545,2546,2547,2545,2546,2547,2545,2546,2547,2545,2546,2547,2545,2546,2547,2545,2546,2547,2545,2546,2547,2545,2546,2547,2545,2546,2547,2545,2546,2547,2582,2583,2584,0,2546,2547,2545,2546,2547,2545,2546,2547,2545,2546,2547,2545,2546,2547,2545,2546,2547,2545,2546,2547,2545,2546,2547,2545,2546,2547,2545,2546,2547,2545,2546,2547,2545,2546,2547,2545,2546,2547,2545,2546,2547,2545,2546,2547,2545,2546,2547,2545,2546,2547,2545,2546,2547,2898,2899,2900,2836,2837,2835,2836,2837,2934,2935,2936,2835,2836,2837,2835,2836,2837,2898,2899,2900,2547,2545,2546,2547,2545,2546,2547,2545,2546,2547,2545,2546,2547,2545,2546,2547,2545,2546,2547,2545,2546,2547,2545,2546,2547,2545,2546,2547,2545,2546,2547,2545,2546,2547,2545,2546,2547,2545,2546,2547,2545,2546,2547,2545,2546,2547,2545,2546,2547,2545,2546,2547,2545,2546,2547,2582,2583,2584,2545,2546,2547,2545,2546,2547,2545,2546,2547,2545,2546,2547,2545,2546,2547,2545,2546,2547,2545,2546,2547,2545,2546,2547,2545,2546,2547,2545,2546,2547,2545,2546,2547,2545,2546,2547,2545,2546,2547,2545,2546,2547,2545,2546,2547,2545,2546,2547,2545,2546,2547,2545,2546,2547,2545,2546,2547,2545,2546,2547,2545,2546,2547,2545,2546,2547,2545,2546,2547,2545,2546,2547,2545,2546,2547,2545,2546,2547,2545,2546,2547,2545,2546,2547,2545,2546,2547,2545,2546,2547,2545,2546,2547,2545,2546,2547,2545,2546,2547,2545,2546,2547,2545,2546,2547,2545,2546,2547,2545,2546,2547,2545,2546,2547,2545,2546,2547,2545,2546,2547,2545,2546,2547,2545,2546,2547,2545,2546,2547,2545,2546,2547,2545,2546,2547,2545,2546,2547,2545,2546,2547,2545,2546,2547,2582,2583,2584,2545,2546,2547,2545,2546,2547,2545,2546,2547,2545,2546,2547,2545,2546,2547,2545,2546,2547,2545,2546,2547,2545,2546,2547,2545,2546,2547,2545,2546,2547,2545,2546,2547,2545,2546,2547,2545,2546,2547,2545,2546,2547,2545,2546,2547,2545,2546,2547,2545,2546,2547,2545,2546,2547,2545,2546,2547,2545,2546,2547,2545,2546,2547,2545,2546,2547,2545,2546,2547,2545,2546,2547,2545,2546,2547,2545,2546,2547,2545,2546,2547,2545,2546,2547,2545,2546,2547,2545,2546,2547,2545,2546,2547,2545,2546,2547,2545,2546,2547,2545,2546,2547,2545,2546,2547,2545,2546,2547,2545,2546,2547,2545,2546,2547,2545,2546,2547,2545,2546,2547,2545,2546,2547,2545,2546,2547,2545,2546,2547,2545,2546,2547,2545,2546,2547,2545,2546,2547,2545,2546,2547,2545,2546,2547,2545,2546,2547,2545,2546,2547,2545,2546,2547,2545,2546,2547,2545,2546,2547,2545,2546,2547,2545,2546,2547,2545,2546,2547,2545,2546,2547,2545,2546,2547,2545,2546,2547,2545,2546,2547,2545,2546,2547,2545,2546,2547,2545,2546,2547,2545,2546,2547,2545,2546,2547,2545,2546,2547,2545,2546,2547,2545,2546,2547,2545,2546,2547,2545,2546,2547,2545,2582,2583,2584,2546,2547,2545,2546,2547,2545,2546,2547,2545,2546,2547,2545,2546,2547,2545,2546,2547,2545,2546,2547,2545,2546,2547,2545,2546,2547,2545,2546,2547,2545,2546,2547,2545,2546,2547,2545,2546,2547,2545,2546,2547,2545,2546,2547,2545,2546,2547,2545,2546,2547,2545,2546,2547,2545,2546,2547,0,0,0,2545,
2602,2583,2604,0,0,0,0,0,0,0,0,0,0,0,0,0,0,0,0,0,0,0,0,0,0,0,0,0,0,0,0,0,0,2602,2583,2604,0,0,0,0,0,0,0,0,0,0,0,0,0,0,0,0,0,0,0,0,0,0,0,0,0,0,0,0,0,0,2602,2603,2604,0,0,0,0,0,0,0,0,0,0,0,0,0,0,0,0,0,0,0,0,0,0,0,0,0,0,0,0,0,0,0,0,0,0,0,0,0,0,0,0,0,0,0,0,0,0,0,0,0,0,0,0,0,0,0,0,0,0,0,0,0,0,0,0,0,0,0,0,0,0,0,0,0,0,0,0,0,0,0,0,0,0,0,0,0,0,0,0,0,0,0,0,0,0,0,0,0,0,0,0,0,0,0,0,0,0,0,0,0,0,0,0,0,0,0,0,0,2602,2603,2604,0,0,0,0,0,0,0,0,0,0,0,0,0,0,0,0,0,0,0,0,0,0,0,0,0,0,0,0,0,0,0,0,0,0,0,0,0,0,0,0,0,0,0,0,0,0,0,0,0,0,0,0,0,0,0,0,0,0,0,0,0,0,0,0,0,0,0,0,0,0,0,0,0,0,0,0,0,0,0,0,0,0,0,0,0,0,0,0,0,0,0,0,0,2602,2603,2604,0,0,0,0,0,0,0,0,0,0,0,0,0,0,0,0,0,0,0,0,0,0,0,0,0,0,0,0,0,0,0,0,0,0,0,0,0,0,0,0,0,0,0,0,0,0,0,0,0,0,0,0,0,0,0,0,0,0,0,0,0,0,0,0,0,0,0,0,0,0,0,0,0,0,0,0,0,0,0,0,0,0,0,0,0,0,0,2602,2603,2604,0,0,0,0,0,0,0,0,0,0,0,0,0,0,0,0,0,0,0,0,0,0,0,0,0,0,0,0,0,0,0,0,0,0,0,0,0,0,0,0,0,0,0,0,0,0,0,0,0,0,0,0,0,0,0,0,0,0,0,0,0,0,0,0,0,0,0,0,0,2602,2603,2604,0,0,0,0,0,0,0,0,0,0,0,0,0,0,0,0,0,0,0,0,0,0,0,0,0,0,0,0,0,0,0,0,0,0,0,0,0,0,0,0,0,0,0,0,0,0,0,0,0,0,0,0,0,0,0,0,0,0,0,0,0,0,0,0,0,0,0,0,0,0,0,0,0,0,0,0,0,0,0,0,0,0,0,0,0,0,0,0,0,0,0,0,0,0,0,0,0,0,0,0,0,0,0,0,0,0,0,0,0,0,0,0,0,0,0,0,0,0,0,0,0,0,0,0,0,0,0,0,0,2602,2603,2604,0,0,0,0,0,0,0,0,0,0,0,0,0,0,0,0,0,0,0,0,0,0,0,0,0,0,0,0,0,0,0,0,0,0,0,0,0,0,0,0,0,0,0,0,0,0,0,0,0,0,0,0,0,0,0,0,0,0,0,0,0,0,0,0,0,0,0,0,0,0,0,0,0,0,0,0,0,0,0,0,0,0,0,0,0,0,0,0,0,0,0,0,0,0,0,0,0,0,0,0,0,0,0,0,0,0,0,0,0,0,0,0,0,0,0,0,0,0,0,0,0,0,0,0,0,0,0,0,0,0,0,0,0,0,0,0,0,0,0,0,0,0,0,0,2602,2603,2604,0,0,0,0,0,0,0,0,0,0,0,0,0,0,0,0,0,0,0,0,0,0,0,0,0,0,0,0,0,0,0,0,0,0,0,0,0,0,0,0,0,0,0,0,0,0,0,0,0,0,0,0,0,0,0,0,0,0,0,0,0,0,0,0,0,0,0,0,0,0,0,0,0,0,0,0,0,0,0,0,0,0,0,0,0,0,0,0,0,0,0,0,0,0,0,0,0,0,0,0,0,0,0,0,0,0,0,0,0,0,0,0,0,0,0,0,0,0,0,0,0,0,0,0,0,0,0,0,0,0,0,0,0,0,0,0,0,0,0,0,0,0,0,0,0,0,0,0,0,0,0,0,0,0,0,0,0,0,0,0,0,0,0,0,0,0,0,0,0,0,0,0,0,0,0,0,0,0,0,0,0,0,0,0,0,0,0,0,0,0,0,0,0,0,0,0,0,0,0,0,0,0,0,0,0,0,0,0,0,0,0,2602,2603,2604,0,0,0,0,0,0,0,0,0,0,0,0,0,0,0,0,0,0,0,0,0,0,0,0,0,0,0,0,0,0,0,0,0,0,0,0,0,0,0,0,0,0,0,0,0,0,0,0,0,0,0,0,0,0,0,0,0,0,0,0,
0,0,0,914,914,914,914,914,914,914,914,914,914,914,914,914,914,914,914,914,914,914,914,914,914,914,914,914,914,914,914,914,0,0,0,0,914,914,914,914,914,914,914,914,914,914,914,914,914,914,914,914,914,914,914,914,914,914,914,914,914,914,914,914,914,0,0,0,0,914,914,914,914,914,914,914,914,914,914,914,914,914,914,914,914,914,914,914,914,914,914,914,914,914,914,914,914,914,914,914,914,914,914,914,914,914,914,914,914,914,914,914,914,914,914,914,914,914,914,914,914,914,914,914,914,914,914,914,914,914,914,914,914,914,914,914,914,914,914,914,914,914,914,914,914,914,914,914,914,914,914,914,914,914,914,914,914,0,914,914,914,914,914,914,914,914,914,914,914,914,914,914,914,914,914,914,914,914,914,914,914,914,914,914,914,0,0,0,0,914,914,914,914,914,914,914,914,914,914,914,914,914,914,914,914,914,914,914,914,914,914,914,914,914,914,914,914,914,914,914,914,914,914,914,914,914,914,914,914,914,914,914,914,914,914,914,914,914,914,914,914,914,914,914,914,914,914,914,914,914,914,914,914,914,0,914,914,914,914,914,914,914,914,914,914,914,914,914,914,914,914,914,914,914,914,914,914,914,914,914,914,0,0,0,0,914,914,914,914,914,914,914,914,914,914,914,914,914,914,914,914,914,914,914,914,914,914,914,914,914,914,914,914,914,914,914,914,914,914,914,914,914,914,914,914,914,914,914,914,914,914,914,914,914,914,914,914,914,914,914,914,914,914,914,914,914,914,914,914,914,914,914,914,914,914,914,914,914,914,914,914,914,914,914,914,914,914,914,914,914,914,0,0,0,0,914,914,914,914,914,914,914,914,914,914,914,914,914,914,914,914,914,914,914,914,914,914,914,914,914,914,914,914,914,914,914,914,914,914,914,914,914,914,914,914,914,914,914,914,914,914,914,914,914,914,914,914,914,914,914,914,914,914,914,914,914,914,914,914,914,914,914,914,0,0,0,0,914,914,914,914,914,914,914,914,914,914,914,914,914,914,914,914,914,914,914,914,914,914,914,914,914,914,914,914,914,914,914,914,914,914,914,914,914,914,914,914,914,914,914,914,914,914,914,914,914,914,914,914,914,914,914,914,914,914,914,914,914,914,914,914,914,914,914,914,914,914,914,914,914,914,914,914,914,914,914,914,914,914,914,914,914,914,914,914,914,914,914,914,914,914,914,914,914,914,914,914,914,914,914,914,914,914,914,914,914,914,914,914,914,914,914,914,914,914,914,914,914,914,914,914,914,914,914,914,0,0,0,0,914,914,914,914,914,914,914,914,914,914,914,914,914,914,914,914,914,914,914,914,914,914,914,914,914,914,914,914,914,914,914,914,914,914,914,914,914,914,914,914,914,914,914,914,914,914,914,914,914,914,914,914,914,914,914,914,914,914,914,914,914,914,914,914,0,914,914,914,914,914,914,914,914,914,914,914,914,914,914,914,914,914,914,914,914,914,914,914,914,914,914,914,914,914,914,914,914,914,914,914,914,914,914,914,914,914,914,914,914,914,914,914,914,914,914,914,914,914,914,914,914,914,914,914,914,914,914,914,914,914,914,914,914,914,914,914,914,914,914,914,914,914,914,0,0,0,0,914,914,914,914,914,914,914,914,914,914,914,914,914,914,914,914,914,914,914,914,914,914,914,914,914,914,914,914,914,914,914,914,914,914,914,914,914,914,914,914,914,914,914,914,914,914,914,914,914,914,914,914,914,914,914,914,914,914,914,914,914,914,914,914,914,914,914,914,914,914,914,914,914,914,914,914,914,914,914,914,914,914,914,914,914,914,914,914,914,914,914,914,914,0,914,914,914,914,914,914,914,914,914,914,914,914,914,914,914,914,914,914,914,914,914,914,914,914,914,914,914,914,914,914,914,914,914,914,914,914,914,914,914,914,914,914,914,914,914,914,914,914,914,914,914,914,914,914,914,914,914,914,914,914,914,914,914,914,914,914,914,914,914,914,914,914,914,914,914,914,914,914,914,914,914,914,914,914,914,914,914,0,914,914,914,914,914,914,914,914,914,914,914,914,914,914,914,914,914,914,914,914,914,914,914,914,914,914,914,914,0,0,0,0,914,914,914,914,914,914,914,914,914,914,914,914,914,914,914,914,914,914,914,914,914,914,914,914,914,914,914,914,914,914,914,914,914,914,914,914,914,914,914,914,914,914,914,914,914,914,914,914,914,914,914,914,914,914,914,914,914,914,914,0,
914,915,914,915,914,915,914,915,914,915,914,915,914,915,914,915,914,915,914,915,914,915,914,915,914,915,914,915,914,915,914,915,914,915,914,915,914,915,914,915,914,915,914,915,914,915,914,915,914,915,914,915,914,915,914,915,914,915,914,915,914,915,914,915,914,915,914,915,914,915,914,915,914,915,914,915,914,915,914,915,914,915,914,915,914,915,914,915,914,915,914,915,914,915,914,915,914,915,914,915,914,915,914,915,914,915,914,915,914,915,914,915,914,915,914,915,914,915,914,915,914,915,914,915,914,915,914,915,914,915,914,915,914,915,914,915,914,915,914,915,914,915,914,915,914,915,914,915,914,915,914,915,914,915,914,915,914,915,914,915,914,915,914,915,914,915,914,915,914,915,914,915,914,915,914,915,914,915,914,915,914,915,914,915,914,915,914,915,914,915,914,915,914,915,914,915,914,915,914,915,914,915,914,915,914,915,914,915,914,915,914,915,914,915,914,915,914,915,914,915,914,915,914,915,914,915,914,915,914,915,914,915,914,915,914,915,914,915,914,915,914,915,914,915,914,915,914,915,914,915,914,915,914,915,914,915,914,915,914,915,914,915,914,915,914,915,914,915,914,915,914,915,914,915,914,915,914,915,914,915,914,915,914,915,914,915,914,915,914,915,914,915,914,915,914,915,914,915,914,915,914,915,914,915,914,915,914,915,914,915,914,915,914,915,914,915,914,915,914,915,914,915,914,915,914,915,914,915,914,915,914,915,914,915,914,915,914,915,914,915,914,915,914,915,914,915,914,915,914,915,914,915,914,915,914,915,914,915,914,915,914,915,914,915,914,915,914,915,914,915,914,915,914,915,914,915,914,915,914,915,914,915,914,915,914,915,914,915,914,915,914,915,914,915,914,915,914,915,914,915,914,915,914,915,914,915,914,915,914,915,914,915,914,915,914,915,914,915,914,915,914,915,914,915,914,915,914,915,914,915,914,915,914,915,914,915,914,915,914,915,914,915,914,915,914,915,914,914,914,914,914,914,914,914,914,914,914,914,914,914,914,914,914,914,914,914,914,914,914,914,914,914,914,914,914,914,914,914,914,914,914,914,914,914,914,914,914,914,914,914,914,914,914,914,914,914,914,914,914,914,914,914,914,914,914,914,914,914,914,914,914,914,914,914,914,914,914,914,914,914,914,915,914,915,914,915,914,915,914,915,914,915,914,915,914,915,914,915,914,915,914,915,914,915,914,915,914,915,914,915,914,915,914,915,914,915,914,915,914,915,914,915,914,915,914,915,914,915,914,915,914,915,914,915,914,915,914,915,914,915,914,915,914,915,914,915,914,915,914,915,914,915,914,915,914,915,914,915,914,915,914,915,914,915,914,915,914,915,914,915,914,915,914,915,914,915,914,915,914,915,914,915,914,915,914,915,914,915,914,915,914,915,914,915,914,915,914,915,914,915,914,915,914,915,914,915,914,915,914,915,914,915,914,915,914,915,914,915,914,915,914,915,914,915,914,915,914,915,914,915,914,915,914,915,914,915,914,915,914,915,914,915,914,915,914,915,914,915,914,915,914,915,914,915,914,915,914,915,914,915,914,915,914,915,914,915,914,915,914,915,914,915,914,915,914,915,914,915,914,915,914,915,914,915,914,915,914,915,914,915,914,915,914,915,914,915,914,915,914,915,914,915,914,915,914,915,914,915,914,915,914,915,914,915,914,915,914,915,914,915,914,915,914,915,914,915,914,915,914,915,914,915,914,915,914,915,914,915,914,915,914,915,914,915,914,915,914,915,914,915,914,915,914,915,914,915,914,915,914,915,914,915,914,915,914,915,914,915,914,915,914,915,914,915,914,915,914,915,914,915,914,915,914,915,914,915,914,915,914,915,914,915,914,915,914,915,914,915,914,915,914,915,914,915,914,915,914,915,914,915,914,915,914,915,914,915,914,915,914,915,914,915,914,915,914,915,914,915,914,915,914,915,914,915,914,915,914,915,914,915,914,915,914,915,914,915,914,915,914,915,914,915,914,915,914,915,914,915,914,915,914,915,914,915,914,915,914,915,914,915,914,915,914,915,914,915,914,915,914,915,914,915,914,915,914,915,914,915,914,915,914,915,914,915,914,915,914,915,914,915,914,914,914,914,914,914,914,914,914,914,914,914,914,914,914,914,914,914,914,914,914,914,914,914,914,914,914,914,914,914,914,914,914,914,914,914,914,914,914,914,914,914,914,914,914,914,914,914,914,914,914,914,914,914,914,914,914,914,914,0,
958,959,958,959,958,959,958,959,958,959,958,959,958,959,958,959,958,959,958,959,958,959,958,959,958,959,958,959,958,959,958,959,958,959,958,959,958,959,958,959,958,959,958,959,958,959,958,959,958,959,958,959,958,959,958,959,958,959,958,959,958,959,958,959,958,959,958,959,958,959,958,959,958,959,958,959,958,959,958,959,958,959,958,959,958,959,958,959,958,959,958,959,958,959,958,959,958,959,958,959,958,959,958,959,958,959,958,959,958,959,958,959,958,959,958,959,958,959,958,959,958,959,958,959,958,959,958,959,958,959,958,959,958,959,958,959,958,959,958,959,958,959,958,959,958,959,958,959,958,959,958,959,958,959,958,959,958,959,958,959,958,959,958,959,958,959,958,959,958,959,958,959,958,959,958,959,958,959,958,959,958,959,958,959,958,959,958,959,958,959,958,959,958,959,958,959,958,959,958,959,958,959,958,959,958,959,958,959,958,959,958,959,958,959,958,959,958,959,958,959,958,959,958,959,958,959,958,959,958,959,958,959,958,959,958,959,958,959,958,959,958,959,958,959,958,959,958,959,958,959,958,959,958,959,958,959,958,959,958,959,958,959,958,959,958,959,958,959,958,959,958,959,958,959,958,959,958,959,958,959,958,959,958,959,958,959,958,959,958,959,958,959,958,959,958,959,958,959,958,959,958,959,958,959,958,959,958,959,958,959,958,959,958,959,958,959,958,959,958,959,958,959,958,959,958,959,958,959,958,959,958,959,958,959,958,959,958,959,958,959,958,959,958,959,958,959,958,959,958,959,958,959,958,959,958,959,958,959,958,959,958,959,958,959,958,959,958,959,958,959,958,959,958,959,958,959,958,959,958,959,958,959,958,959,958,959,958,959,958,959,958,959,958,959,958,959,958,959,958,959,958,959,958,959,958,959,958,959,958,959,958,959,958,959,958,959,958,959,958,959,958,959,958,959,958,959,958,959,958,959,958,959,958,959,958,959,958,959,958,959,958,959,958,959,958,959,958,959,958,959,958,959,958,959,958,959,958,959,958,959,958,959,958,959,958,959,958,959,958,959,958,959,958,959,958,959,958,959,958,959,958,959,958,959,958,959,958,959,958,959,958,959,958,959,958,959,958,959,958,959,958,959,958,959,958,959,958,959,958,959,958,959,958,959,958,959,958,959,958,959,958,959,958,959,958,959,958,959,958,959,958,959,958,959,958,959,958,959,958,959,958,959,958,959,958,959,958,959,958,959,958,959,958,959,958,959,958,959,958,959,958,959,958,959,958,959,958,959,958,959,958,959,958,959,958,959,958,959,958,959,958,959,958,959,958,959,958,959,958,959,958,959,958,959,958,959,958,959,958,959,958,959,958,959,958,959,958,959,958,959,958,959,958,959,958,959,958,959,958,959,958,959,958,959,958,959,958,959,958,959,958,959,958,959,958,959,958,959,958,959,958,959,958,959,958,959,958,959,958,959,958,959,958,959,958,959,958,959,958,959,958,959,958,959,958,959,958,959,958,959,958,959,958,959,958,959,958,959,958,959,958,959,958,959,958,959,958,959,958,959,958,959,958,959,958,959,958,959,958,959,958,959,958,959,958,959,958,959,958,959,958,959,958,959,958,959,958,959,958,959,958,959,958,959,958,959,958,959,958,959,958,959,958,959,958,959,958,959,958,959,958,959,958,959,958,959,958,959,958,959,958,959,958,959,958,959,958,959,958,959,958,959,958,959,958,959,958,959,958,959,958,959,958,959,958,959,958,959,958,959,958,959,958,959,958,959,958,959,958,959,958,959,958,959,958,959,958,959,958,959,958,959,958,959,958,959,958,959,958,959,958,959,958,959,958,959,958,959,958,959,958,959,958,959,958,959,958,959,958,959,958,959,958,959,958,959,958,959,958,959,958,959,958,959,958,959,958,959,958,959,958,959,958,959,958,959,958,959,958,959,958,959,958,959,958,959,958,959,958,959,958,959,958,959,958,959,958,959,958,959,958,959,958,959,958,959,958,959,958,959,958,959,958,959,958,959,958,959,958,959,958,959,958,959,958,959,958,959,958,959,958,959,958,959,958,959,958,959,958,959,958,959,958,959,958,959,958,959,958,959,958,959,958,959,958,959,958,959,958,959,958,959,958,959,958,959,958,959,958,959,958,959,958,959,958,959,958,959,958,959,958,959,958,959,958,959,958,959,958,959,958,959,958,959,958,959,958,959,958,959,958,959,958,959,958,959,958,959,958,959,958,959,958,959,958,959,958,959,958,0,
914,915,914,915,914,915,914,915,914,915,914,915,914,915,914,915,914,915,914,915,914,915,914,915,914,915,914,915,914,915,914,915,914,915,914,915,914,915,914,915,914,915,914,915,914,915,914,915,914,915,914,915,914,915,914,915,914,915,914,915,914,915,914,915,914,915,914,915,914,915,914,915,914,915,914,915,914,915,914,915,914,915,914,915,914,915,914,915,914,915,914,915,914,915,914,915,914,915,914,915,914,915,914,915,914,915,914,915,914,915,914,915,914,915,914,915,914,915,914,915,914,915,914,915,914,915,914,915,914,915,914,915,914,915,914,915,914,915,914,915,914,915,914,915,914,915,914,915,914,915,914,915,914,915,914,915,914,915,914,915,914,915,914,915,914,915,914,915,914,915,914,915,914,915,914,915,914,915,914,915,914,915,914,915,914,915,914,915,914,915,914,915,914,915,914,915,914,915,914,915,914,915,914,915,914,915,914,915,914,915,914,915,914,915,914,915,914,915,914,915,914,915,914,915,914,915,914,915,914,915,914,915,914,915,914,915,914,915,914,915,914,915,914,915,914,915,914,915,914,915,914,915,914,915,914,915,914,915,914,915,914,915,914,915,914,915,914,915,914,915,914,915,914,915,914,915,914,915,914,915,914,915,914,915,914,915,914,915,914,915,914,915,914,915,914,915,914,915,914,915,914,915,914,915,914,915,914,915,914,915,914,915,914,915,914,915,914,915,914,915,914,915,914,915,914,915,914,915,914,915,914,915,914,915,914,915,914,915,914,915,914,915,914,915,914,915,914,915,914,915,914,915,914,915,914,915,914,915,914,915,914,915,914,915,914,915,914,915,914,915,914,915,914,915,914,915,914,915,914,915,914,915,914,915,914,915,914,915,914,915,914,915,914,915,914,915,914,915,914,915,914,915,914,915,914,915,914,915,914,915,914,915,914,915,914,915,914,915,914,915,914,915,914,915,914,915,914,915,914,915,914,915,914,915,914,915,914,915,914,915,914,915,914,915,914,915,914,915,914,915,914,915,914,915,914,915,914,915,914,915,914,915,914,915,914,915,914,915,914,915,914,915,914,915,914,915,914,915,914,915,914,915,914,915,914,915,914,915,914,915,914,915,914,915,914,915,914,915,914,915,914,915,914,915,914,915,914,915,914,915,914,915,914,915,914,915,914,915,914,915,914,915,914,915,914,915,914,915,914,915,914,915,914,915,914,915,914,915,914,915,914,915,914,915,914,915,914,915,914,915,914,915,914,915,914,915,914,915,914,915,914,915,914,915,914,915,914,915,914,915,914,915,914,915,914,915,914,915,914,915,914,915,914,915,914,915,914,915,914,915,914,915,914,915,914,915,914,915,914,915,914,915,914,915,914,915,914,915,914,915,914,915,914,915,914,915,914,915,914,915,914,915,914,915,914,915,914,915,914,915,914,915,914,915,914,915,914,915,914,915,914,915,914,915,914,915,914,915,914,915,914,915,914,915,914,915,914,915,914,915,914,915,914,915,914,915,914,915,914,915,914,915,914,915,914,915,914,915,914,915,914,915,914,915,914,915,914,915,914,915,914,915,914,915,914,915,914,915,914,915,914,915,914,915,914,915,914,915,914,915,914,915,914,915,914,915,914,915,914,915,914,915,914,915,914,915,914,915,914,915,914,915,914,915,914,915,914,915,914,915,914,915,914,915,914,915,914,915,914,915,914,915,914,915,914,915,914,915,914,915,914,915,914,915,914,915,914,915,914,915,914,915,914,915,914,915,914,915,914,915,914,915,914,915,914,915,914,915,914,915,914,915,914,915,914,915,914,915,914,915,914,915,914,915,914,915,914,915,914,915,914,915,914,915,914,915,914,915,914,915,914,915,914,915,914,915,914,915,914,915,914,915,914,915,914,915,914,915,914,915,914,915,914,915,914,915,914,915,914,915,914,915,914,915,914,915,914,915,914,915,914,915,914,915,914,915,914,915,914,915,914,915,914,915,914,915,914,915,914,915,914,915,914,915,914,915,914,915,914,915,914,915,914,915,914,915,914,915,914,915,914,915,914,915,914,915,914,915,914,915,914,915,914,915,914,915,914,915,914,915,914,915,914,915,914,915,914,915,914,915,914,915,914,915,914,915,914,915,914,915,914,915,914,915,914,915,914,915,914,915,914,915,914,915,914,915,914,915,914,915,914,915,914,915,914,915,914,915,914,915,914,915,914,915,914,915,914,915,914,915,914,915,914,915,914,915,914,915,914,915,914,915,914,915,914,915,914,915,914,0,
958,959,958,959,958,959,958,959,958,959,958,959,958,959,958,959,958,959,958,959,958,959,958,959,958,959,958,959,958,959,958,959,958,959,958,959,958,959,958,959,958,959,958,959,958,959,958,959,958,959,958,959,958,959,958,959,958,959,958,959,958,959,958,959,958,959,958,959,958,959,958,959,958,959,958,959,958,959,958,959,958,959,958,959,958,959,958,959,958,959,958,959,958,959,958,959,958,959,958,959,958,959,958,959,958,959,958,959,958,959,958,959,958,959,958,959,958,959,958,959,958,959,958,959,958,959,958,959,958,959,958,959,958,959,958,959,958,959,958,959,958,959,958,959,958,959,958,959,958,959,958,959,958,959,958,959,958,959,958,959,958,959,958,959,958,959,958,959,958,959,958,959,958,959,958,959,958,959,958,959,958,959,958,959,958,959,958,959,958,959,958,959,958,959,958,959,958,959,958,959,958,959,958,959,958,959,958,959,958,959,958,959,958,959,958,959,958,959,958,959,958,959,958,959,958,959,958,959,958,959,958,959,958,959,958,959,958,959,958,959,958,959,958,959,958,959,958,959,958,959,958,959,958,959,958,959,958,959,958,959,958,959,958,959,958,959,958,959,958,959,958,959,958,959,958,959,958,959,958,959,958,959,958,959,958,959,958,959,958,959,958,959,958,959,958,959,958,959,958,959,958,959,958,959,958,959,958,959,958,959,958,959,958,959,958,959,958,959,958,959,958,959,958,959,958,959,958,959,958,959,958,959,958,959,958,959,958,959,958,959,958,959,958,959,958,959,958,959,958,959,958,959,958,959,958,959,958,959,958,959,958,959,958,959,958,959,958,959,958,959,958,959,958,959,958,959,958,959,958,959,958,959,958,959,958,959,958,959,958,959,958,959,958,959,958,959,958,959,958,959,958,959,958,959,958,959,958,959,958,959,958,959,958,959,958,959,958,959,958,959,958,959,958,959,958,959,958,959,958,959,958,959,958,959,958,959,958,959,958,959,958,959,958,959,958,959,958,959,958,959,958,959,958,959,958,959,958,959,958,959,958,959,958,959,958,959,958,959,958,959,958,959,958,959,958,959,958,959,958,959,958,959,958,959,958,959,958,959,958,959,958,959,958,959,958,959,958,959,958,959,958,959,958,959,958,959,958,959,958,959,958,959,958,959,958,959,958,959,958,959,958,959,958,959,958,959,958,959,958,959,958,959,958,959,958,959,958,959,958,959,958,959,958,959,958,959,958,959,958,959,958,959,958,959,958,959,958,959,958,959,958,959,958,959,958,959,958,959,958,959,958,959,958,959,958,959,958,959,958,959,958,959,958,959,958,959,958,959,958,959,958,959,958,959,958,959,958,959,958,959,958,959,958,959,958,959,958,959,958,959,958,959,958,959,958,959,958,959,958,959,958,959,958,959,958,959,958,959,958,959,958,959,958,959,958,959,958,959,958,959,958,959,958,959,958,959,958,959,958,959,958,959,958,959,958,959,958,959,958,959,958,959,958,959,958,959,958,959,958,959,958,959,958,959,958,959,958,959,958,959,958,959,958,959,958,959,958,959,958,959,958,959,958,959,958,959,958,959,958,959,958,959,958,959,958,959,958,959,958,959,958,959,958,959,958,959,958,959,958,959,958,959,958,959,958,959,958,959,958,959,958,959,958,959,958,959,958,959,958,959,958,959,958,959,958,959,958,959,958,959,958,959,958,959,958,959,958,959,958,959,958,959,958,959,958,959,958,959,958,959,958,959,958,959,958,959,958,959,958,959,958,959,958,959,958,959,958,959,958,959,958,959,958,959,958,959,958,959,958,959,958,959,958,959,958,959,958,959,958,959,958,959,958,959,958,959,958,959,958,959,958,959,958,959,958,959,958,959,958,959,958,959,958,959,958,959,958,959,958,959,958,959,958,959,958,959,958,959,958,959,958,959,958,959,958,959,958,959,958,959,958,959,958,959,958,959,958,959,958,959,958,959,958,959,958,959,958,959,958,959,958,959,958,959,958,959,958,959,958,959,958,959,958,959,958,959,958,959,958,959,958,959,958,959,958,959,958,959,958,959,958,959,958,959,958,959,958,959,958,959,958,959,958,959,958,959,958,959,958,959,958,959,958,959,958,959,958,959,958,959,958,959,958,959,958,959,958,959,958,959,958,959,958,959,958,959,958,959,958,959,958,959,958,959,958,959,958,959,958,959,958,959,958,959,958,959,958,959,958,959,958,959,958,959,958,959,958,959,958,959,958,959,958,959,958,959,958,959,958,0,
914,915,914,915,914,915,914,915,914,915,914,915,914,915,914,915,914,915,914,915,914,915,914,915,914,915,914,915,914,915,914,915,914,915,914,915,914,915,914,915,914,915,914,915,914,915,914,915,914,915,914,915,914,915,914,915,914,915,914,915,914,915,914,915,914,915,914,915,914,915,914,915,914,915,914,915,914,915,914,915,914,915,914,915,914,915,914,915,914,915,914,915,914,915,914,915,914,915,914,915,914,915,914,915,914,915,914,915,914,915,914,915,914,915,914,915,914,915,914,915,914,915,914,915,914,915,914,915,914,915,914,915,914,915,914,915,914,915,914,915,914,915,914,915,914,915,914,915,914,915,914,915,914,915,914,915,914,915,914,915,914,915,914,915,914,915,914,915,914,915,914,915,914,915,914,915,914,915,914,915,914,915,914,915,914,915,914,915,914,915,914,915,914,915,914,915,914,915,914,915,914,915,914,915,914,915,914,915,914,915,914,915,914,915,914,915,914,915,914,915,914,915,914,915,914,915,914,915,914,915,914,915,914,915,914,915,914,915,914,915,914,915,914,915,914,915,914,915,914,915,914,915,914,915,914,915,914,915,914,915,914,915,914,915,914,915,914,915,914,915,914,915,914,915,914,915,914,915,914,915,914,915,914,915,914,915,914,915,914,915,914,915,914,915,914,915,914,915,914,915,914,915,914,915,914,915,914,915,914,915,914,915,914,915,914,915,914,915,914,915,914,915,914,915,914,915,914,915,914,915,914,915,914,915,914,915,914,915,914,915,914,915,914,915,914,915,914,915,914,915,914,915,914,915,914,915,914,915,914,915,914,915,914,915,914,915,914,915,914,915,914,915,914,915,914,915,914,915,914,915,914,915,914,915,914,915,914,915,914,915,914,915,914,915,914,915,914,915,914,915,914,915,914,915,914,915,914,915,914,915,914,915,914,915,914,915,914,915,914,915,914,915,914,915,914,915,914,915,914,915,914,915,914,915,914,915,914,915,914,915,914,915,914,915,914,915,914,915,914,915,914,915,914,915,914,915,914,915,914,915,914,915,914,915,914,915,914,915,914,915,914,915,914,915,914,915,914,915,914,915,914,915,914,915,914,915,914,915,914,915,914,915,914,915,914,915,914,915,914,915,914,915,914,915,914,915,914,915,914,915,914,915,914,915,914,915,914,915,914,915,914,915,914,915,914,915,914,915,914,915,914,915,914,915,914,915,914,915,914,915,914,915,914,915,914,915,914,915,914,915,914,915,914,915,914,915,914,915,914,915,914,915,914,915,914,915,914,915,914,915,914,915,914,915,914,915,914,915,914,915,914,915,914,915,914,915,914,915,914,915,914,915,914,915,914,915,914,915,914,915,914,915,914,915,914,915,914,915,914,915,914,915,914,915,914,915,914,915,914,915,914,915,914,915,914,915,914,915,914,915,914,915,914,915,914,915,914,915,914,915,914,915,914,915,914,915,914,915,914,915,914,915,914,915,914,915,914,915,914,915,914,915,914,915,914,915,914,915,914,915,914,915,914,915,914,915,914,915,914,915,914,915,914,915,914,915,914,915,914,915,914,915,914,915,914,915,914,915,914,915,914,915,914,915,914,915,914,915,914,915,914,915,914,915,914,915,914,915,914,915,914,915,914,915,914,915,914,915,914,915,914,915,914,915,914,915,914,915,914,915,914,915,914,915,914,915,914,915,914,915,914,915,914,915,914,915,914,915,914,915,914,915,914,915,914,915,914,915,914,915,914,915,914,915,914,915,914,915,914,915,914,915,914,915,914,915,914,915,914,915,914,915,914,915,914,915,914,915,914,915,914,915,914,915,914,915,914,915,914,915,914,915,914,915,914,915,914,915,914,915,914,915,914,915,914,915,914,915,914,915,914,915,914,915,914,915,914,915,914,915,914,915,914,915,914,915,914,915,914,915,914,915,914,915,914,915,914,915,914,915,914,915,914,915,914,915,914,915,914,915,914,915,914,915,914,915,914,915,914,915,914,915,914,915,914,915,914,915,914,915,914,915,914,915,914,915,914,915,914,915,914,915,914,915,914,915,914,915,914,915,914,915,914,915,914,915,914,915,914,915,914,915,914,915,914,915,914,915,914,915,914,915,914,915,914,915,914,915,914,915,914,915,914,915,914,915,914,915,914,915,914,915,914,915,914,915,914,915,914,915,914,915,914,915,914,915,914,915,914,915,914,915,914,915,914,915,914,915,914,915,914,915,914,915,914,915,914,915,914,915,914,915,914,915,914,915,914,915,914,0,
958,959,958,959,958,959,958,959,958,959,958,959,958,959,958,959,958,959,958,959,958,959,958,959,958,959,958,959,958,959,958,959,958,959,958,959,958,959,958,959,958,959,958,959,958,959,958,959,958,959,958,959,958,959,958,959,958,959,958,959,958,959,958,959,958,959,958,959,958,959,958,959,958,959,958,959,958,959,958,959,958,959,958,959,958,959,958,959,958,959,958,959,958,959,958,959,958,959,958,959,958,959,958,959,958,959,958,959,958,959,958,959,958,959,958,959,958,959,958,959,958,959,958,959,958,959,958,959,958,959,958,959,958,959,958,959,958,959,958,959,958,959,958,959,958,959,958,959,958,959,958,959,958,959,958,959,958,959,958,959,958,959,958,959,958,959,958,959,958,959,958,959,958,959,958,959,958,959,958,959,958,959,958,959,958,959,958,959,958,959,958,959,958,959,958,959,958,959,958,959,958,959,958,959,958,959,958,959,958,959,958,959,958,959,958,959,958,959,958,959,958,959,958,959,958,959,958,959,958,959,958,959,958,959,958,959,958,959,958,959,958,959,958,959,958,959,958,959,958,959,958,959,958,959,958,959,958,959,958,959,958,959,958,959,958,959,958,959,958,959,958,959,958,959,958,959,958,959,958,959,958,959,958,959,958,959,958,959,958,959,958,959,958,959,958,959,958,959,958,959,958,959,958,959,958,959,958,959,958,959,958,959,958,959,958,959,958,959,958,959,958,959,958,959,958,959,958,959,958,959,958,959,958,959,958,959,958,959,958,959,958,959,958,959,958,959,958,959,958,959,958,959,958,959,958,959,958,959,958,959,958,959,958,959,958,959,958,959,958,959,958,959,958,959,958,959,958,959,958,959,958,959,958,959,958,959,958,959,958,959,958,959,958,959,958,959,958,959,958,959,958,959,958,959,958,959,958,959,958,959,958,959,958,959,958,959,958,959,958,959,958,959,958,959,958,959,958,959,958,959,958,959,958,959,958,959,958,959,958,959,958,959,958,959,958,959,958,959,958,959,958,959,958,959,958,959,958,959,958,959,958,959,958,959,958,959,958,959,958,959,958,959,958,959,958,959,958,959,958,959,958,959,958,959,958,959,958,959,958,959,958,959,958,959,958,959,958,959,958,959,958,959,958,959,958,959,958,959,958,959,958,959,958,959,958,959,958,959,958,959,958,959,958,959,958,959,958,959,958,959,958,959,958,959,958,959,958,959,958,959,958,959,958,959,958,959,958,959,958,959,958,959,958,959,958,959,958,959,958,959,958,959,958,959,958,959,958,959,958,959,958,959,958,959,958,959,958,959,958,959,958,959,958,959,958,959,958,959,958,959,958,959,958,959,958,959,958,959,958,959,958,959,958,959,958,959,958,959,958,959,958,959,958,959,958,959,958,959,958,959,958,959,958,959,958,959,958,959,958,959,958,959,958,959,958,959,958,959,958,959,958,959,958,959,958,959,958,959,958,959,958,959,958,959,958,959,958,959,958,959,958,959,958,959,958,959,958,959,958,959,958,959,958,959,958,959,958,959,958,959,958,959,958,959,958,959,958,959,958,959,958,959,958,959,958,959,958,959,958,959,958,959,958,959,958,959,958,959,958,959,958,959,958,959,958,959,958,959,958,959,958,959,958,959,958,959,958,959,958,959,958,959,958,959,958,959,958,959,958,959,958,959,958,959,958,959,958,959,958,959,958,959,958,959,958,959,958,959,958,959,958,959,958,959,958,959,958,959,958,959,958,959,958,959,958,959,958,959,958,959,958,959,958,959,958,959,958,959,958,959,958,959,958,959,958,959,958,959,958,959,958,959,958,959,958,959,958,959,958,959,958,959,958,959,958,959,958,959,958,959,958,959,958,959,958,959,958,959,958,959,958,959,958,959,958,959,958,959,958,959,958,959,958,959,958,959,958,959,958,959,958,959,958,959,958,959,958,959,958,959,958,959,958,959,958,959,958,959,958,959,958,959,958,959,958,959,958,959,958,959,958,959,958,959,958,959,958,959,958,959,958,959,958,959,958,959,958,959,958,959,958,959,958,959,958,959,958,959,958,959,958,959,958,959,958,959,958,959,958,959,958,959,958,959,958,959,958,959,958,959,958,959,958,959,958,959,958,959,958,959,958,959,958,959,958,959,958,959,958,959,958,959,958,959,958,959,958,959,958,959,958,959,958,959,958,959,958,959,958,959,958,959,958,959,958,959,958,959,958,959,958,959,958,959,958,959,958,959,958,959,958,959,958,959,958,959,958,959,958,0,
914,915,914,915,914,915,914,915,914,915,914,915,914,915,914,915,914,915,914,915,914,915,914,915,914,915,914,915,914,915,914,915,914,915,914,915,914,915,914,915,914,915,914,915,914,915,914,915,914,915,914,915,914,915,914,915,914,915,914,915,914,915,914,915,914,915,914,915,914,915,914,915,914,915,914,915,914,915,914,915,914,915,914,915,914,915,914,915,914,915,914,915,914,915,914,915,914,915,914,915,914,915,914,915,914,915,914,915,914,915,914,915,914,915,914,915,914,915,914,915,914,915,914,915,914,915,914,915,914,915,914,915,914,915,914,915,914,915,914,915,914,915,914,915,914,915,914,915,914,915,914,915,914,915,914,915,914,915,914,915,914,915,914,915,914,915,914,915,914,915,914,915,914,915,914,915,914,915,914,915,914,915,914,915,914,915,914,915,914,915,914,915,914,915,914,915,914,915,914,915,914,915,914,915,914,915,914,915,914,915,914,915,914,915,914,915,914,915,914,915,914,915,914,915,914,915,914,915,914,915,914,915,914,915,914,915,914,915,914,915,914,915,914,915,914,915,914,915,914,915,914,915,914,915,914,915,914,915,914,915,914,915,914,915,914,915,914,915,914,915,914,915,914,915,914,915,914,915,914,915,914,915,914,915,914,915,914,915,914,915,914,915,914,915,914,915,914,915,914,915,914,915,914,915,914,915,914,915,914,915,914,915,914,915,914,915,914,915,914,915,914,915,914,915,914,915,914,915,914,915,914,915,914,915,914,915,914,915,914,915,914,915,914,915,914,915,914,915,914,915,914,915,914,915,914,915,914,915,914,915,914,915,914,915,914,915,914,915,914,915,914,915,914,915,914,915,914,915,914,915,914,915,914,915,914,915,914,915,914,915,914,915,914,915,914,915,914,915,914,915,914,915,914,915,914,915,914,915,914,915,914,915,914,915,914,915,914,915,914,915,914,915,914,915,914,915,914,915,914,915,914,915,914,915,914,915,914,915,914,915,914,915,914,915,914,915,914,915,914,915,914,915,914,915,914,915,914,915,914,915,914,915,914,915,914,915,914,915,914,915,914,915,914,915,914,915,914,915,914,915,914,915,914,915,914,915,914,915,914,915,914,915,914,915,914,915,914,915,914,915,914,915,914,915,914,915,914,915,914,915,914,915,914,915,914,915,914,915,914,915,914,915,914,915,914,915,914,915,914,915,914,915,914,915,914,915,914,915,914,915,914,915,914,915,914,915,914,915,914,915,914,915,914,915,914,915,914,915,914,915,914,915,914,915,914,915,914,915,914,915,914,915,914,915,914,915,914,915,914,915,914,915,914,915,914,915,914,915,914,915,914,915,914,915,914,915,914,915,914,915,914,915,914,915,914,915,914,915,914,915,914,915,914,915,914,915,914,915,914,915,914,915,914,915,914,915,914,915,914,915,914,915,914,915,914,915,914,915,914,915,914,915,914,915,914,915,914,915,914,915,914,915,914,915,914,915,914,915,914,915,914,915,914,915,914,915,914,915,914,915,914,915,914,915,914,915,914,915,914,915,914,915,914,915,914,915,914,915,914,915,914,915,914,915,914,915,914,915,914,915,914,915,914,915,914,915,914,915,914,915,914,915,914,915,914,915,914,915,914,915,914,915,914,915,914,915,914,915,914,915,914,915,914,915,914,915,914,915,914,915,914,915,914,915,914,915,914,915,914,915,914,915,914,915,914,915,914,915,914,915,914,915,914,915,914,915,914,915,914,915,914,915,914,915,914,915,914,915,914,915,914,915,914,915,914,915,914,915,914,915,914,915,914,915,914,915,914,915,914,915,914,915,914,915,914,915,914,915,914,915,914,915,914,915,914,915,914,915,914,915,914,915,914,915,914,915,914,915,914,915,914,915,914,915,914,915,914,915,914,915,914,915,914,915,914,915,914,915,914,915,914,915,914,915,914,915,914,915,914,915,914,915,914,915,914,915,914,915,914,915,914,915,914,915,914,915,914,915,914,915,914,915,914,915,914,915,914,915,914,915,914,915,914,915,914,915,914,915,914,915,914,915,914,915,914,915,914,915,914,915,914,915,914,915,914,915,914,915,914,915,914,915,914,915,914,915,914,915,914,915,914,915,914,915,914,915,914,915,914,915,914,915,914,915,914,915,914,915,914,915,914,915,914,915,914,915,914,915,914,915,914,915,914,915,914,915,914,915,914,915,914,915,914,915,914,915,914,915,914,915,914,915,914,915,914,915,914,915,914,915,914,915,914,915,914,915,914,915,914,0,
958,959,958,959,958,959,958,959,958,959,958,959,958,959,958,959,958,959,958,959,958,959,958,959,958,959,958,959,958,959,958,959,958,959,958,959,958,959,958,959,958,959,958,959,958,959,958,959,958,959,958,959,958,959,958,959,958,959,958,959,958,959,958,959,958,959,958,959,958,959,958,959,958,959,958,959,958,959,958,959,958,959,958,959,958,959,958,959,958,959,958,959,958,959,958,959,958,959,958,959,958,959,958,959,958,959,958,959,958,959,958,959,958,959,958,959,958,959,958,959,958,959,958,959,958,959,958,959,958,959,958,959,958,959,958,959,958,959,958,959,958,959,958,959,958,959,958,959,958,959,958,959,958,959,958,959,958,959,958,959,958,959,958,959,958,959,958,959,958,959,958,959,958,959,958,959,958,959,958,959,958,959,958,959,958,959,958,959,958,959,958,959,958,959,958,959,958,959,958,959,958,959,958,959,958,959,958,959,958,959,958,959,958,959,958,959,958,959,958,959,958,959,958,959,958,959,958,959,958,959,958,959,958,959,958,959,958,959,958,959,958,959,958,959,958,959,958,959,958,959,958,959,958,959,958,959,958,959,958,959,958,959,958,959,958,959,958,959,958,959,958,959,958,959,958,959,958,959,958,959,958,959,958,959,958,959,958,959,958,959,958,959,958,959,958,959,958,959,958,959,958,959,958,959,958,959,958,959,958,959,958,959,958,959,958,959,958,959,958,959,958,959,958,959,958,959,958,959,958,959,958,959,958,959,958,959,958,959,958,959,958,959,958,959,958,959,958,959,958,959,958,959,958,959,958,959,958,959,958,959,958,959,958,959,958,959,958,959,958,959,958,959,958,959,958,959,958,959,958,959,958,959,958,959,958,959,958,959,958,959,958,959,958,959,958,959,958,959,958,959,958,959,958,959,958,959,958,959,958,959,958,959,958,959,958,959,958,959,958,959,958,959,958,959,958,959,958,959,958,959,958,959,958,959,958,959,958,959,958,959,958,959,958,959,958,959,958,959,958,959,958,959,958,959,958,959,958,959,958,959,958,959,958,959,958,959,958,959,958,959,958,959,958,959,958,959,958,959,958,959,958,959,958,959,958,959,958,959,958,959,958,959,958,959,958,959,958,959,958,959,958,959,958,959,958,959,958,959,958,959,958,959,958,959,958,959,958,959,958,959,958,959,958,959,958,959,958,959,958,959,958,959,958,959,958,959,958,959,958,959,958,959,958,959,958,959,958,959,958,959,958,959,958,959,958,959,958,959,958,959,958,959,958,959,958,959,958,959,958,959,958,959,958,959,958,959,958,959,958,959,958,959,958,959,958,959,958,959,958,959,958,959,958,959,958,959,958,959,958,959,958,959,958,959,958,959,958,959,958,959,958,959,958,959,958,959,958,959,958,959,958,959,958,959,958,959,958,959,958,959,958,959,958,959,958,959,958,959,958,959,958,959,958,959,958,959,958,959,958,959,958,959,958,959,958,959,958,959,958,959,958,959,958,959,958,959,958,959,958,959,958,959,958,959,958,959,958,959,958,959,958,959,958,959,958,959,958,959,958,959,958,959,958,959,958,959,958,959,958,959,958,959,958,959,958,959,958,959,958,959,958,959,958,959,958,959,958,959,958,959,958,959,958,959,958,959,958,959,958,959,958,959,958,959,958,959,958,959,958,959,958,959,958,959,958,959,958,959,958,959,958,959,958,959,958,959,958,959,958,959,958,959,958,959,958,959,958,959,958,959,958,959,958,959,958,959,958,959,958,959,958,959,958,959,958,959,958,959,958,959,958,959,958,959,958,959,958,959,958,959,958,959,958,959,958,959,958,959,958,959,958,959,958,959,958,959,958,959,958,959,958,959,958,959,958,959,958,959,958,959,958,959,958,959,958,959,958,959,958,959,958,959,958,959,958,959,958,959,958,959,958,959,958,959,958,959,958,959,958,959,958,959,958,959,958,959,958,959,958,959,958,959,958,959,958,959,958,959,958,959,958,959,958,959,958,959,958,959,958,959,958,959,958,959,958,959,958,959,958,959,958,959,958,959,958,959,958,959,958,959,958,959,958,959,958,959,958,959,958,959,958,959,958,959,958,959,958,959,958,959,958,959,958,959,958,959,958,959,958,959,958,959,958,959,958,959,958,959,958,959,958,959,958,959,958,959,958,959,958,959,958,959,958,959,958,959,958,959,958,959,958,959,958,959,958,959,958,959,958,959,958,959,958,959,958,959,958,959,958,959,958,959,958,959,958,959,958,959,958,0,
914,915,914,915,914,915,914,915,914,915,914,915,914,915,914,915,914,915,914,915,914,915,914,915,914,915,914,915,914,915,914,915,914,915,914,915,914,915,914,915,914,915,914,915,914,915,914,915,914,915,914,915,914,915,914,915,914,915,914,915,914,915,914,915,914,915,914,915,914,915,914,915,914,915,914,915,914,915,914,915,914,915,914,915,914,915,914,915,914,915,914,915,914,915,914,915,914,915,914,915,914,915,914,915,914,915,914,915,914,915,914,915,914,915,914,915,914,915,914,915,914,915,914,915,914,915,914,915,914,915,914,915,914,915,914,915,914,915,914,915,914,915,914,915,914,915,914,915,914,915,914,915,914,915,914,915,914,915,914,915,914,915,914,915,914,915,914,915,914,915,914,915,914,915,914,915,914,915,914,915,914,915,914,915,914,915,914,915,914,915,914,915,914,915,914,915,914,915,914,915,914,915,914,915,914,915,914,915,914,915,914,915,914,915,914,915,914,915,914,915,914,915,914,915,914,915,914,915,914,915,914,915,914,915,914,915,914,915,914,915,914,915,914,915,914,915,914,915,914,915,914,915,914,915,914,915,914,915,914,915,914,915,914,915,914,915,914,915,914,915,914,915,914,915,914,915,914,915,914,915,914,915,914,915,914,915,914,915,914,915,914,915,914,915,914,915,914,915,914,915,914,915,914,915,914,915,914,915,914,915,914,915,914,915,914,915,914,915,914,915,914,915,914,915,914,915,914,915,914,915,914,915,914,915,914,915,914,915,914,915,914,915,914,915,914,915,914,915,914,915,914,915,914,915,914,915,914,915,914,915,914,915,914,915,914,915,914,915,914,915,914,915,914,915,914,915,914,915,914,915,914,915,914,915,914,915,914,915,914,915,914,915,914,915,914,915,914,915,914,915,914,915,914,915,914,915,914,915,914,915,914,915,914,915,914,915,914,915,914,915,914,915,914,915,914,915,914,915,914,915,914,915,914,915,914,915,914,915,914,915,914,915,914,915,914,915,914,915,914,915,914,915,914,915,914,915,914,915,914,915,914,915,914,915,914,915,914,915,914,915,914,915,914,915,914,915,914,915,914,915,914,915,914,915,914,915,914,915,914,915,914,915,914,915,914,915,914,915,914,915,914,915,914,915,914,915,914,915,914,915,914,915,914,915,914,915,914,915,914,915,914,915,914,915,914,915,914,915,914,915,914,915,914,915,914,915,914,915,914,915,914,915,914,915,914,915,914,915,914,915,914,915,914,915,914,915,914,915,914,915,914,915,914,915,914,915,914,915,914,915,914,915,914,915,914,915,914,915,914,915,914,915,914,915,914,915,914,915,914,915,914,915,914,915,914,915,914,915,914,915,914,915,914,915,914,915,914,915,914,915,914,915,914,915,914,915,914,915,914,915,914,915,914,915,914,915,914,915,914,915,914,915,914,915,914,915,914,915,914,915,914,915,914,915,914,915,914,915,914,915,914,915,914,915,914,915,914,915,914,915,914,915,914,915,914,915,914,915,914,915,914,915,914,915,914,915,914,915,914,915,914,915,914,915,914,915,914,915,914,915,914,915,914,915,914,915,914,915,914,915,914,915,914,915,914,915,914,915,914,915,914,915,914,915,914,915,914,915,914,915,914,915,914,915,914,915,914,915,914,915,914,915,914,915,914,915,914,915,914,915,914,915,914,915,914,915,914,915,914,915,914,915,914,915,914,915,914,915,914,915,914,915,914,915,914,915,914,915,914,915,914,915,914,915,914,915,914,915,914,915,914,915,914,915,914,915,914,915,914,915,914,915,914,915,914,915,914,915,914,915,914,915,914,915,914,915,914,915,914,915,914,915,914,915,914,915,914,915,914,915,914,915,914,915,914,915,914,915,914,915,914,915,914,915,914,915,914,915,914,915,914,915,914,915,914,915,914,915,914,915,914,915,914,915,914,915,914,915,914,915,914,915,914,915,914,915,914,915,914,915,914,915,914,915,914,915,914,915,914,915,914,915,914,915,914,915,914,915,914,915,914,915,914,915,914,915,914,915,914,915,914,915,914,915,914,915,914,915,914,915,914,915,914,915,914,915,914,915,914,915,914,915,914,915,914,915,914,915,914,915,914,915,914,915,914,915,914,915,914,915,914,915,914,915,914,915,914,915,914,915,914,915,914,915,914,915,914,915,914,915,914,915,914,915,914,915,914,915,914,915,914,915,914,915,914,915,914,915,914,915,914,915,914,915,914,915,914,915,914,915,914,915,914,915,914,915,914,915,914,0,
958,959,958,959,958,959,958,959,958,959,958,959,958,959,958,959,958,959,958,959,958,959,958,959,958,959,958,959,958,959,958,959,958,959,958,959,958,959,958,959,958,959,958,959,958,959,958,959,958,959,958,959,958,959,958,959,958,959,958,959,958,959,958,959,958,959,958,959,958,959,958,959,958,959,958,959,958,959,958,959,958,959,958,959,958,959,958,959,958,959,958,959,958,959,958,959,958,959,958,959,958,959,958,959,958,959,958,959,958,959,958,959,958,959,958,959,958,959,958,959,958,959,958,959,958,959,958,959,958,959,958,959,958,959,958,959,958,959,958,959,958,959,958,959,958,959,958,959,958,959,958,959,958,959,958,959,958,959,958,959,958,959,958,959,958,959,958,959,958,959,958,959,958,959,958,959,958,959,958,959,958,959,958,959,958,959,958,959,958,959,958,959,958,959,958,959,958,959,958,959,958,959,958,959,958,959,958,959,958,959,958,959,958,959,958,959,958,959,958,959,958,959,958,959,958,959,958,959,958,959,958,959,958,959,958,959,958,959,958,959,958,959,958,959,958,959,958,959,958,959,958,959,958,959,958,959,958,959,958,959,958,959,958,959,958,959,958,959,958,959,958,959,958,959,958,959,958,959,958,959,958,959,958,959,958,959,958,959,958,959,958,959,958,959,958,959,958,959,958,959,958,959,958,959,958,959,958,959,958,959,958,959,958,959,958,959,958,959,958,959,958,959,958,959,958,959,958,959,958,959,958,959,958,959,958,959,958,959,958,959,958,959,958,959,958,959,958,959,958,959,958,959,958,959,958,959,958,959,958,959,958,959,958,959,958,959,958,959,958,959,958,959,958,959,958,959,958,959,958,959,958,959,958,959,958,959,958,959,958,959,958,959,958,959,958,959,958,959,958,959,958,959,958,959,958,959,958,959,958,959,958,959,958,959,958,959,958,959,958,959,958,959,958,959,958,959,958,959,958,959,958,959,958,959,958,959,958,959,958,959,958,959,958,959,958,959,958,959,958,959,958,959,958,959,958,959,958,959,958,959,958,959,958,959,958,959,958,959,958,959,958,959,958,959,958,959,958,959,958,959,958,959,958,959,958,959,958,959,958,959,958,959,958,959,958,959,958,959,958,959,958,959,958,959,958,959,958,959,958,959,958,959,958,959,958,959,958,959,958,959,958,959,958,959,958,959,958,959,958,959,958,959,958,959,958,959,958,959,958,959,958,959,958,959,958,959,958,959,958,959,958,959,958,959,958,959,958,959,958,959,958,959,958,959,958,959,958,959,958,959,958,959,958,959,958,959,958,959,958,959,958,959,958,959,958,959,958,959,958,959,958,959,958,959,958,959,958,959,958,959,958,959,958,959,958,959,958,959,958,959,958,959,958,959,958,959,958,959,958,959,958,959,958,959,958,959,958,959,958,959,958,959,958,959,958,959,958,959,958,959,958,959,958,959,958,959,958,959,958,959,958,959,958,959,958,959,958,959,958,959,958,959,958,959,958,959,958,959,958,959,958,959,958,959,958,959,958,959,958,959,958,959,958,959,958,959,958,959,958,959,958,959,958,959,958,959,958,959,958,959,958,959,958,959,958,959,958,959,958,959,958,959,958,959,958,959,958,959,958,959,958,959,958,959,958,959,958,959,958,959,958,959,958,959,958,959,958,959,958,959,958,959,958,959,958,959,958,959,958,959,958,959,958,959,958,959,958,959,958,959,958,959,958,959,958,959,958,959,958,959,958,959,958,959,958,959,958,959,958,959,958,959,958,959,958,959,958,959,958,959,958,959,958,959,958,959,958,959,958,959,958,959,958,959,958,959,958,959,958,959,958,959,958,959,958,959,958,959,958,959,958,959,958,959,958,959,958,959,958,959,958,959,958,959,958,959,958,959,958,959,958,959,958,959,958,959,958,959,958,959,958,959,958,959,958,959,958,959,958,959,958,959,958,959,958,959,958,959,958,959,958,959,958,959,958,959,958,959,958,959,958,959,958,959,958,959,958,959,958,959,958,959,958,959,958,959,958,959,958,959,958,959,958,959,958,959,958,959,958,959,958,959,958,959,958,959,958,959,958,959,958,959,958,959,958,959,958,959,958,959,958,959,958,959,958,959,958,959,958,959,958,959,958,959,958,959,958,959,958,959,958,959,958,959,958,959,958,959,958,959,958,959,958,959,958,959,958,959,958,959,958,959,958,959,958,959,958,959,958,959,958,959,958,959,958,959,958,959,958,959,958,959,958,959,958,959,958,959,958,0,
914,915,914,915,914,915,914,915,914,915,914,915,914,915,914,915,914,915,914,915,914,915,914,915,914,915,914,915,914,915,914,915,914,915,914,915,914,915,914,915,914,915,914,915,914,915,914,915,914,915,914,915,914,915,914,915,914,915,914,915,914,915,914,915,914,915,914,915,914,915,914,915,914,915,914,915,914,915,914,915,914,915,914,915,914,915,914,915,914,915,914,915,914,915,914,915,914,915,914,915,914,915,914,915,914,915,914,915,914,915,914,915,914,915,914,915,914,915,914,915,914,915,914,915,914,915,914,915,914,915,914,915,914,915,914,915,914,915,914,915,914,915,914,915,914,915,914,915,914,915,914,915,914,915,914,915,914,915,914,915,914,915,914,915,914,915,914,915,914,915,914,915,914,915,914,915,914,915,914,915,914,915,914,915,914,915,914,915,914,915,914,915,914,915,914,915,914,915,914,915,914,915,914,915,914,915,914,915,914,915,914,915,914,915,914,915,914,915,914,915,914,915,914,915,914,915,914,915,914,915,914,915,914,915,914,915,914,915,914,915,914,915,914,915,914,915,914,915,914,915,914,915,914,915,914,915,914,915,914,915,914,915,914,915,914,915,914,915,914,915,914,915,914,915,914,915,914,915,914,915,914,915,914,915,914,915,914,915,914,915,914,915,914,915,914,915,914,915,914,915,914,915,914,915,914,915,914,915,914,915,914,915,914,915,914,915,914,915,914,915,914,915,914,915,914,915,914,915,914,915,914,915,914,915,914,915,914,915,914,915,914,915,914,915,914,915,914,915,914,915,914,915,914,915,914,915,914,915,914,915,914,915,914,915,914,915,914,915,914,915,914,915,914,915,914,915,914,915,914,915,914,915,914,915,914,915,914,915,914,915,914,915,914,915,914,915,914,915,914,915,914,915,914,915,914,915,914,915,914,915,914,915,914,915,914,915,914,915,914,915,914,915,914,915,914,915,914,915,914,915,914,915,914,915,914,915,914,915,914,915,914,915,914,915,914,915,914,915,914,915,914,915,914,915,914,915,914,915,914,915,914,915,914,915,914,915,914,915,914,915,914,915,914,915,914,915,914,915,914,915,914,915,914,915,914,915,914,915,914,915,914,915,914,915,914,915,914,915,914,915,914,915,914,915,914,915,914,915,914,915,914,915,914,915,914,915,914,915,914,915,914,915,914,915,914,915,914,915,914,915,914,915,914,915,914,915,914,915,914,915,914,915,914,915,914,915,914,915,914,915,914,915,914,915,914,915,914,915,914,915,914,915,914,915,914,915,914,915,914,915,914,915,914,915,914,915,914,915,914,915,914,915,914,915,914,915,914,915,914,915,914,915,914,915,914,915,914,915,914,915,914,915,914,915,914,915,914,915,914,915,914,915,914,915,914,915,914,915,914,915,914,915,914,915,914,915,914,915,914,915,914,915,914,915,914,915,914,915,914,915,914,915,914,915,914,915,914,915,914,915,914,915,914,915,914,915,914,915,914,915,914,915,914,915,914,915,914,915,914,915,914,915,914,915,914,915,914,915,914,915,914,915,914,915,914,915,914,915,914,915,914,915,914,915,914,915,914,915,914,915,914,915,914,915,914,915,914,915,914,915,914,915,914,915,914,915,914,915,914,915,914,915,914,915,914,915,914,915,914,915,914,915,914,915,914,915,914,915,914,915,914,915,914,915,914,915,914,915,914,915,914,915,914,915,914,915,914,915,914,915,914,915,914,915,914,915,914,915,914,915,914,915,914,915,914,915,914,915,914,915,914,915,914,915,914,915,914,915,914,915,914,915,914,915,914,915,914,915,914,915,914,915,914,915,914,915,914,915,914,915,914,915,914,915,914,915,914,915,914,915,914,915,914,915,914,915,914,915,914,915,914,915,914,915,914,915,914,915,914,915,914,915,914,915,914,915,914,915,914,915,914,915,914,915,914,915,914,915,914,915,914,915,914,915,914,915,914,915,914,915,914,915,914,915,914,915,914,915,914,915,914,915,914,915,914,915,914,915,914,915,914,915,914,915,914,915,914,915,914,915,914,915,914,915,914,915,914,915,914,915,914,915,914,915,914,915,914,915,914,915,914,915,914,915,914,915,914,915,914,915,914,915,914,915,914,915,914,915,914,915,914,915,914,915,914,915,914,915,914,915,914,915,914,915,914,915,914,915,914,915,914,915,914,915,914,915,914,915,914,915,914,915,914,915,914,915,914,915,914,915,914,915,914,915,914,915,914,915,914,915,914,915,914,915,914,915,914,915,914,0,
958,959,958,959,958,959,958,959,958,959,958,959,958,959,958,959,958,959,958,959,958,959,958,959,958,959,958,959,958,959,958,959,958,959,958,959,958,959,958,959,958,959,958,959,958,959,958,959,958,959,958,959,958,959,958,959,958,959,958,959,958,959,958,959,958,959,958,959,958,959,958,959,958,959,958,959,958,959,958,959,958,959,958,959,958,959,958,959,958,959,958,959,958,959,958,959,958,959,958,959,958,959,958,959,958,959,958,959,958,959,958,959,958,959,958,959,958,959,958,959,958,959,958,959,958,959,958,959,958,959,958,959,958,959,958,959,958,959,958,959,958,959,958,959,958,959,958,959,958,959,958,959,958,959,958,959,958,959,958,959,958,959,958,959,958,959,958,959,958,959,958,959,958,959,958,959,958,959,958,959,958,959,958,959,958,959,958,959,958,959,958,959,958,959,958,959,958,959,958,959,958,959,958,959,958,959,958,959,958,959,958,959,958,959,958,959,958,959,958,959,958,959,958,959,958,959,958,959,958,959,958,959,958,959,958,959,958,959,958,959,958,959,958,959,958,959,958,959,958,959,958,959,958,959,958,959,958,959,958,959,958,959,958,959,958,959,958,959,958,959,958,959,958,959,958,959,958,959,958,959,958,959,958,959,958,959,958,959,958,959,958,959,958,959,958,959,958,959,958,959,958,959,958,959,958,959,958,959,958,959,958,959,958,959,958,959,958,959,958,959,958,959,958,959,958,959,958,959,958,959,958,959,958,959,958,959,958,959,958,959,958,959,958,959,958,959,958,959,958,959,958,959,958,959,958,959,958,959,958,959,958,959,958,959,958,959,958,959,958,959,958,959,958,959,958,959,958,959,958,959,958,959,958,959,958,959,958,959,958,959,958,959,958,959,958,959,958,959,958,959,958,959,958,959,958,959,958,959,958,959,958,959,958,959,958,959,958,959,958,959,958,959,958,959,958,959,958,959,958,959,958,959,958,959,958,959,958,959,958,959,958,959,958,959,958,959,958,959,958,959,958,959,958,959,958,959,958,959,958,959,958,959,958,959,958,959,958,959,958,959,958,959,958,959,958,959,958,959,958,959,958,959,958,959,958,959,958,959,958,959,958,959,958,959,958,959,958,959,958,959,958,959,958,959,958,959,958,959,958,959,958,959,958,959,958,959,958,959,958,959,958,959,958,959,958,959,958,959,958,959,958,959,958,959,958,959,958,959,958,959,958,959,958,959,958,959,958,959,958,959,958,959,958,959,958,959,958,959,958,959,958,959,958,959,958,959,958,959,958,959,958,959,958,959,958,959,958,959,958,959,958,959,958,959,958,959,958,959,958,959,958,959,958,959,958,959,958,959,958,959,958,959,958,959,958,959,958,959,958,959,958,959,958,959,958,959,958,959,958,959,958,959,958,959,958,959,958,959,958,959,958,959,958,959,958,959,958,959,958,959,958,959,958,959,958,959,958,959,958,959,958,959,958,959,958,959,958,959,958,959,958,959,958,959,958,959,958,959,958,959,958,959,958,959,958,959,958,959,958,959,958,959,958,959,958,959,958,959,958,959,958,959,958,959,958,959,958,959,958,959,958,959,958,959,958,959,958,959,958,959,958,959,958,959,958,959,958,959,958,959,958,959,958,959,958,959,958,959,958,959,958,959,958,959,958,959,958,959,958,959,958,959,958,959,958,959,958,959,958,959,958,959,958,959,958,959,958,959,958,959,958,959,958,959,958,959,958,959,958,959,958,959,958,959,958,959,958,959,958,959,958,959,958,959,958,959,958,959,958,959,958,959,958,959,958,959,958,959,958,959,958,959,958,959,958,959,958,959,958,959,958,959,958,959,958,959,958,959,958,959,958,959,958,959,958,959,958,959,958,959,958,959,958,959,958,959,958,959,958,959,958,959,958,959,958,959,958,959,958,959,958,959,958,959,958,959,958,959,958,959,958,959,958,959,958,959,958,959,958,959,958,959,958,959,958,959,958,959,958,959,958,959,958,959,958,959,958,959,958,959,958,959,958,959,958,959,958,959,958,959,958,959,958,959,958,959,958,959,958,959,958,959,958,959,958,959,958,959,958,959,958,959,958,959,958,959,958,959,958,959,958,959,958,959,958,959,958,959,958,959,958,959,958,959,958,959,958,959,958,959,958,959,958,959,958,959,958,959,958,959,958,959,958,959,958,959,958,959,958,959,958,959,958,959,958,959,958,959,958,959,958,959,958,959,958,959,958,959,958,959,958,959,958,959,958,959,958,959,958,0,
914,915,914,915,914,915,914,915,914,915,914,915,914,915,914,915,914,915,914,915,914,915,914,915,914,915,914,915,914,915,914,915,914,915,914,915,914,915,914,915,914,915,914,915,914,915,914,915,914,915,914,915,914,915,914,915,914,915,914,915,914,915,914,915,914,915,914,915,914,915,914,915,914,915,914,915,914,915,914,915,914,915,914,915,914,915,914,915,914,915,914,915,914,915,914,915,914,915,914,915,914,915,914,915,914,915,914,915,914,915,914,915,914,915,914,915,914,915,914,915,914,915,914,915,914,915,914,915,914,915,914,915,914,915,914,915,914,915,914,915,914,915,914,915,914,915,914,915,914,915,914,915,914,915,914,915,914,915,914,915,914,915,914,915,914,915,914,915,914,915,914,915,914,915,914,915,914,915,914,915,914,915,914,915,914,915,914,915,914,915,914,915,914,915,914,915,914,915,914,915,914,915,914,915,914,915,914,915,914,915,914,915,914,915,914,915,914,915,914,915,914,915,914,915,914,915,914,915,914,915,914,915,914,915,914,915,914,915,914,915,914,915,914,915,914,915,914,915,914,915,914,915,914,915,914,915,914,915,914,915,914,915,914,915,914,915,914,915,914,915,914,915,914,915,914,915,914,915,914,915,914,915,914,915,914,915,914,915,914,915,914,915,914,915,914,915,914,915,914,915,914,915,914,915,914,915,914,915,914,915,914,915,914,915,914,915,914,915,914,915,914,915,914,915,914,915,914,915,914,915,914,915,914,915,914,915,914,915,914,915,914,915,914,915,914,915,914,915,914,915,914,915,914,915,914,915,914,915,914,915,914,915,914,915,914,915,914,915,914,915,914,915,914,915,914,915,914,915,914,915,914,915,914,915,914,915,914,915,914,915,914,915,914,915,914,915,914,915,914,915,914,915,914,915,914,915,914,915,914,915,914,915,914,915,914,915,914,915,914,915,914,915,914,915,914,915,914,915,914,915,914,915,914,915,914,915,914,915,914,915,914,915,914,915,914,915,914,915,914,915,914,915,914,915,914,915,914,915,914,915,914,915,914,915,914,915,914,915,914,915,914,915,914,915,914,915,914,915,914,915,914,915,914,915,914,915,914,915,914,915,914,915,914,915,914,915,914,915,914,915,914,915,914,915,914,915,914,915,914,915,914,915,914,915,914,915,914,915,914,915,914,915,914,915,914,915,914,915,914,915,914,915,914,915,914,915,914,915,914,915,914,915,914,915,914,915,914,915,914,915,914,915,914,915,914,915,914,915,914,915,914,915,914,915,914,915,914,915,914,915,914,915,914,915,914,915,914,915,914,915,914,915,914,915,914,915,914,915,914,915,914,915,914,915,914,915,914,915,914,915,914,915,914,915,914,915,914,915,914,915,914,915,914,915,914,915,914,915,914,915,914,915,914,915,914,915,914,915,914,915,914,915,914,915,914,915,914,915,914,915,914,915,914,915,914,915,914,915,914,915,914,915,914,915,914,915,914,915,914,915,914,915,914,915,914,915,914,915,914,915,914,915,914,915,914,915,914,915,914,915,914,915,914,915,914,915,914,915,914,915,914,915,914,915,914,915,914,915,914,915,914,915,914,915,914,915,914,915,914,915,914,915,914,915,914,915,914,915,914,915,914,915,914,915,914,915,914,915,914,915,914,915,914,915,914,915,914,915,914,915,914,915,914,915,914,915,914,915,914,915,914,915,914,915,914,915,914,915,914,915,914,915,914,915,914,915,914,915,914,915,914,915,914,915,914,915,914,915,914,915,914,915,914,915,914,915,914,915,914,915,914,915,914,915,914,915,914,915,914,915,914,915,914,915,914,915,914,915,914,915,914,915,914,915,914,915,914,915,914,915,914,915,914,915,914,915,914,915,914,915,914,915,914,915,914,915,914,915,914,915,914,915,914,915,914,915,914,915,914,915,914,915,914,915,914,915,914,915,914,915,914,915,914,915,914,915,914,915,914,915,914,915,914,915,914,915,914,915,914,915,914,915,914,915,914,915,914,915,914,915,914,915,914,915,914,915,914,915,914,915,914,915,914,915,914,915,914,915,914,915,914,915,914,915,914,915,914,915,914,915,914,915,914,915,914,915,914,915,914,915,914,915,914,915,914,915,914,915,914,915,914,915,914,915,914,915,914,915,914,915,914,915,914,915,914,915,914,915,914,915,914,915,914,915,914,915,914,915,914,915,914,915,914,915,914,915,914,915,914,915,914,915,914,915,914,915,914,915,914,915,914,915,914,915,914,915,914,915,914,0,
958,959,958,959,958,959,958,959,958,959,958,959,958,959,958,959,958,959,958,959,958,959,958,959,958,959,958,959,958,959,958,959,958,959,958,959,958,959,958,959,958,959,958,959,958,959,958,959,958,959,958,959,958,959,958,959,958,959,958,959,958,959,958,959,958,959,958,959,958,959,958,959,958,959,958,959,958,959,958,959,958,959,958,959,958,959,958,959,958,959,958,959,958,959,958,959,958,959,958,959,958,959,958,959,958,959,958,959,958,959,958,959,958,959,958,959,958,959,958,959,958,959,958,959,958,959,958,959,958,959,958,959,958,959,958,959,958,959,958,959,958,959,958,959,958,959,958,959,958,959,958,959,958,959,958,959,958,959,958,959,958,959,958,959,958,959,958,959,958,959,958,959,958,959,958,959,958,959,958,959,958,959,958,959,958,959,958,959,958,959,958,959,958,959,958,959,958,959,958,959,958,959,958,959,958,959,958,959,958,959,958,959,958,959,958,959,958,959,958,959,958,959,958,959,958,959,958,959,958,959,958,959,958,959,958,959,958,959,958,959,958,959,958,959,958,959,958,959,958,959,958,959,958,959,958,959,958,959,958,959,958,959,958,959,958,959,958,959,958,959,958,959,958,959,958,959,958,959,958,959,958,959,958,959,958,959,958,959,958,959,958,959,958,959,958,959,958,959,958,959,958,959,958,959,958,959,958,959,958,959,958,959,958,959,958,959,958,959,958,959,958,959,958,959,958,959,958,959,958,959,958,959,958,959,958,959,958,959,958,959,958,959,958,959,958,959,958,959,958,959,958,959,958,959,958,959,958,959,958,959,958,959,958,959,958,959,958,959,958,959,958,959,958,959,958,959,958,959,958,959,958,959,958,959,958,959,958,959,958,959,958,959,958,959,958,959,958,959,958,959,958,959,958,959,958,959,958,959,958,959,958,959,958,959,958,959,958,959,958,959,958,959,958,959,958,959,958,959,958,959,958,959,958,959,958,959,958,959,958,959,958,959,958,959,958,959,958,959,958,959,958,959,958,959,958,959,958,959,958,959,958,959,958,959,958,959,958,959,958,959,958,959,958,959,958,959,958,959,958,959,958,959,958,959,958,959,958,959,958,959,958,959,958,959,958,959,958,959,958,959,958,959,958,959,958,959,958,959,958,959,958,959,958,959,958,959,958,959,958,959,958,959,958,959,958,959,958,959,958,959,958,959,958,959,958,959,958,959,958,959,958,959,958,959,958,959,958,959,958,959,958,959,958,959,958,959,958,959,958,959,958,959,958,959,958,959,958,959,958,959,958,959,958,959,958,959,958,959,958,959,958,959,958,959,958,959,958,959,958,959,958,959,958,959,958,959,958,959,958,959,958,959,958,959,958,959,958,959,958,959,958,959,958,959,958,959,958,959,958,959,958,959,958,959,958,959,958,959,958,959,958,959,958,959,958,959,958,959,958,959,958,959,958,959,958,959,958,959,958,959,958,959,958,959,958,959,958,959,958,959,958,959,958,959,958,959,958,959,958,959,958,959,958,959,958,959,958,959,958,959,958,959,958,959,958,959,958,959,958,959,958,959,958,959,958,959,958,959,958,959,958,959,958,959,958,959,958,959,958,959,958,959,958,959,958,959,958,959,958,959,958,959,958,959,958,959,958,959,958,959,958,959,958,959,958,959,958,959,958,959,958,959,958,959,958,959,958,959,958,959,958,959,958,959,958,959,958,959,958,959,958,959,958,959,958,959,958,959,958,959,958,959,958,959,958,959,958,959,958,959,958,959,958,959,958,959,958,959,958,959,958,959,958,959,958,959,958,959,958,959,958,959,958,959,958,959,958,959,958,959,958,959,958,959,958,959,958,959,958,959,958,959,958,959,958,959,958,959,958,959,958,959,958,959,958,959,958,959,958,959,958,959,958,959,958,959,958,959,958,959,958,959,958,959,958,959,958,959,958,959,958,959,958,959,958,959,958,959,958,959,958,959,958,959,958,959,958,959,958,959,958,959,958,959,958,959,958,959,958,959,958,959,958,959,958,959,958,959,958,959,958,959,958,959,958,959,958,959,958,959,958,959,958,959,958,959,958,959,958,959,958,959,958,959,958,959,958,959,958,959,958,959,958,959,958,959,958,959,958,959,958,959,958,959,958,959,958,959,958,959,958,959,958,959,958,959,958,959,958,959,958,959,958,959,958,959,958,959,958,959,958,959,958,959,958,959,958,959,958,959,958,959,958,959,958,959,958,959,958,959,958,959,958,959,958,959,958,959,958,0,
914,915,914,915,914,915,914,915,914,915,914,915,914,915,914,915,914,915,914,915,914,915,914,915,914,915,914,915,914,915,914,915,914,915,914,915,914,915,914,915,914,915,914,915,914,915,914,915,914,915,914,915,914,915,914,915,914,915,914,915,914,915,914,915,914,915,914,915,914,915,914,915,914,915,914,915,914,915,914,915,914,915,914,915,914,915,914,915,914,915,914,915,914,915,914,915,914,915,914,915,914,915,914,915,914,915,914,915,914,915,914,915,914,915,914,915,914,915,914,915,914,915,914,915,914,915,914,915,914,915,914,915,914,915,914,915,914,915,914,915,914,915,914,915,914,915,914,915,914,915,914,915,914,915,914,915,914,915,914,915,914,915,914,915,914,915,914,915,914,915,914,915,914,915,914,915,914,915,914,915,914,915,914,915,914,915,914,915,914,915,914,915,914,915,914,915,914,915,914,915,914,915,914,915,914,915,914,915,914,915,914,915,914,915,914,915,914,915,914,915,914,915,914,915,914,915,914,915,914,915,914,915,914,915,914,915,914,915,914,915,914,915,914,915,914,915,914,915,914,915,914,915,914,915,914,915,914,915,914,915,914,915,914,915,914,915,914,915,914,915,914,915,914,915,914,915,914,915,914,915,914,915,914,915,914,915,914,915,914,915,914,915,914,915,914,915,914,915,914,915,914,915,914,915,914,915,914,915,914,915,914,915,914,915,914,915,914,915,914,915,914,915,914,915,914,915,914,915,914,915,914,915,914,915,914,915,914,915,914,915,914,915,914,915,914,915,914,915,914,915,914,915,914,915,914,915,914,915,914,915,914,915,914,915,914,915,914,915,914,915,914,915,914,915,914,915,914,915,914,915,914,915,914,915,914,915,914,915,914,915,914,915,914,915,914,915,914,915,914,915,914,915,914,915,914,915,914,915,914,915,914,915,914,915,914,915,914,915,914,915,914,915,914,915,914,915,914,915,914,915,914,915,914,915,914,915,914,915,914,915,914,915,914,915,914,915,914,915,914,915,914,915,914,915,914,915,914,915,914,915,914,915,914,915,914,915,914,915,914,915,914,915,914,915,914,915,914,915,914,915,914,915,914,915,914,915,914,915,914,915,914,915,914,915,914,915,914,915,914,915,914,915,914,915,914,915,914,915,914,915,914,915,914,915,914,915,914,915,914,915,914,915,914,915,914,915,914,915,914,915,914,915,914,915,914,915,914,915,914,915,914,915,914,915,914,915,914,915,914,915,914,915,914,915,914,915,914,915,914,915,914,915,914,915,914,915,914,915,914,915,914,915,914,915,914,915,914,915,914,915,914,915,914,915,914,915,914,915,914,915,914,915,914,915,914,915,914,915,914,915,914,915,914,915,914,915,914,915,914,915,914,915,914,915,914,915,914,915,914,915,914,915,914,915,914,915,914,915,914,915,914,915,914,915,914,915,914,915,914,915,914,915,914,915,914,915,914,915,914,915,914,915,914,915,914,915,914,915,914,915,914,915,914,915,914,915,914,915,914,915,914,915,914,915,914,915,914,915,914,915,914,915,914,915,914,915,914,915,914,915,914,915,914,915,914,915,914,915,914,915,914,915,914,915,914,915,914,915,914,915,914,915,914,915,914,915,914,915,914,915,914,915,914,915,914,915,914,915,914,915,914,915,914,915,914,915,914,915,914,915,914,915,914,915,914,915,914,915,914,915,914,915,914,915,914,915,914,915,914,915,914,915,914,915,914,915,914,915,914,915,914,915,914,915,914,915,914,915,914,915,914,915,914,915,914,915,914,915,914,915,914,915,914,915,914,915,914,915,914,915,914,915,914,915,914,915,914,915,914,915,914,915,914,915,914,915,914,915,914,915,914,915,914,915,914,915,914,915,914,915,914,915,914,915,914,915,914,915,914,915,914,915,914,915,914,915,914,915,914,915,914,915,914,915,914,915,914,915,914,915,914,915,914,915,914,915,914,915,914,915,914,915,914,915,914,915,914,915,914,915,914,915,914,915,914,915,914,915,914,915,914,915,914,915,914,915,914,915,914,915,914,915,914,915,914,915,914,915,914,915,914,915,914,915,914,915,914,915,914,915,914,915,914,915,914,915,914,915,914,915,914,915,914,915,914,915,914,915,914,915,914,915,914,915,914,915,914,915,914,915,914,915,914,915,914,915,914,915,914,915,914,915,914,915,914,915,914,915,914,915,914,915,914,915,914,915,914,915,914,915,914,915,914,915,914,915,914,915,914,915,914,915,914,915,914,915,914,915,914,0,
958,959,958,959,958,959,958,959,958,959,958,959,958,959,958,959,958,959,958,959,958,959,958,959,958,959,958,959,958,959,958,959,958,959,958,959,958,959,958,959,958,959,958,959,958,959,958,959,958,959,958,959,958,959,958,959,958,959,958,959,958,959,958,959,958,959,958,959,958,959,958,959,958,959,958,959,958,959,958,959,958,959,958,959,958,959,958,959,958,959,958,959,958,959,958,959,958,959,958,959,958,959,958,959,958,959,958,959,958,959,958,959,958,959,958,959,958,959,958,959,958,959,958,959,958,959,958,959,958,959,958,959,958,959,958,959,958,959,958,959,958,959,958,959,958,959,958,959,958,959,958,959,958,959,958,959,958,959,958,959,958,959,958,959,958,959,958,959,958,959,958,959,958,959,958,959,958,959,958,959,958,959,958,959,958,959,958,959,958,959,958,959,958,959,958,959,958,959,958,959,958,959,958,959,958,959,958,959,958,959,958,959,958,959,958,959,958,959,958,959,958,959,958,959,958,959,958,959,958,959,958,959,958,959,958,959,958,959,958,959,958,959,958,959,958,959,958,959,958,959,958,959,958,959,958,959,958,959,958,959,958,959,958,959,958,959,958,959,958,959,958,959,958,959,958,959,958,959,958,959,958,959,958,959,958,959,958,959,958,959,958,959,958,959,958,959,958,959,958,959,958,959,958,959,958,959,958,959,958,959,958,959,958,959,958,959,958,959,958,959,958,959,958,959,958,959,958,959,958,959,958,959,958,959,958,959,958,959,958,959,958,959,958,959,958,959,958,959,958,959,958,959,958,959,958,959,958,959,958,959,958,959,958,959,958,959,958,959,958,959,958,959,958,959,958,959,958,959,958,959,958,959,958,959,958,959,958,959,958,959,958,959,958,959,958,959,958,959,958,959,958,959,958,959,958,959,958,959,958,959,958,959,958,959,958,959,958,959,958,959,958,959,958,959,958,959,958,959,958,959,958,959,958,959,958,959,958,959,958,959,958,959,958,959,958,959,958,959,958,959,958,959,958,959,958,959,958,959,958,959,958,959,958,959,958,959,958,959,958,959,958,959,958,959,958,959,958,959,958,959,958,959,958,959,958,959,958,959,958,959,958,959,958,959,958,959,958,959,958,959,958,959,958,959,958,959,958,959,958,959,958,959,958,959,958,959,958,959,958,959,958,959,958,959,958,959,958,959,958,959,958,959,958,959,958,959,958,959,958,959,958,959,958,959,958,959,958,959,958,959,958,959,958,959,958,959,958,959,958,959,958,959,958,959,958,959,958,959,958,959,958,959,958,959,958,959,958,959,958,959,958,959,958,959,958,959,958,959,958,959,958,959,958,959,958,959,958,959,958,959,958,959,958,959,958,959,958,959,958,959,958,959,958,959,958,959,958,959,958,959,958,959,958,959,958,959,958,959,958,959,958,959,958,959,958,959,958,959,958,959,958,959,958,959,958,959,958,959,958,959,958,959,958,959,958,959,958,959,958,959,958,959,958,959,958,959,958,959,958,959,958,959,958,959,958,959,958,959,958,959,958,959,958,959,958,959,958,959,958,959,958,959,958,959,958,959,958,959,958,959,958,959,958,959,958,959,958,959,958,959,958,959,958,959,958,959,958,959,958,959,958,959,958,959,958,959,958,959,958,959,958,959,958,959,958,959,958,959,958,959,958,959,958,959,958,959,958,959,958,959,958,959,958,959,958,959,958,959,958,959,958,959,958,959,958,959,958,959,958,959,958,959,958,959,958,959,958,959,958,959,958,959,958,959,958,959,958,959,958,959,958,959,958,959,958,959,958,959,958,959,958,959,958,959,958,959,958,959,958,959,958,959,958,959,958,959,958,959,958,959,958,959,958,959,958,959,958,959,958,959,958,959,958,959,958,959,958,959,958,959,958,959,958,959,958,959,958,959,958,959,958,959,958,959,958,959,958,959,958,959,958,959,958,959,958,959,958,959,958,959,958,959,958,959,958,959,958,959,958,959,958,959,958,959,958,959,958,959,958,959,958,959,958,959,958,959,958,959,958,959,958,959,958,959,958,959,958,959,958,959,958,959,958,959,958,959,958,959,958,959,958,959,958,959,958,959,958,959,958,959,958,959,958,959,958,959,958,959,958,959,958,959,958,959,958,959,958,959,958,959,958,959,958,959,958,959,958,959,958,959,958,959,958,959,958,959,958,959,958,959,958,959,958,959,958,959,958,959,958,959,958,959,958,959,958,959,958,959,958,959,958,959,958,959,958,959,958,959,958,0,
914,915,914,915,914,915,914,915,914,915,914,915,914,915,914,915,914,915,914,915,914,915,914,915,914,915,914,915,914,915,914,915,914,915,914,915,914,915,914,915,914,915,914,915,914,915,914,915,914,915,914,915,914,915,914,915,914,915,914,915,914,915,914,915,914,915,914,915,914,915,914,915,914,915,914,915,914,915,914,915,914,915,914,915,914,915,914,915,914,915,914,915,914,915,914,915,914,915,914,915,914,915,914,915,914,915,914,915,914,915,914,915,914,915,914,915,914,915,914,915,914,915,914,915,914,915,914,915,914,915,914,915,914,915,914,915,914,915,914,915,914,915,914,915,914,915,914,915,914,915,914,915,914,915,914,915,914,915,914,915,914,915,914,915,914,915,914,915,914,915,914,915,914,915,914,915,914,915,914,915,914,915,914,915,914,915,914,915,914,915,914,915,914,915,914,915,914,915,914,915,914,915,914,915,914,915,914,915,914,915,914,915,914,915,914,915,914,915,914,915,914,915,914,915,914,915,914,915,914,915,914,915,914,915,914,915,914,915,914,915,914,915,914,915,914,915,914,915,914,915,914,915,914,915,914,915,914,915,914,915,914,915,914,915,914,915,914,915,914,915,914,915,914,915,914,915,914,915,914,915,914,915,914,915,914,915,914,915,914,915,914,915,914,915,914,915,914,915,914,915,914,915,914,915,914,915,914,915,914,915,914,915,914,915,914,915,914,915,914,915,914,915,914,915,914,915,914,915,914,915,914,915,914,915,914,915,914,915,914,915,914,915,914,915,914,915,914,915,914,915,914,915,914,915,914,915,914,915,914,915,914,915,914,915,914,915,914,915,914,915,914,915,914,915,914,915,914,915,914,915,914,915,914,915,914,915,914,915,914,915,914,915,914,915,914,915,914,915,914,915,914,915,914,915,914,915,914,915,914,915,914,915,914,915,914,915,914,915,914,915,914,915,914,915,914,915,914,915,914,915,914,915,914,915,914,915,914,915,914,915,914,915,914,915,914,915,914,915,914,915,914,915,914,915,914,915,914,915,914,915,914,915,914,915,914,915,914,915,914,915,914,915,914,915,914,915,914,915,914,915,914,915,914,915,914,915,914,915,914,915,914,915,914,915,914,915,914,915,914,915,914,915,914,915,914,915,914,915,914,915,914,915,914,915,914,915,914,915,914,915,914,915,914,915,914,915,914,915,914,915,914,915,914,915,914,915,914,915,914,915,914,915,914,915,914,915,914,915,914,915,914,915,914,915,914,915,914,915,914,915,914,915,914,915,914,915,914,915,914,915,914,915,914,915,914,915,914,915,914,915,914,915,914,915,914,915,914,915,914,915,914,915,914,915,914,915,914,915,914,915,914,915,914,915,914,915,914,915,914,915,914,915,914,915,914,915,914,915,914,915,914,915,914,915,914,915,914,915,914,915,914,915,914,915,914,915,914,915,914,915,914,915,914,915,914,915,914,915,914,915,914,915,914,915,914,915,914,915,914,915,914,915,914,915,914,915,914,915,914,915,914,915,914,915,914,915,914,915,914,915,914,915,914,915,914,915,914,915,914,915,914,915,914,915,914,915,914,915,914,915,914,915,914,915,914,915,914,915,914,915,914,915,914,915,914,915,914,915,914,915,914,915,914,915,914,915,914,915,914,915,914,915,914,915,914,915,914,915,914,915,914,915,914,915,914,915,914,915,914,915,914,915,914,915,914,915,914,915,914,915,914,915,914,915,914,915,914,915,914,915,914,915,914,915,914,915,914,915,914,915,914,915,914,915,914,915,914,915,914,915,914,915,914,915,914,915,914,915,914,915,914,915,914,915,914,915,914,915,914,915,914,915,914,915,914,915,914,915,914,915,914,915,914,915,914,915,914,915,914,915,914,915,914,915,914,915,914,915,914,915,914,915,914,915,914,915,914,915,914,915,914,915,914,915,914,915,914,915,914,915,914,915,914,915,914,915,914,915,914,915,914,915,914,915,914,915,914,915,914,915,914,915,914,915,914,915,914,915,914,915,914,915,914,915,914,915,914,915,914,915,914,915,914,915,914,915,914,915,914,915,914,915,914,915,914,915,914,915,914,915,914,915,914,915,914,915,914,915,914,915,914,915,914,915,914,915,914,915,914,915,914,915,914,915,914,915,914,915,914,915,914,915,914,915,914,915,914,915,914,915,914,915,914,915,914,915,914,915,914,915,914,915,914,915,914,915,914,915,914,915,914,915,914,915,914,915,914,915,914,915,914,915,914,915,914,915,914,915,914,0,
958,959,958,959,958,959,958,959,958,959,958,959,958,959,958,959,958,959,958,959,958,959,958,959,958,959,958,959,958,959,958,959,958,959,958,959,958,959,958,959,958,959,958,959,958,959,958,959,958,959,958,959,958,959,958,959,958,959,958,959,958,959,958,959,958,959,958,959,958,959,958,959,958,959,958,959,958,959,958,959,958,959,958,959,958,959,958,959,958,959,958,959,958,959,958,959,958,959,958,959,958,959,958,959,958,959,958,959,958,959,958,959,958,959,958,959,958,959,958,959,958,959,958,959,958,959,958,959,958,959,958,959,958,959,958,959,958,959,958,959,958,959,958,959,958,959,958,959,958,959,958,959,958,959,958,959,958,959,958,959,958,959,958,959,958,959,958,959,958,959,958,959,958,959,958,959,958,959,958,959,958,959,958,959,958,959,958,959,958,959,958,959,958,959,958,959,958,959,958,959,958,959,958,959,958,959,958,959,958,959,958,959,958,959,958,959,958,959,958,959,958,959,958,959,958,959,958,959,958,959,958,959,958,959,958,959,958,959,958,959,958,959,958,959,958,959,958,959,958,959,958,959,958,959,958,959,958,959,958,959,958,959,958,959,958,959,958,959,958,959,958,959,958,959,958,959,958,959,958,959,958,959,958,959,958,959,958,959,958,959,958,959,958,959,958,959,958,959,958,959,958,959,958,959,958,959,958,959,958,959,958,959,958,959,958,959,958,959,958,959,958,959,958,959,958,959,958,959,958,959,958,959,958,959,958,959,958,959,958,959,958,959,958,959,958,959,958,959,958,959,958,959,958,959,958,959,958,959,958,959,958,959,958,959,958,959,958,959,958,959,958,959,958,959,958,959,958,959,958,959,958,959,958,959,958,959,958,959,958,959,958,959,958,959,958,959,958,959,958,959,958,959,958,959,958,959,958,959,958,959,958,959,958,959,958,959,958,959,958,959,958,959,958,959,958,959,958,959,958,959,958,959,958,959,958,959,958,959,958,959,958,959,958,959,958,959,958,959,958,959,958,959,958,959,958,959,958,959,958,959,958,959,958,959,958,959,958,959,958,959,958,959,958,959,958,959,958,959,958,959,958,959,958,959,958,959,958,959,958,959,958,959,958,959,958,959,958,959,958,959,958,959,958,959,958,959,958,959,958,959,958,959,958,959,958,959,958,959,958,959,958,959,958,959,958,959,958,959,958,959,958,959,958,959,958,959,958,959,958,959,958,959,958,959,958,959,958,959,958,959,958,959,958,959,958,959,958,959,958,959,958,959,958,959,958,959,958,959,958,959,958,959,958,959,958,959,958,959,958,959,958,959,958,959,958,959,958,959,958,959,958,959,958,959,958,959,958,959,958,959,958,959,958,959,958,959,958,959,958,959,958,959,958,959,958,959,958,959,958,959,958,959,958,959,958,959,958,959,958,959,958,959,958,959,958,959,958,959,958,959,958,959,958,959,958,959,958,959,958,959,958,959,958,959,958,959,958,959,958,959,958,959,958,959,958,959,958,959,958,959,958,959,958,959,958,959,958,959,958,959,958,959,958,959,958,959,958,959,958,959,958,959,958,959,958,959,958,959,958,959,958,959,958,959,958,959,958,959,958,959,958,959,958,959,958,959,958,959,958,959,958,959,958,959,958,959,958,959,958,959,958,959,958,959,958,959,958,959,958,959,958,959,958,959,958,959,958,959,958,959,958,959,958,959,958,959,958,959,958,959,958,959,958,959,958,959,958,959,958,959,958,959,958,959,958,959,958,959,958,959,958,959,958,959,958,959,958,959,958,959,958,959,958,959,958,959,958,959,958,959,958,959,958,959,958,959,958,959,958,959,958,959,958,959,958,959,958,959,958,959,958,959,958,959,958,959,958,959,958,959,958,959,958,959,958,959,958,959,958,959,958,959,958,959,958,959,958,959,958,959,958,959,958,959,958,959,958,959,958,959,958,959,958,959,958,959,958,959,958,959,958,959,958,959,958,959,958,959,958,959,958,959,958,959,958,959,958,959,958,959,958,959,958,959,958,959,958,959,958,959,958,959,958,959,958,959,958,959,958,959,958,959,958,959,958,959,958,959,958,959,958,959,958,959,958,959,958,959,958,959,958,959,958,959,958,959,958,959,958,959,958,959,958,959,958,959,958,959,958,959,958,959,958,959,958,959,958,959,958,959,958,959,958,959,958,959,958,959,958,959,958,959,958,959,958,959,958,959,958,959,958,959,958,959,958,959,958,959,958,959,958,959,958,959,958,959,958,959,958,0,
914,915,914,915,914,915,914,915,914,915,914,915,914,915,914,915,914,915,914,915,914,915,914,915,914,915,914,915,914,915,914,915,914,915,914,915,914,915,914,915,914,915,914,915,914,915,914,915,914,915,914,915,914,915,914,915,914,915,914,915,914,915,914,915,914,915,914,915,914,915,914,915,914,915,914,915,914,915,914,915,914,915,914,915,914,915,914,915,914,915,914,915,914,915,914,915,914,915,914,915,914,915,914,915,914,915,914,915,914,915,914,915,914,915,914,915,914,915,914,915,914,915,914,915,914,915,914,915,914,915,914,915,914,915,914,915,914,915,914,915,914,915,914,915,914,915,914,915,914,915,914,915,914,915,914,915,914,915,914,915,914,915,914,915,914,915,914,915,914,915,914,915,914,915,914,915,914,915,914,915,914,915,914,915,914,915,914,915,914,915,914,915,914,915,914,915,914,915,914,915,914,915,914,915,914,915,914,915,914,915,914,915,914,915,914,915,914,915,914,915,914,915,914,915,914,915,914,915,914,915,914,915,914,915,914,915,914,915,914,915,914,915,914,915,914,915,914,915,914,915,914,915,914,915,914,915,914,915,914,915,914,915,914,915,914,915,914,915,914,915,914,915,914,915,914,915,914,915,914,915,914,915,914,915,914,915,914,915,914,915,914,915,914,915,914,915,914,915,914,915,914,915,914,915,914,915,914,915,914,915,914,915,914,915,914,915,914,915,914,915,914,915,914,915,914,915,914,915,914,915,914,915,914,915,914,915,914,915,914,915,914,915,914,915,914,915,914,915,914,915,914,915,914,915,914,915,914,915,914,915,914,915,914,915,914,915,914,915,914,915,914,915,914,915,914,915,914,915,914,915,914,915,914,915,914,915,914,915,914,915,914,915,914,915,914,915,914,915,914,915,914,915,914,915,914,915,914,915,914,915,914,915,914,915,914,915,914,915,914,915,914,915,914,915,914,915,914,915,914,915,914,915,914,915,914,915,914,915,914,915,914,915,914,915,914,915,914,915,914,915,914,915,914,915,914,915,914,915,914,915,914,915,914,915,914,915,914,915,914,915,914,915,914,915,914,915,914,915,914,915,914,915,914,915,914,915,914,915,914,915,914,915,914,915,914,915,914,915,914,915,914,915,914,915,914,915,914,915,914,915,914,915,914,915,914,915,914,915,914,915,914,915,914,915,914,915,914,915,914,915,914,915,914,915,914,915,914,915,914,915,914,915,914,915,914,915,914,915,914,915,914,915,914,915,914,915,914,915,914,915,914,915,914,915,914,915,914,915,914,915,914,915,914,915,914,915,914,915,914,915,914,915,914,915,914,915,914,915,914,915,914,915,914,915,914,915,914,915,914,915,914,915,914,915,914,915,914,915,914,915,914,915,914,915,914,915,914,915,914,915,914,915,914,915,914,915,914,915,914,915,914,915,914,915,914,915,914,915,914,915,914,915,914,915,914,915,914,915,914,915,914,915,914,915,914,915,914,915,914,915,914,915,914,915,914,915,914,915,914,915,914,915,914,915,914,915,914,915,914,915,914,915,914,915,914,915,914,915,914,915,914,915,914,915,914,915,914,915,914,915,914,915,914,915,914,915,914,915,914,915,914,915,914,915,914,915,914,915,914,915,914,915,914,915,914,915,914,915,914,915,914,915,914,915,914,915,914,915,914,915,914,915,914,915,914,915,914,915,914,915,914,915,914,915,914,915,914,915,914,915,914,915,914,915,914,915,914,915,914,915,914,915,914,915,914,915,914,915,914,915,914,915,914,915,914,915,914,915,914,915,914,915,914,915,914,915,914,915,914,915,914,915,914,915,914,915,914,915,914,915,914,915,914,915,914,915,914,915,914,915,914,915,914,915,914,915,914,915,914,915,914,915,914,915,914,915,914,915,914,915,914,915,914,915,914,915,914,915,914,915,914,915,914,915,914,915,914,915,914,915,914,915,914,915,914,915,914,915,914,915,914,915,914,915,914,915,914,915,914,915,914,915,914,915,914,915,914,915,914,915,914,915,914,915,914,915,914,915,914,915,914,915,914,915,914,915,914,915,914,915,914,915,914,915,914,915,914,915,914,915,914,915,914,915,914,915,914,915,914,915,914,915,914,915,914,915,914,915,914,915,914,915,914,915,914,915,914,915,914,915,914,915,914,915,914,915,914,915,914,915,914,915,914,915,914,915,914,915,914,915,914,915,914,915,914,915,914,915,914,915,914,915,914,915,914,915,914,915,914,915,914,915,914,915,914,915,914,915,914,0,
958,959,958,959,958,959,958,959,958,959,958,959,958,959,958,959,958,959,958,959,958,959,958,959,958,959,958,959,958,959,958,959,958,959,958,959,958,959,958,959,958,959,958,959,958,959,958,959,958,959,958,959,958,959,958,959,958,959,958,959,958,959,958,959,958,959,958,959,958,959,958,959,958,959,958,959,958,959,958,959,958,959,958,959,958,959,958,959,958,959,958,959,958,959,958,959,958,959,958,959,958,959,958,959,958,959,958,959,958,959,958,959,958,959,958,959,958,959,958,959,958,959,958,959,958,959,958,959,958,959,958,959,958,959,958,959,958,959,958,959,958,959,958,959,958,959,958,959,958,959,958,959,958,959,958,959,958,959,958,959,958,959,958,959,958,959,958,959,958,959,958,959,958,959,958,959,958,959,958,959,958,959,958,959,958,959,958,959,958,959,958,959,958,959,958,959,958,959,958,959,958,959,958,959,958,959,958,959,958,959,958,959,958,959,958,959,958,959,958,959,958,959,958,959,958,959,958,959,958,959,958,959,958,959,958,959,958,959,958,959,958,959,958,959,958,959,958,959,958,959,958,959,958,959,958,959,958,959,958,959,958,959,958,959,958,959,958,959,958,959,958,959,958,959,958,959,958,959,958,959,958,959,958,959,958,959,958,959,958,959,958,959,958,959,958,959,958,959,958,959,958,959,958,959,958,959,958,959,958,959,958,959,958,959,958,959,958,959,958,959,958,959,958,959,958,959,958,959,958,959,958,959,958,959,958,959,958,959,958,959,958,959,958,959,958,959,958,959,958,959,958,959,958,959,958,959,958,959,958,959,958,959,958,959,958,959,958,959,958,959,958,959,958,959,958,959,958,959,958,959,958,959,958,959,958,959,958,959,958,959,958,959,958,959,958,959,958,959,958,959,958,959,958,959,958,959,958,959,958,959,958,959,958,959,958,959,958,959,958,959,958,959,958,959,958,959,958,959,958,959,958,959,958,959,958,959,958,959,958,959,958,959,958,959,958,959,958,959,958,959,958,959,958,959,958,959,958,959,958,959,958,959,958,959,958,959,958,959,958,959,958,959,958,959,958,959,958,959,958,959,958,959,958,959,958,959,958,959,958,959,958,959,958,959,958,959,958,959,958,959,958,959,958,959,958,959,958,959,958,959,958,959,958,959,958,959,958,959,958,959,958,959,958,959,958,959,958,959,958,959,958,959,958,959,958,959,958,959,958,959,958,959,958,959,958,959,958,959,958,959,958,959,958,959,958,959,958,959,958,959,958,959,958,959,958,959,958,959,958,959,958,959,958,959,958,959,958,959,958,959,958,959,958,959,958,959,958,959,958,959,958,959,958,959,958,959,958,959,958,959,958,959,958,959,958,959,958,959,958,959,958,959,958,959,958,959,958,959,958,959,958,959,958,959,958,959,958,959,958,959,958,959,958,959,958,959,958,959,958,959,958,959,958,959,958,959,958,959,958,959,958,959,958,959,958,959,958,959,958,959,958,959,958,959,958,959,958,959,958,959,958,959,958,959,958,959,958,959,958,959,958,959,958,959,958,959,958,959,958,959,958,959,958,959,958,959,958,959,958,959,958,959,958,959,958,959,958,959,958,959,958,959,958,959,958,959,958,959,958,959,958,959,958,959,958,959,958,959,958,959,958,959,958,959,958,959,958,959,958,959,958,959,958,959,958,959,958,959,958,959,958,959,958,959,958,959,958,959,958,959,958,959,958,959,958,959,958,959,958,959,958,959,958,959,958,959,958,959,958,959,958,959,958,959,958,959,958,959,958,959,958,959,958,959,958,959,958,959,958,959,958,959,958,959,958,959,958,959,958,959,958,959,958,959,958,959,958,959,958,959,958,959,958,959,958,959,958,959,958,959,958,959,958,959,958,959,958,959,958,959,958,959,958,959,958,959,958,959,958,959,958,959,958,959,958,959,958,959,958,959,958,959,958,959,958,959,958,959,958,959,958,959,958,959,958,959,958,959,958,959,958,959,958,959,958,959,958,959,958,959,958,959,958,959,958,959,958,959,958,959,958,959,958,959,958,959,958,959,958,959,958,959,958,959,958,959,958,959,958,959,958,959,958,959,958,959,958,959,958,959,958,959,958,959,958,959,958,959,958,959,958,959,958,959,958,959,958,959,958,959,958,959,958,959,958,959,958,959,958,959,958,959,958,959,958,959,958,959,958,959,958,959,958,959,958,959,958,959,958,959,958,959,958,959,958,959,958,959,958,959,958,959,958,959,958,959,958,959,958,0
</data>
 </layer>
 <layer id="4" name="borber" width="1000" height="50" visible="0">
  <data encoding="csv">
0,0,0,0,0,0,0,0,0,0,0,0,0,0,0,0,0,0,0,0,0,0,0,0,0,0,0,0,0,0,0,0,0,0,0,0,0,0,0,0,0,0,0,0,0,0,0,0,0,0,0,0,0,0,0,0,0,0,0,0,0,0,0,0,0,0,0,0,0,0,0,0,0,0,0,0,0,0,0,0,0,0,0,0,0,0,0,0,0,0,0,0,0,0,0,0,0,0,0,0,0,0,0,0,0,0,0,0,0,0,0,0,0,0,0,0,0,0,0,0,0,0,0,0,0,0,0,0,0,0,0,0,0,0,0,0,0,0,0,0,0,0,0,0,0,0,0,0,0,0,0,0,0,0,0,0,0,0,0,0,0,0,0,0,0,0,0,0,0,0,0,0,0,0,0,0,0,0,0,0,0,0,0,0,0,0,0,0,0,0,0,0,0,0,0,0,0,0,0,0,0,0,0,0,0,0,0,0,0,0,0,0,0,0,0,0,0,0,0,0,0,0,0,0,0,0,0,0,0,0,0,0,0,0,0,0,0,0,0,0,0,0,0,0,0,0,0,0,0,0,0,0,0,0,0,0,0,0,0,0,0,0,0,0,0,0,0,0,0,0,0,0,0,0,0,0,0,0,0,0,0,0,0,0,0,0,0,0,0,0,0,0,0,0,0,0,0,0,0,0,0,0,0,0,0,0,0,0,0,0,0,0,0,0,0,0,0,0,0,0,0,0,0,0,0,0,0,0,0,0,0,0,0,0,0,0,0,0,0,0,0,0,0,0,0,0,0,0,0,0,0,0,0,0,0,0,0,0,0,0,0,0,0,0,0,0,0,0,0,0,0,0,0,0,0,0,0,0,0,0,0,0,0,0,0,0,0,0,0,0,0,0,0,0,0,0,0,0,0,0,0,0,0,0,0,0,0,0,0,0,0,0,0,0,0,0,0,0,0,0,0,0,0,0,0,0,0,0,0,0,0,0,0,0,0,0,0,0,0,0,0,0,0,0,0,0,0,0,0,0,0,0,0,0,0,0,0,0,0,0,0,0,0,0,0,0,0,0,0,0,0,0,0,0,0,0,0,0,0,0,0,0,0,0,0,0,0,0,0,0,0,0,0,0,0,0,0,0,0,0,0,0,0,0,0,0,0,0,0,0,0,0,0,0,0,0,0,0,0,0,0,0,0,0,0,0,0,0,0,0,0,0,0,0,0,0,0,0,0,0,0,0,0,0,0,0,0,0,0,0,0,0,0,0,0,0,0,0,0,0,0,0,0,0,0,0,0,0,0,0,0,0,0,0,0,0,0,0,0,0,0,0,0,0,0,0,0,0,0,0,0,0,0,0,0,0,0,0,0,0,0,0,0,0,0,0,0,0,0,0,0,0,0,0,0,0,0,0,0,0,0,0,0,0,0,0,0,0,0,0,0,0,0,0,0,0,0,0,0,0,0,0,0,0,0,0,0,0,0,0,0,0,0,0,0,0,0,0,0,0,0,0,0,0,0,0,0,0,0,0,0,0,0,0,0,0,0,0,0,0,0,0,0,0,0,0,0,0,0,0,0,0,0,0,0,0,0,0,0,0,0,0,0,0,0,0,0,0,0,0,0,0,0,0,0,0,0,0,0,0,0,0,0,0,0,0,0,0,0,0,0,0,0,0,0,0,0,0,0,0,0,0,0,0,0,0,0,0,0,0,0,0,0,0,0,0,0,0,0,0,0,0,0,0,0,0,0,0,0,0,0,0,0,0,0,0,0,0,0,0,0,0,0,0,0,0,0,0,0,0,0,0,0,0,0,0,0,0,0,0,0,0,0,0,0,0,0,0,0,0,0,0,0,0,0,0,0,0,0,0,0,0,0,0,0,0,0,0,0,0,0,0,0,0,0,0,0,0,0,0,0,0,0,0,0,0,0,0,0,0,0,0,0,0,0,0,0,0,0,0,0,0,0,0,0,0,0,0,0,0,0,0,0,0,0,0,0,0,0,0,0,0,0,0,0,0,0,0,0,0,0,0,0,0,0,0,0,0,0,0,0,0,0,0,0,0,0,0,0,0,0,0,0,0,0,0,0,0,0,0,0,0,0,0,0,0,0,0,0,0,0,0,0,0,0,0,0,0,0,0,0,0,0,0,0,0,0,0,0,0,0,0,0,0,0,0,0,0,0,0,0,0,0,0,0,0,0,0,0,0,0,0,0,0,0,0,0,0,0,0,0,0,0,0,0,0,0,0,0,0,0,0,0,0,0,0,0,0,0,0,
0,0,0,0,0,0,0,0,0,0,0,0,0,0,0,0,0,0,0,0,0,0,0,0,0,0,0,0,0,0,0,0,0,0,0,0,0,0,0,0,0,0,0,0,0,0,0,0,0,0,0,0,0,0,0,0,0,0,0,0,0,0,0,0,0,0,0,0,0,0,0,0,0,0,0,0,0,0,0,0,0,0,0,0,0,0,0,0,0,0,0,0,0,0,0,0,0,0,0,0,0,0,0,0,0,0,0,0,0,0,0,0,0,0,0,0,0,0,0,0,0,0,0,0,0,0,0,0,0,0,0,0,0,0,0,0,0,0,0,0,0,0,0,0,0,0,0,0,0,0,0,0,0,0,0,0,0,0,0,0,0,0,0,0,0,0,0,0,0,0,0,0,0,0,0,0,0,0,0,0,0,0,0,0,0,0,0,0,0,0,0,0,0,0,0,0,0,0,0,0,0,0,0,0,0,0,0,0,0,0,0,0,0,0,0,0,0,0,0,0,0,0,0,0,0,0,0,0,0,0,0,0,0,0,0,0,0,0,0,0,0,0,0,0,0,0,0,0,0,0,0,0,0,0,0,0,0,0,0,0,0,0,0,0,0,0,0,0,0,0,0,0,0,0,0,0,0,0,0,0,0,0,0,0,0,0,0,0,0,0,0,0,0,0,0,0,0,0,0,0,0,0,0,0,0,0,0,0,0,0,0,0,0,0,0,0,0,0,0,0,0,0,0,0,0,0,0,0,0,0,0,0,0,0,0,0,0,0,0,0,0,0,0,0,0,0,0,0,0,0,0,0,0,0,0,0,0,0,0,0,0,0,0,0,0,0,0,0,0,0,0,0,0,0,0,0,0,0,0,0,0,0,0,0,0,0,0,0,0,0,0,0,0,0,0,0,0,0,0,0,0,0,0,0,0,0,0,0,0,0,0,0,0,0,0,0,0,0,0,0,0,0,0,0,0,0,0,0,0,0,0,0,0,0,0,0,0,0,0,0,0,0,0,0,0,0,0,0,0,0,0,0,0,0,0,0,0,0,0,0,0,0,0,0,0,0,0,0,0,0,0,0,0,0,0,0,0,0,0,0,0,0,0,0,0,0,0,0,0,0,0,0,0,0,0,0,0,0,0,0,0,0,0,0,0,0,0,0,0,0,0,0,0,0,0,0,0,0,0,0,0,0,0,0,0,0,0,0,0,0,0,0,0,0,0,0,0,0,0,0,0,0,0,0,0,0,0,0,0,0,0,0,0,0,0,0,0,0,0,0,0,0,0,0,0,0,0,0,0,0,0,0,0,0,0,0,0,0,0,0,0,0,0,0,0,0,0,0,0,0,0,0,0,0,0,0,0,0,0,0,0,0,0,0,0,0,0,0,0,0,0,0,0,0,0,0,0,0,0,0,0,0,0,0,0,0,0,0,0,0,0,0,0,0,0,0,0,0,0,0,0,0,0,0,0,0,0,0,0,0,0,0,0,0,0,0,0,0,0,0,0,0,0,0,0,0,0,0,0,0,0,0,0,0,0,0,0,0,0,0,0,0,0,0,0,0,0,0,0,0,0,0,0,0,0,0,0,0,0,0,0,0,0,0,0,0,0,0,0,0,0,0,0,0,0,0,0,0,0,0,0,0,0,0,0,0,0,0,0,0,0,0,0,0,0,0,0,0,0,0,0,0,0,0,0,0,0,0,0,0,0,0,0,0,0,0,0,0,0,0,0,0,0,0,0,0,0,0,0,0,0,0,0,0,0,0,0,0,0,0,0,0,0,0,0,0,0,0,0,0,0,0,0,0,0,0,0,0,0,0,0,0,0,0,0,0,0,0,0,0,0,0,0,0,0,0,0,0,0,0,0,0,0,0,0,0,0,0,0,0,0,0,0,0,0,0,0,0,0,0,0,0,0,0,0,0,0,0,0,0,0,0,0,0,0,0,0,0,0,0,0,0,0,0,0,0,0,0,0,0,0,0,0,0,0,0,0,0,0,0,0,0,0,0,0,0,0,0,0,0,0,0,0,0,0,0,0,0,0,0,0,0,0,0,0,0,0,0,0,0,0,0,0,0,0,0,0,0,0,0,0,0,0,0,0,0,0,0,0,0,0,0,0,0,0,0,0,0,0,0,0,0,0,0,0,0,0,0,0,0,0,0,0,0,0,0,0,0,0,0,0,0,0,0,0,0,0,0,0,0,0,0,0,0,0,0,0,0,0,0,0,0,0,0,0,0,0,0,0,0,0,0,0,0,0,0,0,0,0,0,
0,0,0,0,0,0,0,0,0,0,0,0,0,0,0,0,0,0,0,0,0,0,0,0,0,0,0,0,0,0,0,0,0,0,0,0,0,0,0,0,0,0,0,0,0,0,0,0,0,0,0,0,0,0,0,0,0,0,0,0,0,0,0,0,0,0,0,0,0,0,0,0,0,0,0,0,0,0,0,0,0,0,0,0,0,0,0,0,0,0,0,0,0,0,0,0,0,0,0,0,0,0,0,0,0,0,0,0,0,0,0,0,0,0,0,0,0,0,0,0,0,0,0,0,0,0,0,0,0,0,0,0,0,0,0,0,0,0,0,0,0,0,0,0,0,0,0,0,0,0,0,0,0,0,0,0,0,0,0,0,0,0,0,0,0,0,0,0,0,0,0,0,0,0,0,0,0,0,0,0,0,0,0,0,0,0,0,0,0,0,0,0,0,0,0,0,0,0,0,0,0,0,0,0,0,0,0,0,0,0,0,0,0,0,0,0,0,0,0,0,0,0,0,0,0,0,0,0,0,0,0,0,0,0,0,0,0,0,0,0,0,0,0,0,0,0,0,0,0,0,0,0,0,0,0,0,0,0,0,0,0,0,0,0,0,0,0,0,0,0,0,0,0,0,0,0,0,0,0,0,0,0,0,0,0,0,0,0,0,0,0,0,0,0,0,0,0,0,0,0,0,0,0,0,0,0,0,0,0,0,0,0,0,0,0,0,0,0,0,0,0,0,0,0,0,0,0,0,0,0,0,0,0,0,0,0,0,0,0,0,0,0,0,0,0,0,0,0,0,0,0,0,0,0,0,0,0,0,0,0,0,0,0,0,0,0,0,0,0,0,0,0,0,0,0,0,0,0,0,0,0,0,0,0,0,0,0,0,0,0,0,0,0,0,0,0,0,0,0,0,0,0,0,0,0,0,0,0,0,0,0,0,0,0,0,0,0,0,0,0,0,0,0,0,0,0,0,0,0,0,0,0,0,0,0,0,0,0,0,0,0,0,0,0,0,0,0,0,0,0,0,0,0,0,0,0,0,0,0,0,0,0,0,0,0,0,0,0,0,0,0,0,0,0,0,0,0,0,0,0,0,0,0,0,0,0,0,0,0,0,0,0,0,0,0,0,0,0,0,0,0,0,0,0,0,0,0,0,0,0,0,0,0,0,0,0,0,0,0,0,0,0,0,0,0,0,0,0,0,0,0,0,0,0,0,0,0,0,0,0,0,0,0,0,0,0,0,0,0,0,0,0,0,0,0,0,0,0,0,0,0,0,0,0,0,0,0,0,0,0,0,0,0,0,0,0,0,0,0,0,0,0,0,0,0,0,0,0,0,0,0,0,0,0,0,0,0,0,0,0,0,0,0,0,0,0,0,0,0,0,0,0,0,0,0,0,0,0,0,0,0,0,0,0,0,0,0,0,0,0,0,0,0,0,0,0,0,0,0,0,0,0,0,0,0,0,0,0,0,0,0,0,0,0,0,0,0,0,0,0,0,0,0,0,0,0,0,0,0,0,0,0,0,0,0,0,0,0,0,0,0,0,0,0,0,0,0,0,0,0,0,0,0,0,0,0,0,0,0,0,0,0,0,0,0,0,0,0,0,0,0,0,0,0,0,0,0,0,0,0,0,0,0,0,0,0,0,0,0,0,0,0,0,0,0,0,0,0,0,0,0,0,0,0,0,0,0,0,0,0,0,0,0,0,0,0,0,0,0,0,0,0,0,0,0,0,0,0,0,0,0,0,0,0,0,0,0,0,0,0,0,0,0,0,0,0,0,0,0,0,0,0,0,0,0,0,0,0,0,0,0,0,0,0,0,0,0,0,0,0,0,0,0,0,0,0,0,0,0,0,0,0,0,0,0,0,0,0,0,0,0,0,0,0,0,0,0,0,0,0,0,0,0,0,0,0,0,0,0,0,0,0,0,0,0,0,0,0,0,0,0,0,0,0,0,0,0,0,0,0,0,0,0,0,0,0,0,0,0,0,0,0,0,0,0,0,0,0,0,0,0,0,0,0,0,0,0,0,0,0,0,0,0,0,0,0,0,0,0,0,0,0,0,0,0,0,0,0,0,0,0,0,0,0,0,0,0,0,0,0,0,0,0,0,0,0,0,0,0,0,0,0,0,0,0,0,0,0,0,0,0,0,0,0,0,0,0,0,0,0,0,0,0,0,0,0,0,0,0,0,0,0,0,0,0,0,0,0,0,0,0,0,0,0,0,0,0,0,0,0,0,0,0,0,0,0,0,0,0,0,
0,0,0,0,0,0,0,0,0,0,0,0,0,0,0,0,0,0,0,0,0,0,0,0,0,0,0,0,0,0,0,0,0,0,0,0,0,0,0,0,0,0,0,0,0,0,0,0,0,0,0,0,0,0,0,0,0,0,0,0,0,0,0,0,0,0,0,0,0,0,0,0,0,0,0,0,0,0,0,0,0,0,0,0,0,0,0,0,0,0,0,0,0,0,0,0,0,0,0,0,0,0,0,0,0,0,0,0,0,0,0,0,0,0,0,0,0,0,0,0,0,0,0,0,0,0,0,0,0,0,0,0,0,0,0,0,0,0,0,0,0,0,0,0,0,0,0,0,0,0,0,0,0,0,0,0,0,0,0,0,0,0,0,0,0,0,0,0,0,0,0,0,0,0,0,0,0,0,0,0,0,0,0,0,0,0,0,0,0,0,0,0,0,0,0,0,0,0,0,0,0,0,0,0,0,0,0,0,0,0,0,0,0,0,0,0,0,0,0,0,0,0,0,0,0,0,0,0,0,0,0,0,0,0,0,0,0,0,0,0,0,0,0,0,0,0,0,0,0,0,0,0,0,0,0,0,0,0,0,0,0,0,0,0,0,0,0,0,0,0,0,0,0,0,0,0,0,0,0,0,0,0,0,0,0,0,0,0,0,0,0,0,0,0,0,0,0,0,0,0,0,0,0,0,0,0,0,0,0,0,0,0,0,0,0,0,0,0,0,0,0,0,0,0,0,0,0,0,0,0,0,0,0,0,0,0,0,0,0,0,0,0,0,0,0,0,0,0,0,0,0,0,0,0,0,0,0,0,0,0,0,0,0,0,0,0,0,0,0,0,0,0,0,0,0,0,0,0,0,0,0,0,0,0,0,0,0,0,0,0,0,0,0,0,0,0,0,0,0,0,0,0,0,0,0,0,0,0,0,0,0,0,0,0,0,0,0,0,0,0,0,0,0,0,0,0,0,0,0,0,0,0,0,0,0,0,0,0,0,0,0,0,0,0,0,0,0,0,0,0,0,0,0,0,0,0,0,0,0,0,0,0,0,0,0,0,0,0,0,0,0,0,0,0,0,0,0,0,0,0,0,0,0,0,0,0,0,0,0,0,0,0,0,0,0,0,0,0,0,0,0,0,0,0,0,0,0,0,0,0,0,0,0,0,0,0,0,0,0,0,0,0,0,0,0,0,0,0,0,0,0,0,0,0,0,0,0,0,0,0,0,0,0,0,0,0,0,0,0,0,0,0,0,0,0,0,0,0,0,0,0,0,0,0,0,0,0,0,0,0,0,0,0,0,0,0,0,0,0,0,0,0,0,0,0,0,0,0,0,0,0,0,0,0,0,0,0,0,0,0,0,0,0,0,0,0,0,0,0,0,0,0,0,0,0,0,0,0,0,0,0,0,0,0,0,0,0,0,0,0,0,0,0,0,0,0,0,0,0,0,0,0,0,0,0,0,0,0,0,0,0,0,0,0,0,0,0,0,0,0,0,0,0,0,0,0,0,0,0,0,0,0,0,0,0,0,0,0,0,0,0,0,0,0,0,0,0,0,0,0,0,0,0,0,0,0,0,0,0,0,0,0,0,0,0,0,0,0,0,0,0,0,0,0,0,0,0,0,0,0,0,0,0,0,0,0,0,0,0,0,0,0,0,0,0,0,0,0,0,0,0,0,0,0,0,0,0,0,0,0,0,0,0,0,0,0,0,0,0,0,0,0,0,0,0,0,0,0,0,0,0,0,0,0,0,0,0,0,0,0,0,0,0,0,0,0,0,0,0,0,0,0,0,0,0,0,0,0,0,0,0,0,0,0,0,0,0,0,0,0,0,0,0,0,0,0,0,0,0,0,0,0,0,0,0,0,0,0,0,0,0,0,0,0,0,0,0,0,0,0,0,0,0,0,0,0,0,0,0,0,0,0,0,0,0,0,0,0,0,0,0,0,0,0,0,0,0,0,0,0,0,0,0,0,0,0,0,0,0,0,0,0,0,0,0,0,0,0,0,0,0,0,0,0,0,0,0,0,0,0,0,0,0,0,0,0,0,0,0,0,0,0,0,0,0,0,0,0,0,0,0,0,0,0,0,0,0,0,0,0,0,0,0,0,0,0,0,0,0,0,0,0,0,0,0,0,0,0,0,0,0,0,0,0,0,0,0,0,0,0,0,0,0,0,0,0,0,0,0,0,0,0,0,0,0,0,0,0,0,0,0,0,0,0,0,0,0,0,0,0,0,0,0,0,0,0,0,0,0,0,
0,0,0,0,0,0,0,0,0,0,0,0,0,0,0,0,0,0,0,0,0,0,0,0,0,0,0,0,0,0,0,0,0,0,0,0,0,0,0,0,0,0,0,0,0,0,0,0,0,0,0,0,0,0,0,0,0,0,0,0,0,0,0,0,0,0,0,0,0,0,0,0,0,0,0,0,0,0,0,0,0,0,0,0,0,0,0,0,0,0,0,0,0,0,0,0,0,0,0,0,0,0,0,0,0,0,0,0,0,0,0,0,0,0,0,0,0,0,0,0,0,0,0,0,0,0,0,0,0,0,0,0,0,0,0,0,0,0,0,0,0,0,0,0,0,0,0,0,0,0,0,0,0,0,0,0,0,0,0,0,0,0,0,0,0,0,0,0,0,0,0,0,0,0,0,0,0,0,0,0,0,0,0,0,0,0,0,0,0,0,0,0,0,0,0,0,0,0,0,0,0,0,0,0,0,0,0,0,0,0,0,0,0,0,0,0,0,0,0,0,0,0,0,0,0,0,0,0,0,0,0,0,0,0,0,0,0,0,0,0,0,0,0,0,0,0,0,0,0,0,0,0,0,0,0,0,0,0,0,0,0,0,0,0,0,0,0,0,0,0,0,0,0,0,0,0,0,0,0,0,0,0,0,0,0,0,0,0,0,0,0,0,0,0,0,0,0,0,0,0,0,0,0,0,0,0,0,0,0,0,0,0,0,0,0,0,0,0,0,0,0,0,0,0,0,0,0,0,0,0,0,0,0,0,0,0,0,0,0,0,0,0,0,0,0,0,0,0,0,0,0,0,0,0,0,0,0,0,0,0,0,0,0,0,0,0,0,0,0,0,0,0,0,0,0,0,0,0,0,0,0,0,0,0,0,0,0,0,0,0,0,0,0,0,0,0,0,0,0,0,0,0,0,0,0,0,0,0,0,0,0,0,0,0,0,0,0,0,0,0,0,0,0,0,0,0,0,0,0,0,0,0,0,0,0,0,0,0,0,0,0,0,0,0,0,0,0,0,0,0,0,0,0,0,0,0,0,0,0,0,0,0,0,0,0,0,0,0,0,0,0,0,0,0,0,0,0,0,0,0,0,0,0,0,0,0,0,0,0,0,0,0,0,0,0,0,0,0,0,0,0,0,0,0,0,0,0,0,0,0,0,0,0,0,0,0,0,0,0,0,0,0,0,0,0,0,0,0,0,0,0,0,0,0,0,0,0,0,0,0,0,0,0,0,0,0,0,0,0,0,0,0,0,0,0,0,0,0,0,0,0,0,0,0,0,0,0,0,0,0,0,0,0,0,0,0,0,0,0,0,0,0,0,0,0,0,0,0,0,0,0,0,0,0,0,0,0,0,0,0,0,0,0,0,0,0,0,0,0,0,0,0,0,0,0,0,0,0,0,0,0,0,0,0,0,0,0,0,0,0,0,0,0,0,0,0,0,0,0,0,0,0,0,0,0,0,0,0,0,0,0,0,0,0,0,0,0,0,0,0,0,0,0,0,0,0,0,0,0,0,0,0,0,0,0,0,0,0,0,0,0,0,0,0,0,0,0,0,0,0,0,0,0,0,0,0,0,0,0,0,0,0,0,0,0,0,0,0,0,0,0,0,0,0,0,0,0,0,0,0,0,0,0,0,0,0,0,0,0,0,0,0,0,0,0,0,0,0,0,0,0,0,0,0,0,0,0,0,0,0,0,0,0,0,0,0,0,0,0,0,0,0,0,0,0,0,0,0,0,0,0,0,0,0,0,0,0,0,0,0,0,0,0,0,0,0,0,0,0,0,0,0,0,0,0,0,0,0,0,0,0,0,0,0,0,0,0,0,0,0,0,0,0,0,0,0,0,0,0,0,0,0,0,0,0,0,0,0,0,0,0,0,0,0,0,0,0,0,0,0,0,0,0,0,0,0,0,0,0,0,0,0,0,0,0,0,0,0,0,0,0,0,0,0,0,0,0,0,0,0,0,0,0,0,0,0,0,0,0,0,0,0,0,0,0,0,0,0,0,0,0,0,0,0,0,0,0,0,0,0,0,0,0,0,0,0,0,0,0,0,0,0,0,0,0,0,0,0,0,0,0,0,0,0,0,0,0,0,0,0,0,0,0,0,0,0,0,0,0,0,0,0,0,0,0,0,0,0,0,0,0,0,0,0,0,0,0,0,0,0,0,0,0,0,0,0,0,0,0,0,0,0,0,0,0,0,0,0,0,0,0,0,0,0,0,0,0,0,0,0,0,0,0,0,0,0,0,0,0,0,
0,0,0,0,0,0,0,0,0,0,0,0,0,0,0,0,0,0,0,0,0,0,0,0,0,0,0,0,0,0,0,0,0,0,0,0,0,0,0,0,0,0,0,0,0,0,0,0,0,0,0,0,0,0,0,0,0,0,0,0,0,0,0,0,0,0,0,0,0,0,0,0,0,0,0,0,0,0,0,0,0,0,0,0,0,0,0,0,0,0,0,0,0,0,0,0,0,0,0,0,0,0,0,0,0,0,0,0,0,0,0,0,0,0,0,0,0,0,0,0,0,0,0,0,0,0,0,0,0,0,0,0,0,0,0,0,0,0,0,0,0,0,0,0,0,0,0,0,0,0,0,0,0,0,0,0,0,0,0,0,0,0,0,0,0,0,0,0,0,0,0,0,0,0,0,0,0,0,0,0,0,0,0,0,0,0,0,0,0,0,0,0,0,0,0,0,0,0,0,0,0,0,0,0,0,0,0,0,0,0,0,0,0,0,0,0,0,0,0,0,0,0,0,0,0,0,0,0,0,0,0,0,0,0,0,0,0,0,0,0,0,0,0,0,0,0,0,0,0,0,0,0,0,0,0,0,0,0,0,0,0,0,0,0,0,0,0,0,0,0,0,0,0,0,0,0,0,0,0,0,0,0,0,0,0,0,0,0,0,0,0,0,0,0,0,0,0,0,0,0,0,0,0,0,0,0,0,0,0,0,0,0,0,0,0,0,0,0,0,0,0,0,0,0,0,0,0,0,0,0,0,0,0,0,0,0,0,0,0,0,0,0,0,0,0,0,0,0,0,0,0,0,0,0,0,0,0,0,0,0,0,0,0,0,0,0,0,0,0,0,0,0,0,0,0,0,0,0,0,0,0,0,0,0,0,0,0,0,0,0,0,0,0,0,0,0,0,0,0,0,0,0,0,0,0,0,0,0,0,0,0,0,0,0,0,0,0,0,0,0,0,0,0,0,0,0,0,0,0,0,0,0,0,0,0,0,0,0,0,0,0,0,0,0,0,0,0,0,0,0,0,0,0,0,0,0,0,0,0,0,0,0,0,0,0,0,0,0,0,0,0,0,0,0,0,0,0,0,0,0,0,0,0,0,0,0,0,0,0,0,0,0,0,0,0,0,0,0,0,0,0,0,0,0,0,0,0,0,0,0,0,0,0,0,0,0,0,0,0,0,0,0,0,0,0,0,0,0,0,0,0,0,0,0,0,0,0,0,0,0,0,0,0,0,0,0,0,0,0,0,0,0,0,0,0,0,0,0,0,0,0,0,0,0,0,0,0,0,0,0,0,0,0,0,0,0,0,0,0,0,0,0,0,0,0,0,0,0,0,0,0,0,0,0,0,0,0,0,0,0,0,0,0,0,0,0,0,0,0,0,0,0,0,0,0,0,0,0,0,0,0,0,0,0,0,0,0,0,0,0,0,0,0,0,0,0,0,0,0,0,0,0,0,0,0,0,0,0,0,0,0,0,0,0,0,0,0,0,0,0,0,0,0,0,0,0,0,0,0,0,0,0,0,0,0,0,0,0,0,0,0,0,0,0,0,0,0,0,0,0,0,0,0,0,0,0,0,0,0,0,0,0,0,0,0,0,0,0,0,0,0,0,0,0,0,0,0,0,0,0,0,0,0,0,0,0,0,0,0,0,0,0,0,0,0,0,0,0,0,0,0,0,0,0,0,0,0,0,0,0,0,0,0,0,0,0,0,0,0,0,0,0,0,0,0,0,0,0,0,0,0,0,0,0,0,0,0,0,0,0,0,0,0,0,0,0,0,0,0,0,0,0,0,0,0,0,0,0,0,0,0,0,0,0,0,0,0,0,0,0,0,0,0,0,0,0,0,0,0,0,0,0,0,0,0,0,0,0,0,0,0,0,0,0,0,0,0,0,0,0,0,0,0,0,0,0,0,0,0,0,0,0,0,0,0,0,0,0,0,0,0,0,0,0,0,0,0,0,0,0,0,0,0,0,0,0,0,0,0,0,0,0,0,0,0,0,0,0,0,0,0,0,0,0,0,0,0,0,0,0,0,0,0,0,0,0,0,0,0,0,0,0,0,0,0,0,0,0,0,0,0,0,0,0,0,0,0,0,0,0,0,0,0,0,0,0,0,0,0,0,0,0,0,0,0,0,0,0,0,0,0,0,0,0,0,0,0,0,0,0,0,0,0,0,0,0,0,0,0,0,0,0,0,0,0,0,0,0,0,0,0,0,0,0,0,0,0,0,0,0,0,0,0,0,0,0,0,0,0,0,
0,0,0,0,0,0,0,0,0,0,0,0,0,0,0,0,0,0,0,0,0,0,0,0,0,0,0,0,0,0,0,0,0,0,0,0,0,0,0,0,0,0,0,0,0,0,0,0,0,0,0,0,0,0,0,0,0,0,0,0,0,0,0,0,0,0,0,0,0,0,0,0,0,0,0,0,0,0,0,0,0,0,0,0,0,0,0,0,0,0,0,0,0,0,0,0,0,0,0,0,0,0,0,0,0,0,0,0,0,0,0,0,0,0,0,0,0,0,0,0,0,0,0,0,0,0,0,0,0,0,0,0,0,0,0,0,0,0,0,0,0,0,0,0,0,0,0,0,0,0,0,0,0,0,0,0,0,0,0,0,0,0,0,0,0,0,0,0,0,0,0,0,0,0,0,0,0,0,0,0,0,0,0,0,0,0,0,0,0,0,0,0,0,0,0,0,0,0,0,0,0,0,0,0,0,0,0,0,0,0,0,0,0,0,0,0,0,0,0,0,0,0,0,0,0,0,0,0,0,0,0,0,0,0,0,0,0,0,0,0,0,0,0,0,0,0,0,0,0,0,0,0,0,0,0,0,0,0,0,0,0,0,0,0,0,0,0,0,0,0,0,0,0,0,0,0,0,0,0,0,0,0,0,0,0,0,0,0,0,0,0,0,0,0,0,0,0,0,0,0,0,0,0,0,0,0,0,0,0,0,0,0,0,0,0,0,0,0,0,0,0,0,0,0,0,0,0,0,0,0,0,0,0,0,0,0,0,0,0,0,0,0,0,0,0,0,0,0,0,0,0,0,0,0,0,0,0,0,0,0,0,0,0,0,0,0,0,0,0,0,0,0,0,0,0,0,0,0,0,0,0,0,0,0,0,0,0,0,0,0,0,0,0,0,0,0,0,0,0,0,0,0,0,0,0,0,0,0,0,0,0,0,0,0,0,0,0,0,0,0,0,0,0,0,0,0,0,0,0,0,0,0,0,0,0,0,0,0,0,0,0,0,0,0,0,0,0,0,0,0,0,0,0,0,0,0,0,0,0,0,0,0,0,0,0,0,0,0,0,0,0,0,0,0,0,0,0,0,0,0,0,0,0,0,0,0,0,0,0,0,0,0,0,0,0,0,0,0,0,0,0,0,0,0,0,0,0,0,0,0,0,0,0,0,0,0,0,0,0,0,0,0,0,0,0,0,0,0,0,0,0,0,0,0,0,0,0,0,0,0,0,0,0,0,0,0,0,0,0,0,0,0,0,0,0,0,0,0,0,0,0,0,0,0,0,0,0,0,0,0,0,0,0,0,0,0,0,0,0,0,0,0,0,0,0,0,0,0,0,0,0,0,0,0,0,0,0,0,0,0,0,0,0,0,0,0,0,0,0,0,0,0,0,0,0,0,0,0,0,0,0,0,0,0,0,0,0,0,0,0,0,0,0,0,0,0,0,0,0,0,0,0,0,0,0,0,0,0,0,0,0,0,0,0,0,0,0,0,0,0,0,0,0,0,0,0,0,0,0,0,0,0,0,0,0,0,0,0,0,0,0,0,0,0,0,0,0,0,0,0,0,0,0,0,0,0,0,0,0,0,0,0,0,0,0,0,0,0,0,0,0,0,0,0,0,0,0,0,0,0,0,0,0,0,0,0,0,0,0,0,0,0,0,0,0,0,0,0,0,0,0,0,0,0,0,0,0,0,0,0,0,0,0,0,0,0,0,0,0,0,0,0,0,0,0,0,0,0,0,0,0,0,0,0,0,0,0,0,0,0,0,0,0,0,0,0,0,0,0,0,0,0,0,0,0,0,0,0,0,0,0,0,0,0,0,0,0,0,0,0,0,0,0,0,0,0,0,0,0,0,0,0,0,0,0,0,0,0,0,0,0,0,0,0,0,0,0,0,0,0,0,0,0,0,0,0,0,0,0,0,0,0,0,0,0,0,0,0,0,0,0,0,0,0,0,0,0,0,0,0,0,0,0,0,0,0,0,0,0,0,0,0,0,0,0,0,0,0,0,0,0,0,0,0,0,0,0,0,0,0,0,0,0,0,0,0,0,0,0,0,0,0,0,0,0,0,0,0,0,0,0,0,0,0,0,0,0,0,0,0,0,0,0,0,0,0,0,0,0,0,0,0,0,0,0,0,0,0,0,0,0,0,0,0,0,0,0,0,0,0,0,0,0,0,0,0,0,0,0,0,0,0,0,0,0,0,0,0,0,0,0,0,0,0,0,0,0,0,0,0,0,0,0,0,0,0,0,0,0,0,
0,0,0,0,0,0,0,0,0,0,0,0,0,0,0,0,0,0,0,0,0,0,0,0,0,0,0,0,0,0,0,0,0,0,0,0,0,0,0,0,0,0,0,0,0,0,0,0,0,0,0,0,0,0,0,0,0,0,0,0,0,0,0,0,0,0,0,0,0,0,0,0,0,0,0,0,0,0,0,0,0,0,0,0,0,0,0,0,0,0,0,0,0,0,0,0,0,0,0,0,0,0,0,0,0,0,0,0,0,0,0,0,0,0,0,0,0,0,0,0,0,0,0,0,0,0,0,0,0,0,0,0,0,0,0,0,0,0,0,0,0,0,0,0,0,0,0,0,0,0,0,0,0,0,0,0,0,0,0,0,0,0,0,0,0,0,0,0,0,0,0,0,0,0,0,0,0,0,0,0,0,0,0,0,0,0,0,0,0,0,0,0,0,0,0,0,0,0,0,0,0,0,0,0,0,0,0,0,0,0,0,0,0,0,0,0,0,0,0,0,0,0,0,0,0,0,0,0,0,0,0,0,0,0,0,0,0,0,0,0,0,0,0,0,0,0,0,0,0,0,0,0,0,0,0,0,0,0,0,0,0,0,0,0,0,0,0,0,0,0,0,0,0,0,0,0,0,0,0,0,0,0,0,0,0,0,0,0,0,0,0,0,0,0,0,0,0,0,0,0,0,0,0,0,0,0,0,0,0,0,0,0,0,0,0,0,0,0,0,0,0,0,0,0,0,0,0,0,0,0,0,0,0,0,0,0,0,0,0,0,0,0,0,0,0,0,0,0,0,0,0,0,0,0,0,0,0,0,0,0,0,0,0,0,0,0,0,0,0,0,0,0,0,0,0,0,0,0,0,0,0,0,0,0,0,0,0,0,0,0,0,0,0,0,0,0,0,0,0,0,0,0,0,0,0,0,0,0,0,0,0,0,0,0,0,0,0,0,0,0,0,0,0,0,0,0,0,0,0,0,0,0,0,0,0,0,0,0,0,0,0,0,0,0,0,0,0,0,0,0,0,0,0,0,0,0,0,0,0,0,0,0,0,0,0,0,0,0,0,0,0,0,0,0,0,0,0,0,0,0,0,0,0,0,0,0,0,0,0,0,0,0,0,0,0,0,0,0,0,0,0,0,0,0,0,0,0,0,0,0,0,0,0,0,0,0,0,0,0,0,0,0,0,0,0,0,0,0,0,0,0,0,0,0,0,0,0,0,0,0,0,0,0,0,0,0,0,0,0,0,0,0,0,0,0,0,0,0,0,0,0,0,0,0,0,0,0,0,0,0,0,0,0,0,0,0,0,0,0,0,0,0,0,0,0,0,0,0,0,0,0,0,0,0,0,0,0,0,0,0,0,0,0,0,0,0,0,0,0,0,0,0,0,0,0,0,0,0,0,0,0,0,0,0,0,0,0,0,0,0,0,0,0,0,0,0,0,0,0,0,0,0,0,0,0,0,0,0,0,0,0,0,0,0,0,0,0,0,0,0,0,0,0,0,0,0,0,0,0,0,0,0,0,0,0,0,0,0,0,0,0,0,0,0,0,0,0,0,0,0,0,0,0,0,0,0,0,0,0,0,0,0,0,0,0,0,0,0,0,0,0,0,0,0,0,0,0,0,0,0,0,0,0,0,0,0,0,0,0,0,0,0,0,0,0,0,0,0,0,0,0,0,0,0,0,0,0,0,0,0,0,0,0,0,0,0,0,0,0,0,0,0,0,0,0,0,0,0,0,0,0,0,0,0,0,0,0,0,0,0,0,0,0,0,0,0,0,0,0,0,0,0,0,0,0,0,0,0,0,0,0,0,0,0,0,0,0,0,0,0,0,0,0,0,0,0,0,0,0,0,0,0,0,0,0,0,0,0,0,0,0,0,0,0,0,0,0,0,0,0,0,0,0,0,0,0,0,0,0,0,0,0,0,0,0,0,0,0,0,0,0,0,0,0,0,0,0,0,0,0,0,0,0,0,0,0,0,0,0,0,0,0,0,0,0,0,0,0,0,0,0,0,0,0,0,0,0,0,0,0,0,0,0,0,0,0,0,0,0,0,0,0,0,0,0,0,0,0,0,0,0,0,0,0,0,0,0,0,0,0,0,0,0,0,0,0,0,0,0,0,0,0,0,0,0,0,0,0,0,0,0,0,0,0,0,0,0,0,0,0,0,0,0,0,0,0,0,0,0,0,0,0,0,0,0,0,0,0,0,0,0,0,0,0,0,0,0,0,0,0,0,0,0,0,0,0,0,0,0,0,
0,0,0,0,0,0,0,0,0,0,0,0,0,0,0,0,0,0,0,0,0,0,0,0,0,0,0,0,0,0,0,0,0,0,0,0,0,0,0,0,0,0,0,0,0,0,0,0,0,0,0,0,0,0,0,0,0,0,0,0,0,0,0,0,0,0,0,0,0,0,0,0,0,0,0,0,0,0,0,0,0,0,0,0,0,0,0,0,0,0,0,0,0,0,0,0,0,0,0,0,0,0,0,0,0,0,0,0,0,0,0,0,0,0,0,0,0,0,0,0,0,0,0,0,0,0,0,0,0,0,0,0,0,0,0,0,0,0,0,0,0,0,0,0,0,0,0,0,0,0,0,0,0,0,0,0,0,0,0,0,0,0,0,0,0,0,0,0,0,0,0,0,0,0,0,0,0,0,0,0,0,0,0,0,0,0,0,0,0,0,0,0,0,0,0,0,0,0,0,0,0,0,0,0,0,0,0,0,0,0,0,0,0,0,0,0,0,0,0,0,0,0,0,0,0,0,0,0,0,0,0,0,0,0,0,0,0,0,0,0,0,0,0,0,0,0,0,0,0,0,0,0,0,0,0,0,0,0,0,0,0,0,0,0,0,0,0,0,0,0,0,0,0,0,0,0,0,0,0,0,0,0,0,0,0,0,0,0,0,0,0,0,0,0,0,0,0,0,0,0,0,0,0,0,0,0,0,0,0,0,0,0,0,0,0,0,0,0,0,0,0,0,0,0,0,0,0,0,0,0,0,0,0,0,0,0,0,0,0,0,0,0,0,0,0,0,0,0,0,0,0,0,0,0,0,0,0,0,0,0,0,0,0,0,0,0,0,0,0,0,0,0,0,0,0,0,0,0,0,0,0,0,0,0,0,0,0,0,0,0,0,0,0,0,0,0,0,0,0,0,0,0,0,0,0,0,0,0,0,0,0,0,0,0,0,0,0,0,0,0,0,0,0,0,0,0,0,0,0,0,0,0,0,0,0,0,0,0,0,0,0,0,0,0,0,0,0,0,0,0,0,0,0,0,0,0,0,0,0,0,0,0,0,0,0,0,0,0,0,0,0,0,0,0,0,0,0,0,0,0,0,0,0,0,0,0,0,0,0,0,0,0,0,0,0,0,0,0,0,0,0,0,0,0,0,0,0,0,0,0,0,0,0,0,0,0,0,0,0,0,0,0,0,0,0,0,0,0,0,0,0,0,0,0,0,0,0,0,0,0,0,0,0,0,0,0,0,0,0,0,0,0,0,0,0,0,0,0,0,0,0,0,0,0,0,0,0,0,0,0,0,0,0,0,0,0,0,0,0,0,0,0,0,0,0,0,0,0,0,0,0,0,0,0,0,0,0,0,0,0,0,0,0,0,0,0,0,0,0,0,0,0,0,0,0,0,0,0,0,0,0,0,0,0,0,0,0,0,0,0,0,0,0,0,0,0,0,0,0,0,0,0,0,0,0,0,0,0,0,0,0,0,0,0,0,0,0,0,0,0,0,0,0,0,0,0,0,0,0,0,0,0,0,0,0,0,0,0,0,0,0,0,0,0,0,0,0,0,0,0,0,0,0,0,0,0,0,0,0,0,0,0,0,0,0,0,0,0,0,0,0,0,0,0,0,0,0,0,0,0,0,0,0,0,0,0,0,0,0,0,0,0,0,0,0,0,0,0,0,0,0,0,0,0,0,0,0,0,0,0,0,0,0,0,0,0,0,0,0,0,0,0,0,0,0,0,0,0,0,0,0,0,0,0,0,0,0,0,0,0,0,0,0,0,0,0,0,0,0,0,0,0,0,0,0,0,0,0,0,0,0,0,0,0,0,0,0,0,0,0,0,0,0,0,0,0,0,0,0,0,0,0,0,0,0,0,0,0,0,0,0,0,0,0,0,0,0,0,0,0,0,0,0,0,0,0,0,0,0,0,0,0,0,0,0,0,0,0,0,0,0,0,0,0,0,0,0,0,0,0,0,0,0,0,0,0,0,0,0,0,0,0,0,0,0,0,0,0,0,0,0,0,0,0,0,0,0,0,0,0,0,0,0,0,0,0,0,0,0,0,0,0,0,0,0,0,0,0,0,0,0,0,0,0,0,0,0,0,0,0,0,0,0,0,0,0,0,0,0,0,0,0,0,0,0,0,0,0,0,0,0,0,0,0,0,0,0,0,0,0,0,0,0,0,0,0,0,0,0,0,0,0,0,0,0,0,0,0,0,0,0,0,0,0,0,0,0,0,0,0,0,0,0,0,0,0,0,0,0,0,
0,0,0,0,0,0,0,0,0,0,0,0,0,0,0,0,0,0,0,0,0,0,0,0,0,0,0,0,0,0,0,0,0,0,0,0,0,0,0,0,0,0,0,0,0,0,0,0,0,0,0,0,0,0,0,0,0,0,0,0,0,0,0,0,0,0,0,0,0,0,0,0,0,0,0,0,0,0,0,0,0,0,0,0,0,0,0,0,0,0,0,0,0,0,0,0,0,0,0,0,0,0,0,0,0,0,0,0,0,0,0,0,0,0,0,0,0,0,0,0,0,0,0,0,0,0,0,0,0,0,0,0,0,0,0,0,0,0,0,0,0,0,0,0,0,0,0,0,0,0,0,0,0,0,0,0,0,0,0,0,0,0,0,0,0,0,0,0,0,0,0,0,0,0,0,0,0,0,0,0,0,0,0,0,0,0,0,0,0,0,0,0,0,0,0,0,0,0,0,0,0,0,0,0,0,0,0,0,0,0,0,0,0,0,0,0,0,0,0,0,0,0,0,0,0,0,0,0,0,0,0,0,0,0,0,0,0,0,0,0,0,0,0,0,0,0,0,0,0,0,0,0,0,0,0,0,0,0,0,0,0,0,0,0,0,0,0,0,0,0,0,0,0,0,0,0,0,0,0,0,0,0,0,0,0,0,0,0,0,0,0,0,0,0,0,0,0,0,0,0,0,0,0,0,0,0,0,0,0,0,0,0,0,0,0,0,0,0,0,0,0,0,0,0,0,0,0,0,0,0,0,0,0,0,0,0,0,0,0,0,0,0,0,0,0,0,0,0,0,0,0,0,0,0,0,0,0,0,0,0,0,0,0,0,0,0,0,0,0,0,0,0,0,0,0,0,0,0,0,0,0,0,0,0,0,0,0,0,0,0,0,0,0,0,0,0,0,0,0,0,0,0,0,0,0,0,0,0,0,0,0,0,0,0,0,0,0,0,0,0,0,0,0,0,0,0,0,0,0,0,0,0,0,0,0,0,0,0,0,0,0,0,0,0,0,0,0,0,0,0,0,0,0,0,0,0,0,0,0,0,0,0,0,0,0,0,0,0,0,0,0,0,0,0,0,0,0,0,0,0,0,0,0,0,0,0,0,0,0,0,0,0,0,0,0,0,0,0,0,0,0,0,0,0,0,0,0,0,0,0,0,0,0,0,0,0,0,0,0,0,0,0,0,0,0,0,0,0,0,0,0,0,0,0,0,0,0,0,0,0,0,0,0,0,0,0,0,0,0,0,0,0,0,0,0,0,0,0,0,0,0,0,0,0,0,0,0,0,0,0,0,0,0,0,0,0,0,0,0,0,0,0,0,0,0,0,0,0,0,0,0,0,0,0,0,0,0,0,0,0,0,0,0,0,0,0,0,0,0,0,0,0,0,0,0,0,0,0,0,0,0,0,0,0,0,0,0,0,0,0,0,0,0,0,0,0,0,0,0,0,0,0,0,0,0,0,0,0,0,0,0,0,0,0,0,0,0,0,0,0,0,0,0,0,0,0,0,0,0,0,0,0,0,0,0,0,0,0,0,0,0,0,0,0,0,0,0,0,0,0,0,0,0,0,0,0,0,0,0,0,0,0,0,0,0,0,0,0,0,0,0,0,0,0,0,0,0,0,0,0,0,0,0,0,0,0,0,0,0,0,0,0,0,0,0,0,0,0,0,0,0,0,0,0,0,0,0,0,0,0,0,0,0,0,0,0,0,0,0,0,0,0,0,0,0,0,0,0,0,0,0,0,0,0,0,0,0,0,0,0,0,0,0,0,0,0,0,0,0,0,0,0,0,0,0,0,0,0,0,0,0,0,0,0,0,0,0,0,0,0,0,0,0,0,0,0,0,0,0,0,0,0,0,0,0,0,0,0,0,0,0,0,0,0,0,0,0,0,0,0,0,0,0,0,0,0,0,0,0,0,0,0,0,0,0,0,0,0,0,0,0,0,0,0,0,0,0,0,0,0,0,0,0,0,0,0,0,0,0,0,0,0,0,0,0,0,0,0,0,0,0,0,0,0,0,0,0,0,0,0,0,0,0,0,0,0,0,0,0,0,0,0,0,0,0,0,0,0,0,0,0,0,0,0,0,0,0,0,0,0,0,0,0,0,0,0,0,0,0,0,0,0,0,0,0,0,0,0,0,0,0,0,0,0,0,0,0,0,0,0,0,0,0,0,0,0,0,0,0,0,0,0,0,0,0,0,0,0,0,0,0,0,0,0,0,0,0,0,0,0,0,0,0,0,0,0,0,0,0,0,
0,0,0,0,0,0,0,0,0,0,0,0,0,0,0,0,0,0,0,0,0,0,0,0,0,0,0,0,0,0,0,0,0,0,0,0,0,0,0,0,0,0,0,0,0,0,0,0,0,0,0,0,0,0,0,0,0,0,0,0,0,0,0,0,0,0,0,0,0,0,0,0,0,0,0,0,0,0,0,0,0,0,0,0,0,0,0,0,0,0,0,0,0,0,0,0,0,0,0,0,0,0,0,0,0,0,0,0,0,0,0,0,0,0,0,0,0,0,0,0,0,0,0,0,0,0,0,0,0,0,0,0,0,0,0,0,0,0,0,0,0,0,0,0,0,0,0,0,0,0,0,0,0,0,0,0,0,0,0,0,0,0,0,0,0,0,0,0,0,0,0,0,0,0,0,0,0,0,0,0,0,0,0,0,0,0,0,0,0,0,0,0,0,0,0,0,0,0,0,0,0,0,0,0,0,0,0,0,0,0,0,0,0,0,0,0,0,0,0,0,0,0,0,0,0,0,0,0,0,0,0,0,0,0,0,0,0,0,0,0,0,0,0,0,0,0,0,0,0,0,0,0,0,0,0,0,0,0,0,0,0,0,0,0,0,0,0,0,0,0,0,0,0,0,0,0,0,0,0,0,0,0,0,0,0,0,0,0,0,0,0,0,0,0,0,0,0,0,0,0,0,0,0,0,0,0,0,0,0,0,0,0,0,0,0,0,0,0,0,0,0,0,0,0,0,0,0,0,0,0,0,0,0,0,0,0,0,0,0,0,0,0,0,0,0,0,0,0,0,0,0,0,0,0,0,0,0,0,0,0,0,0,0,0,0,0,0,0,0,0,0,0,0,0,0,0,0,0,0,0,0,0,0,0,0,0,0,0,0,0,0,0,0,0,0,0,0,0,0,0,0,0,0,0,0,0,0,0,0,0,0,0,0,0,0,0,0,0,0,0,0,0,0,0,0,0,0,0,0,0,0,0,0,0,0,0,0,0,0,0,0,0,0,0,0,0,0,0,0,0,0,0,0,0,0,0,0,0,0,0,0,0,0,0,0,0,0,0,0,0,0,0,0,0,0,0,0,0,0,0,0,0,0,0,0,0,0,0,0,0,0,0,0,0,0,0,0,0,0,0,0,0,0,0,0,0,0,0,0,0,0,0,0,0,0,0,0,0,0,0,0,0,0,0,0,0,0,0,0,0,0,0,0,0,0,0,0,0,0,0,0,0,0,0,0,0,0,0,0,0,0,0,0,0,0,0,0,0,0,0,0,0,0,0,0,0,0,0,0,0,0,0,0,0,0,0,0,0,0,0,0,0,0,0,0,0,0,0,0,0,0,0,0,0,0,0,0,0,0,0,0,0,0,0,0,0,0,0,0,0,0,0,0,0,0,0,0,0,0,0,0,0,0,0,0,0,0,0,0,0,0,0,0,0,0,0,0,0,0,0,0,0,0,0,0,0,0,0,0,0,0,0,0,0,0,0,0,0,0,0,0,0,0,0,0,0,0,0,0,0,0,0,0,0,0,0,0,0,0,0,0,0,0,0,0,0,0,0,0,0,0,0,0,0,0,0,0,0,0,0,0,0,0,0,0,0,0,0,0,0,0,0,0,0,0,0,0,0,0,0,0,0,0,0,0,0,0,0,0,0,0,0,0,0,0,0,0,0,0,0,0,0,0,0,0,0,0,0,0,0,0,0,0,0,0,0,0,0,0,0,0,0,0,0,0,0,0,0,0,0,0,0,0,0,0,0,0,0,0,0,0,0,0,0,0,0,0,0,0,0,0,0,0,0,0,0,0,0,0,0,0,0,0,0,0,0,0,0,0,0,0,0,0,0,0,0,0,0,0,0,0,0,0,0,0,0,0,0,0,0,0,0,0,0,0,0,0,0,0,0,0,0,0,0,0,0,0,0,0,0,0,0,0,0,0,0,0,0,0,0,0,0,0,0,0,0,0,0,0,0,0,0,0,0,0,0,0,0,0,0,0,0,0,0,0,0,0,0,0,0,0,0,0,0,0,0,0,0,0,0,0,0,0,0,0,0,0,0,0,0,0,0,0,0,0,0,0,0,0,0,0,0,0,0,0,0,0,0,0,0,0,0,0,0,0,0,0,0,0,0,0,0,0,0,0,0,0,0,0,0,0,0,0,0,0,0,0,0,0,0,0,0,0,0,0,0,0,0,0,0,0,0,0,0,0,0,0,0,0,0,0,0,0,0,0,0,0,0,0,0,0,0,0,0,0,0,0,0,0,0,
0,0,0,0,0,0,0,0,0,0,0,0,0,0,0,0,0,0,0,0,0,0,0,0,0,0,0,0,0,0,0,0,0,0,0,0,0,0,0,0,0,0,0,0,0,0,0,0,0,0,0,0,0,0,0,0,0,0,0,0,0,0,0,0,0,0,0,0,0,0,0,0,0,0,0,0,0,0,0,0,0,0,0,0,0,0,0,0,0,0,0,0,0,0,0,0,0,0,0,0,0,0,0,0,0,0,0,0,0,0,0,0,0,0,0,0,0,0,0,0,0,0,0,0,0,0,0,0,0,0,0,0,0,0,0,0,0,0,0,0,0,0,0,0,0,0,0,0,0,0,0,0,0,0,0,0,0,0,0,0,0,0,0,0,0,0,0,0,0,0,0,0,0,0,0,0,0,0,0,0,0,0,0,0,0,0,0,0,0,0,0,0,0,0,0,0,0,0,0,0,0,0,0,0,0,0,0,0,0,0,0,0,0,0,0,0,0,0,0,0,0,0,0,0,0,0,0,0,0,0,0,0,0,0,0,0,0,0,0,0,0,0,0,0,0,0,0,0,0,0,0,0,0,0,0,0,0,0,0,0,0,0,0,0,0,0,0,0,0,0,0,0,0,0,0,0,0,0,0,0,0,0,0,0,0,0,0,0,0,0,0,0,0,0,0,0,0,0,0,0,0,0,0,0,0,0,0,0,0,0,0,0,0,0,0,0,0,0,0,0,0,0,0,0,0,0,0,0,0,0,0,0,0,0,0,0,0,0,0,0,0,0,0,0,0,0,0,0,0,0,0,0,0,0,0,0,0,0,0,0,0,0,0,0,0,0,0,0,0,0,0,0,0,0,0,0,0,0,0,0,0,0,0,0,0,0,0,0,0,0,0,0,0,0,0,0,0,0,0,0,0,0,0,0,0,0,0,0,0,0,0,0,0,0,0,0,0,0,0,0,0,0,0,0,0,0,0,0,0,0,0,0,0,0,0,0,0,0,0,0,0,0,0,0,0,0,0,0,0,0,0,0,0,0,0,0,0,0,0,0,0,0,0,0,0,0,0,0,0,0,0,0,0,0,0,0,0,0,0,0,0,0,0,0,0,0,0,0,0,0,0,0,0,0,0,0,0,0,0,0,0,0,0,0,0,0,0,0,0,0,0,0,0,0,0,0,0,0,0,0,0,0,0,0,0,0,0,0,0,0,0,0,0,0,0,0,0,0,0,0,0,0,0,0,0,0,0,0,0,0,0,0,0,0,0,0,0,0,0,0,0,0,0,0,0,0,0,0,0,0,0,0,0,0,0,0,0,0,0,0,0,0,0,0,0,0,0,0,0,0,0,0,0,0,0,0,0,0,0,0,0,0,0,0,0,0,0,0,0,0,0,0,0,0,0,0,0,0,0,0,0,0,0,0,0,0,0,0,0,0,0,0,0,0,0,0,0,0,0,0,0,0,0,0,0,0,0,0,0,0,0,0,0,0,0,0,0,0,0,0,0,0,0,0,0,0,0,0,0,0,0,0,0,0,0,0,0,0,0,0,0,0,0,0,0,0,0,0,0,0,0,0,0,0,0,0,0,0,0,0,0,0,0,0,0,0,0,0,0,0,0,0,0,0,0,0,0,0,0,0,0,0,0,0,0,0,0,0,0,0,0,0,0,0,0,0,0,0,0,0,0,0,0,0,0,0,0,0,0,0,0,0,0,0,0,0,0,0,0,0,0,0,0,0,0,0,0,0,0,0,0,0,0,0,0,0,0,0,0,0,0,0,0,0,0,0,0,0,0,0,0,0,0,0,0,0,0,0,0,0,0,0,0,0,0,0,0,0,0,0,0,0,0,0,0,0,0,0,0,0,0,0,0,0,0,0,0,0,0,0,0,0,0,0,0,0,0,0,0,0,0,0,0,0,0,0,0,0,0,0,0,0,0,0,0,0,0,0,0,0,0,0,0,0,0,0,0,0,0,0,0,0,0,0,0,0,0,0,0,0,0,0,0,0,0,0,0,0,0,0,0,0,0,0,0,0,0,0,0,0,0,0,0,0,0,0,0,0,0,0,0,0,0,0,0,0,0,0,0,0,0,0,0,0,0,0,0,0,0,0,0,0,0,0,0,0,0,0,0,0,0,0,0,0,0,0,0,0,0,0,0,0,0,0,0,0,0,0,0,0,0,0,0,0,0,0,0,0,0,0,0,0,0,0,0,0,0,0,0,0,0,0,0,0,0,0,0,0,0,0,0,0,0,0,0,0,0,0,0,0,
0,0,0,0,0,0,0,0,0,0,0,0,0,0,0,0,0,0,0,0,0,0,0,0,0,0,0,0,0,0,0,0,0,0,0,0,0,0,0,0,0,0,0,0,0,0,0,0,0,0,0,0,0,0,0,0,0,0,0,0,0,0,0,0,0,0,0,0,0,0,0,0,0,0,0,0,0,0,0,0,0,0,0,0,0,0,0,0,0,0,0,0,0,0,0,0,0,0,0,0,0,0,0,0,0,0,0,0,0,0,0,0,0,0,0,0,0,0,0,0,0,0,0,0,0,0,0,0,0,0,0,0,0,0,0,0,0,0,0,0,0,0,0,0,0,0,0,0,0,0,0,0,0,0,0,0,0,0,0,0,0,0,0,0,0,0,0,0,0,0,0,0,0,0,0,0,0,0,0,0,0,0,0,0,0,0,0,0,0,0,0,0,0,0,0,0,0,0,0,0,0,0,0,0,0,0,0,0,0,0,0,0,0,0,0,0,0,0,0,0,0,0,0,0,0,0,0,0,0,0,0,0,0,0,0,0,0,0,0,0,0,0,0,0,0,0,0,0,0,0,0,0,0,0,0,0,0,0,0,0,0,0,0,0,0,0,0,0,0,0,0,0,0,0,0,0,0,0,0,0,0,0,0,0,0,0,0,0,0,0,0,0,0,0,0,0,0,0,0,0,0,0,0,0,0,0,0,0,0,0,0,0,0,0,0,0,0,0,0,0,0,0,0,0,0,0,0,0,0,0,0,0,0,0,0,0,0,0,0,0,0,0,0,0,0,0,0,0,0,0,0,0,0,0,0,0,0,0,0,0,0,0,0,0,0,0,0,0,0,0,0,0,0,0,0,0,0,0,0,0,0,0,0,0,0,0,0,0,0,0,0,0,0,0,0,0,0,0,0,0,0,0,0,0,0,0,0,0,0,0,0,0,0,0,0,0,0,0,0,0,0,0,0,0,0,0,0,0,0,0,0,0,0,0,0,0,0,0,0,0,0,0,0,0,0,0,0,0,0,0,0,0,0,0,0,0,0,0,0,0,0,0,0,0,0,0,0,0,0,0,0,0,0,0,0,0,0,0,0,0,0,0,0,0,0,0,0,0,0,0,0,0,0,0,0,0,0,0,0,0,0,0,0,0,0,0,0,0,0,0,0,0,0,0,0,0,0,0,0,0,0,0,0,0,0,0,0,0,0,0,0,0,0,0,0,0,0,0,0,0,0,0,0,0,0,0,0,0,0,0,0,0,0,0,0,0,0,0,0,0,0,0,0,0,0,0,0,0,0,0,0,0,0,0,0,0,0,0,0,0,0,0,0,0,0,0,0,0,0,0,0,0,0,0,0,0,0,0,0,0,0,0,0,0,0,0,0,0,0,0,0,0,0,0,0,0,0,0,0,0,0,0,0,0,0,0,0,0,0,0,0,0,0,0,0,0,0,0,0,0,0,0,0,0,0,0,0,0,0,0,0,0,0,0,0,0,0,0,0,0,0,0,0,0,0,0,0,0,0,0,0,0,0,0,0,0,0,0,0,0,0,0,0,0,0,0,0,0,0,0,0,0,0,0,0,0,0,0,0,0,0,0,0,0,0,0,0,0,0,0,0,0,0,0,0,0,0,0,0,0,0,0,0,0,0,0,0,0,0,0,0,0,0,0,0,0,0,0,0,0,0,0,0,0,0,0,0,0,0,0,0,0,0,0,0,0,0,0,0,0,0,0,0,0,0,0,0,0,0,0,0,0,0,0,0,0,0,0,0,0,0,0,0,0,0,0,0,0,0,0,0,0,0,0,0,0,0,0,0,0,0,0,0,0,0,0,0,0,0,0,0,0,0,0,0,0,0,0,0,0,0,0,0,0,0,0,0,0,0,0,0,0,0,0,0,0,0,0,0,0,0,0,0,0,0,0,0,0,0,0,0,0,0,0,0,0,0,0,0,0,0,0,0,0,0,0,0,0,0,0,0,0,0,0,0,0,0,0,0,0,0,0,0,0,0,0,0,0,0,0,0,0,0,0,0,0,0,0,0,0,0,0,0,0,0,0,0,0,0,0,0,0,0,0,0,0,0,0,0,0,0,0,0,0,0,0,0,0,0,0,0,0,0,0,0,0,0,0,0,0,0,0,0,0,0,0,0,0,0,0,0,0,0,0,0,0,0,0,0,0,0,0,0,0,0,0,0,0,0,0,0,0,0,0,0,0,0,0,0,0,0,0,0,0,0,0,0,0,0,0,0,0,0,0,0,0,0,0,0,0,
0,0,0,0,0,0,0,0,0,0,0,0,0,0,0,0,0,0,0,0,0,0,0,0,0,0,0,0,0,0,0,0,0,0,0,0,0,0,0,0,0,0,0,0,0,0,0,0,0,0,0,0,0,0,0,0,0,0,0,0,0,0,0,0,0,0,0,0,0,0,0,0,0,0,0,0,0,0,0,0,0,0,0,0,0,0,0,0,0,0,0,0,0,0,0,0,0,0,0,0,0,0,0,0,0,0,0,0,0,0,0,0,0,0,0,0,0,0,0,0,0,0,0,0,0,0,0,0,0,0,0,0,0,0,0,0,0,0,0,0,0,0,0,0,0,0,0,0,0,0,0,0,0,0,0,0,0,0,0,0,0,0,0,0,0,0,0,0,0,0,0,0,0,0,0,0,0,0,0,0,0,0,0,0,0,0,0,0,0,0,0,0,0,0,0,0,0,0,0,0,0,0,0,0,0,0,0,0,0,0,0,0,0,0,0,0,0,0,0,0,0,0,0,0,0,0,0,0,0,0,0,0,0,0,0,0,0,0,0,0,0,0,0,0,0,0,0,0,0,0,0,0,0,0,0,0,0,0,0,0,0,0,0,0,0,0,0,0,0,0,0,0,0,0,0,0,0,0,0,0,0,0,0,0,0,0,0,0,0,0,0,0,0,0,0,0,0,0,0,0,0,0,0,0,0,0,0,0,0,0,0,0,0,0,0,0,0,0,0,0,0,0,0,0,0,0,0,0,0,0,0,0,0,0,0,0,0,0,0,0,0,0,0,0,0,0,0,0,0,0,0,0,0,0,0,0,0,0,0,0,0,0,0,0,0,0,0,0,0,0,0,0,0,0,0,0,0,0,0,0,0,0,0,0,0,0,0,0,0,0,0,0,0,0,0,0,0,0,0,0,0,0,0,0,0,0,0,0,0,0,0,0,0,0,0,0,0,0,0,0,0,0,0,0,0,0,0,0,0,0,0,0,0,0,0,0,0,0,0,0,0,0,0,0,0,0,0,0,0,0,0,0,0,0,0,0,0,0,0,0,0,0,0,0,0,0,0,0,0,0,0,0,0,0,0,0,0,0,0,0,0,0,0,0,0,0,0,0,0,0,0,0,0,0,0,0,0,0,0,0,0,0,0,0,0,0,0,0,0,0,0,0,0,0,0,0,0,0,0,0,0,0,0,0,0,0,0,0,0,0,0,0,0,0,0,0,0,0,0,0,0,0,0,0,0,0,0,0,0,0,0,0,0,0,0,0,0,0,0,0,0,0,0,0,0,0,0,0,0,0,0,0,0,0,0,0,0,0,0,0,0,0,0,0,0,0,0,0,0,0,0,0,0,0,0,0,0,0,0,0,0,0,0,0,0,0,0,0,0,0,0,0,0,0,0,0,0,0,0,0,0,0,0,0,0,0,0,0,0,0,0,0,0,0,0,0,0,0,0,0,0,0,0,0,0,0,0,0,0,0,0,0,0,0,0,0,0,0,0,0,0,0,0,0,0,0,0,0,0,0,0,0,0,0,0,0,0,0,0,0,0,0,0,0,0,0,0,0,0,0,0,0,0,0,0,0,0,0,0,0,0,0,0,0,0,0,0,0,0,0,0,0,0,0,0,0,0,0,0,0,0,0,0,0,0,0,0,0,0,0,0,0,0,0,0,0,0,0,0,0,0,0,0,0,0,0,0,0,0,0,0,0,0,0,0,0,0,0,0,0,0,0,0,0,0,0,0,0,0,0,0,0,0,0,0,0,0,0,0,0,0,0,0,0,0,0,0,0,0,0,0,0,0,0,0,0,0,0,0,0,0,0,0,0,0,0,0,0,0,0,0,0,0,0,0,0,0,0,0,0,0,0,0,0,0,0,0,0,0,0,0,0,0,0,0,0,0,0,0,0,0,0,0,0,0,0,0,0,0,0,0,0,0,0,0,0,0,0,0,0,0,0,0,0,0,0,0,0,0,0,0,0,0,0,0,0,0,0,0,0,0,0,0,0,0,0,0,0,0,0,0,0,0,0,0,0,0,0,0,0,0,0,0,0,0,0,0,0,0,0,0,0,0,0,0,0,0,0,0,0,0,0,0,0,0,0,0,0,0,0,0,0,0,0,0,0,0,0,0,0,0,0,0,0,0,0,0,0,0,0,0,0,0,0,0,0,0,0,0,0,0,0,0,0,0,0,0,0,0,0,0,0,0,0,0,0,0,0,0,0,0,0,0,0,0,0,0,0,0,0,0,0,0,0,0,0,0,0,0,0,
0,0,0,0,0,0,0,0,0,0,0,0,0,0,0,0,0,0,0,0,0,0,0,0,0,0,0,0,0,0,0,0,0,0,0,0,0,0,0,0,0,0,0,0,0,0,0,0,0,0,0,0,0,0,0,0,0,0,0,0,0,0,0,0,0,0,0,0,0,0,0,0,0,0,0,0,0,0,0,0,0,0,0,0,0,0,0,0,0,0,0,0,0,0,0,0,0,0,0,0,0,0,0,0,0,0,0,0,0,0,0,0,0,0,0,0,0,0,0,0,0,0,0,0,0,0,0,0,0,0,0,0,0,0,0,0,0,0,0,0,0,0,0,0,0,0,0,0,0,0,0,0,0,0,0,0,0,0,0,0,0,0,0,0,0,0,0,0,0,0,0,0,0,0,0,0,0,0,0,0,0,0,0,0,0,0,0,0,0,0,0,0,0,0,0,0,0,0,0,0,0,0,0,0,0,0,0,0,0,0,0,0,0,0,0,0,0,0,0,0,0,0,0,0,0,0,0,0,0,0,0,0,0,0,0,0,0,0,0,0,0,0,0,0,0,0,0,0,0,0,0,0,0,0,0,0,0,0,0,0,0,0,0,0,0,0,0,0,0,0,0,0,0,0,0,0,0,0,0,0,0,0,0,0,0,0,0,0,0,0,0,0,0,0,0,0,0,0,0,0,0,0,0,0,0,0,0,0,0,0,0,0,0,0,0,0,0,0,0,0,0,0,0,0,0,0,0,0,0,0,0,0,0,0,0,0,0,0,0,0,0,0,0,0,0,0,0,0,0,0,0,0,0,0,0,0,0,0,0,0,0,0,0,0,0,0,0,0,0,0,0,0,0,0,0,0,0,0,0,0,0,0,0,0,0,0,0,0,0,0,0,0,0,0,0,0,0,0,0,0,0,0,0,0,0,0,0,0,0,0,0,0,0,0,0,0,0,0,0,0,0,0,0,0,0,0,0,0,0,0,0,0,0,0,0,0,0,0,0,0,0,0,0,0,0,0,0,0,0,0,0,0,0,0,0,0,0,0,0,0,0,0,0,0,0,0,0,0,0,0,0,0,0,0,0,0,0,0,0,0,0,0,0,0,0,0,0,0,0,0,0,0,0,0,0,0,0,0,0,0,0,0,0,0,0,0,0,0,0,0,0,0,0,0,0,0,0,0,0,0,0,0,0,0,0,0,0,0,0,0,0,0,0,0,0,0,0,0,0,0,0,0,0,0,0,0,0,0,0,0,0,0,0,0,0,0,0,0,0,0,0,0,0,0,0,0,0,0,0,0,0,0,0,0,0,0,0,0,0,0,0,0,0,0,0,0,0,0,0,0,0,0,0,0,0,0,0,0,0,0,0,0,0,0,0,0,0,0,0,0,0,0,0,0,0,0,0,0,0,0,0,0,0,0,0,0,0,0,0,0,0,0,0,0,0,0,0,0,0,0,0,0,0,0,0,0,0,0,0,0,0,0,0,0,0,0,0,0,0,0,0,0,0,0,0,0,0,0,0,0,0,0,0,0,0,0,0,0,0,0,0,0,0,0,0,0,0,0,0,0,0,0,0,0,0,0,0,0,0,0,0,0,0,0,0,0,0,0,0,0,0,0,0,0,0,0,0,0,0,0,0,0,0,0,0,0,0,0,0,0,0,0,0,0,0,0,0,0,0,0,0,0,0,0,0,0,0,0,0,0,0,0,0,0,0,0,0,0,0,0,0,0,0,0,0,0,0,0,0,0,0,0,0,0,0,0,0,0,0,0,0,0,0,0,0,0,0,0,0,0,0,0,0,0,0,0,0,0,0,0,0,0,0,0,0,0,0,0,0,0,0,0,0,0,0,0,0,0,0,0,0,0,0,0,0,0,0,0,0,0,0,0,0,0,0,0,0,0,0,0,0,0,0,0,0,0,0,0,0,0,0,0,0,0,0,0,0,0,0,0,0,0,0,0,0,0,0,0,0,0,0,0,0,0,0,0,0,0,0,0,0,0,0,0,0,0,0,0,0,0,0,0,0,0,0,0,0,0,0,0,0,0,0,0,0,0,0,0,0,0,0,0,0,0,0,0,0,0,0,0,0,0,0,0,0,0,0,0,0,0,0,0,0,0,0,0,0,0,0,0,0,0,0,0,0,0,0,0,0,0,0,0,0,0,0,0,0,0,0,0,0,0,0,0,0,0,0,0,0,0,0,0,0,0,0,0,0,0,0,0,0,0,0,0,0,0,0,0,0,0,0,0,0,0,0,0,0,0,0,0,
0,0,0,0,0,0,0,0,0,0,0,0,0,0,0,0,0,0,0,0,0,0,0,0,0,0,0,0,0,0,0,0,0,0,0,0,0,0,0,0,0,0,0,0,0,0,0,0,0,0,0,0,0,0,0,0,0,0,0,0,0,0,0,0,0,0,0,0,0,0,0,0,0,0,0,0,0,0,0,0,0,0,0,0,0,0,0,0,0,0,0,0,0,0,0,0,0,0,0,0,0,0,0,0,0,0,0,0,0,0,0,0,0,0,0,0,0,0,0,0,0,0,0,0,0,0,0,0,0,0,0,0,0,0,0,0,0,0,0,0,0,0,0,0,0,0,0,0,0,0,0,0,0,0,0,0,0,0,0,0,0,0,0,0,0,0,0,0,0,0,0,0,0,0,0,0,0,0,0,0,0,0,0,0,0,0,0,0,0,0,0,0,0,0,0,0,0,0,0,0,0,0,0,0,0,0,0,0,0,0,0,0,0,0,0,0,0,0,0,0,0,0,0,0,0,0,0,0,0,0,0,0,0,0,0,0,0,0,0,0,0,0,0,0,0,0,0,0,0,0,0,0,0,0,0,0,0,0,0,0,0,0,0,0,0,0,0,0,0,0,0,0,0,0,0,0,0,0,0,0,0,0,0,0,0,0,0,0,0,0,0,0,0,0,0,0,0,0,0,0,0,0,0,0,0,0,0,0,0,0,0,0,0,0,0,0,0,0,0,0,0,0,0,0,0,0,0,0,0,0,0,0,0,0,0,0,0,0,0,0,0,0,0,0,0,0,0,0,0,0,0,0,0,0,0,0,0,0,0,0,0,0,0,0,0,0,0,0,0,0,0,0,0,0,0,0,0,0,0,0,0,0,0,0,0,0,0,0,0,0,0,0,0,0,0,0,0,0,0,0,0,0,0,0,0,0,0,0,0,0,0,0,0,0,0,0,0,0,0,0,0,0,0,0,0,0,0,0,0,0,0,0,0,0,0,0,0,0,0,0,0,0,0,0,0,0,0,0,0,0,0,0,0,0,0,0,0,0,0,0,0,0,0,0,0,0,0,0,0,0,0,0,0,0,0,0,0,0,0,0,0,0,0,0,0,0,0,0,0,0,0,0,0,0,0,0,0,0,0,0,0,0,0,0,0,0,0,0,0,0,0,0,0,0,0,0,0,0,0,0,0,0,0,0,0,0,0,0,0,0,0,0,0,0,0,0,0,0,0,0,0,0,0,0,0,0,0,0,0,0,0,0,0,0,0,0,0,0,0,0,0,0,0,0,0,0,0,0,0,0,0,0,0,0,0,0,0,0,0,0,0,0,0,0,0,0,0,0,0,0,0,0,0,0,0,0,0,0,0,0,0,0,0,0,0,0,0,0,0,0,0,0,0,0,0,0,0,0,0,0,0,0,0,0,0,0,0,0,0,0,0,0,0,0,0,0,0,0,0,0,0,0,0,0,0,0,0,0,0,0,0,0,0,0,0,0,0,0,0,0,0,0,0,0,0,0,0,0,0,0,0,0,0,0,0,0,0,0,0,0,0,0,0,0,0,0,0,0,0,0,0,0,0,0,0,0,0,0,0,0,0,0,0,0,0,0,0,0,0,0,0,0,0,0,0,0,0,0,0,0,0,0,0,0,0,0,0,0,0,0,0,0,0,0,0,0,0,0,0,0,0,0,0,0,0,0,0,0,0,0,0,0,0,0,0,0,0,0,0,0,0,0,0,0,0,0,0,0,0,0,0,0,0,0,0,0,0,0,0,0,0,0,0,0,0,0,0,0,0,0,0,0,0,0,0,0,0,0,0,0,0,0,0,0,0,0,0,0,0,0,0,0,0,0,0,0,0,0,0,0,0,0,0,0,0,0,0,0,0,0,0,0,0,0,0,0,0,0,0,0,0,0,0,0,0,0,0,0,0,0,0,0,0,0,0,0,0,0,0,0,0,0,0,0,0,0,0,0,0,0,0,0,0,0,0,0,0,0,0,0,0,0,0,0,0,0,0,0,0,0,0,0,0,0,0,0,0,0,0,0,0,0,0,0,0,0,0,0,0,0,0,0,0,0,0,0,0,0,0,0,0,0,0,0,0,0,0,0,0,0,0,0,0,0,0,0,0,0,0,0,0,0,0,0,0,0,0,0,0,0,0,0,0,0,0,0,0,0,0,0,0,0,0,0,0,0,0,0,0,0,0,0,0,0,0,0,0,0,0,0,0,0,0,0,0,0,0,0,0,0,0,0,0,0,0,0,0,0,0,0,
0,0,0,0,0,0,0,0,0,0,0,0,0,0,0,0,0,0,0,0,0,0,0,0,0,0,0,0,0,0,0,0,0,0,0,0,0,0,0,0,0,0,0,0,0,0,0,0,0,0,0,0,0,0,0,0,0,0,0,0,0,0,0,0,0,0,0,0,0,0,0,0,0,0,0,0,0,0,0,0,0,0,0,0,0,0,0,0,0,0,0,0,0,0,0,0,0,0,0,0,0,0,0,0,0,0,0,0,0,0,0,0,0,0,0,0,0,0,0,0,0,0,0,0,0,0,0,0,0,0,0,0,0,0,0,0,0,0,0,0,0,0,0,0,0,0,0,0,0,0,0,0,0,0,0,0,0,0,0,0,0,0,0,0,0,0,0,0,0,0,0,0,0,0,0,0,0,0,0,0,0,0,0,0,0,0,0,0,0,0,0,0,0,0,0,0,0,0,0,0,0,0,0,0,0,0,0,0,0,0,0,0,0,0,0,0,0,0,0,0,0,0,0,0,0,0,0,0,0,0,0,0,0,0,0,0,0,0,0,0,0,0,0,0,0,0,0,0,0,0,0,0,0,0,0,0,0,0,0,0,0,0,0,0,0,0,0,0,0,0,0,0,0,0,0,0,0,0,0,0,0,0,0,0,0,0,0,0,0,0,0,0,0,0,0,0,0,0,0,0,0,0,0,0,0,0,0,0,0,0,0,0,0,0,0,0,0,0,0,0,0,0,0,0,0,0,0,0,0,0,0,0,0,0,0,0,0,0,0,0,0,0,0,0,0,0,0,0,0,0,0,0,0,0,0,0,0,0,0,0,0,0,0,0,0,0,0,0,0,0,0,0,0,0,0,0,0,0,0,0,0,0,0,0,0,0,0,0,0,0,0,0,0,0,0,0,0,0,0,0,0,0,0,0,0,0,0,0,0,0,0,0,0,0,0,0,0,0,0,0,0,0,0,0,0,0,0,0,0,0,0,0,0,0,0,0,0,0,0,0,0,0,0,0,0,0,0,0,0,0,0,0,0,0,0,0,0,0,0,0,0,0,0,0,0,0,0,0,0,0,0,0,0,0,0,0,0,0,0,0,0,0,0,0,0,0,0,0,0,0,0,0,0,0,0,0,0,0,0,0,0,0,0,0,0,0,0,0,0,0,0,0,0,0,0,0,0,0,0,0,0,0,0,0,0,0,0,0,0,0,0,0,0,0,0,0,0,0,0,0,0,0,0,0,0,0,0,0,0,0,0,0,0,0,0,0,0,0,0,0,0,0,0,0,0,0,0,0,0,0,0,0,0,0,0,0,0,0,0,0,0,0,0,0,0,0,0,0,0,0,0,0,0,0,0,0,0,0,0,0,0,0,0,0,0,0,0,0,0,0,0,0,0,0,0,0,0,0,0,0,0,0,0,0,0,0,0,0,0,0,0,0,0,0,0,0,0,0,0,0,0,0,0,0,0,0,0,0,0,0,0,0,0,0,0,0,0,0,0,0,0,0,0,0,0,0,0,0,0,0,0,0,0,0,0,0,0,0,0,0,0,0,0,0,0,0,0,0,0,0,0,0,0,0,0,0,0,0,0,0,0,0,0,0,0,0,0,0,0,0,0,0,0,0,0,0,0,0,0,0,0,0,0,0,0,0,0,0,0,0,0,0,0,0,0,0,0,0,0,0,0,0,0,0,0,0,0,0,0,0,0,0,0,0,0,0,0,0,0,0,0,0,0,0,0,0,0,0,0,0,0,0,0,0,0,0,0,0,0,0,0,0,0,0,0,0,0,0,0,0,0,0,0,0,0,0,0,0,0,0,0,0,0,0,0,0,0,0,0,0,0,0,0,0,0,0,0,0,0,0,0,0,0,0,0,0,0,0,0,0,0,0,0,0,0,0,0,0,0,0,0,0,0,0,0,0,0,0,0,0,0,0,0,0,0,0,0,0,0,0,0,0,0,0,0,0,0,0,0,0,0,0,0,0,0,0,0,0,0,0,0,0,0,0,0,0,0,0,0,0,0,0,0,0,0,0,0,0,0,0,0,0,0,0,0,0,0,0,0,0,0,0,0,0,0,0,0,0,0,0,0,0,0,0,0,0,0,0,0,0,0,0,0,0,0,0,0,0,0,0,0,0,0,0,0,0,0,0,0,0,0,0,0,0,0,0,0,0,0,0,0,0,0,0,0,0,0,0,0,0,0,0,0,0,0,0,0,0,0,0,0,0,0,0,0,0,0,0,0,0,0,0,0,0,0,0,0,0,0,0,
0,0,0,0,0,0,0,0,0,0,0,0,0,0,0,0,0,0,0,0,0,0,0,0,0,0,0,0,0,0,0,0,0,0,0,0,0,0,0,0,0,0,0,0,0,0,0,0,0,0,0,0,0,0,0,0,0,0,0,0,0,0,0,0,0,0,0,0,0,0,0,0,0,0,0,0,0,0,0,0,0,0,0,0,0,0,0,0,0,0,0,0,0,0,0,0,0,0,0,0,0,0,0,0,0,0,0,0,0,0,0,0,0,0,0,0,0,0,0,0,0,0,0,0,0,0,0,0,0,0,0,0,0,0,0,0,0,0,0,0,0,0,0,0,0,0,0,0,0,0,0,0,0,0,0,0,0,0,0,0,0,0,0,0,0,0,0,0,0,0,0,0,0,0,0,0,0,0,0,0,0,0,0,0,0,0,0,0,0,0,0,0,0,0,0,0,0,0,0,0,0,0,0,0,0,0,0,0,0,0,0,0,0,0,0,0,0,0,0,0,0,0,0,0,0,0,0,0,0,0,0,0,0,0,0,0,0,0,0,0,0,0,0,0,0,0,0,0,0,0,0,0,0,0,0,0,0,0,0,0,0,0,0,0,0,0,0,0,0,0,0,0,0,0,0,0,0,0,0,0,0,0,0,0,0,0,0,0,0,0,0,0,0,0,0,0,0,0,0,0,0,0,0,0,0,0,0,0,0,0,0,0,0,0,0,0,0,0,0,0,0,0,0,0,0,0,0,0,0,0,0,0,0,0,0,0,0,0,0,0,0,0,0,0,0,0,0,0,0,0,0,0,0,0,0,0,0,0,0,0,0,0,0,0,0,0,0,0,0,0,0,0,0,0,0,0,0,0,0,0,0,0,0,0,0,0,0,0,0,0,0,0,0,0,0,0,0,0,0,0,0,0,0,0,0,0,0,0,0,0,0,0,0,0,0,0,0,0,0,0,0,0,0,0,0,0,0,0,0,0,0,0,0,0,0,0,0,0,0,0,0,0,0,0,0,0,0,0,0,0,0,0,0,0,0,0,0,0,0,0,0,0,0,0,0,0,0,0,0,0,0,0,0,0,0,0,0,0,0,0,0,0,0,0,0,0,0,0,0,0,0,0,0,0,0,0,0,0,0,0,0,0,0,0,0,0,0,0,0,0,0,0,0,0,0,0,0,0,0,0,0,0,0,0,0,0,0,0,0,0,0,0,0,0,0,0,0,0,0,0,0,0,0,0,0,0,0,0,0,0,0,0,0,0,0,0,0,0,0,0,0,0,0,0,0,0,0,0,0,0,0,0,0,0,0,0,0,0,0,0,0,0,0,0,0,0,0,0,0,0,0,0,0,0,0,0,0,0,0,0,0,0,0,0,0,0,0,0,0,0,0,0,0,0,0,0,0,0,0,0,0,0,0,0,0,0,0,0,0,0,0,0,0,0,0,0,0,0,0,0,0,0,0,0,0,0,0,0,0,0,0,0,0,0,0,0,0,0,0,0,0,0,0,0,0,0,0,0,0,0,0,0,0,0,0,0,0,0,0,0,0,0,0,0,0,0,0,0,0,0,0,0,0,0,0,0,0,0,0,0,0,0,0,0,0,0,0,0,0,0,0,0,0,0,0,0,0,0,0,0,0,0,0,0,0,0,0,0,0,0,0,0,0,0,0,0,0,0,0,0,0,0,0,0,0,0,0,0,0,0,0,0,0,0,0,0,0,0,0,0,0,0,0,0,0,0,0,0,0,0,0,0,0,0,0,0,0,0,0,0,0,0,0,0,0,0,0,0,0,0,0,0,0,0,0,0,0,0,0,0,0,0,0,0,0,0,0,0,0,0,0,0,0,0,0,0,0,0,0,0,0,0,0,0,0,0,0,0,0,0,0,0,0,0,0,0,0,0,0,0,0,0,0,0,0,0,0,0,0,0,0,0,0,0,0,0,0,0,0,0,0,0,0,0,0,0,0,0,0,0,0,0,0,0,0,0,0,0,0,0,0,0,0,0,0,0,0,0,0,0,0,0,0,0,0,0,0,0,0,0,0,0,0,0,0,0,0,0,0,0,0,0,0,0,0,0,0,0,0,0,0,0,0,0,0,0,0,0,0,0,0,0,0,0,0,0,0,0,0,0,0,0,0,0,0,0,0,0,0,0,0,0,0,0,0,0,0,0,0,0,0,0,0,0,0,0,0,0,0,0,0,0,0,0,0,0,0,0,0,0,0,0,0,0,0,0,0,0,0,0,0,0,0,0,0,0,0,0,0,0,
0,0,0,0,0,0,0,0,0,0,0,0,0,0,0,0,0,0,0,0,0,0,0,0,0,0,0,0,0,0,0,0,0,0,0,0,0,0,0,0,0,0,0,0,0,0,0,0,0,0,0,0,0,0,0,0,0,0,0,0,0,0,0,0,0,0,0,0,0,0,0,0,0,0,0,0,0,0,0,0,0,0,0,0,0,0,0,0,0,0,0,0,0,0,0,0,0,0,0,0,0,0,0,0,0,0,0,0,0,0,0,0,0,0,0,0,0,0,0,0,0,0,0,0,0,0,0,0,0,0,0,0,0,0,0,0,0,0,0,0,0,0,0,0,0,0,0,0,0,0,0,0,0,0,0,0,0,0,0,0,0,0,0,0,0,0,0,0,0,0,0,0,0,0,0,0,0,0,0,0,0,0,0,0,0,0,0,0,0,0,0,0,0,0,0,0,0,0,0,0,0,0,0,0,0,0,0,0,0,0,0,0,0,0,0,0,0,0,0,0,0,0,0,0,0,0,0,0,0,0,0,0,0,0,0,0,0,0,0,0,0,0,0,0,0,0,0,0,0,0,0,0,0,0,0,0,0,0,0,0,0,0,0,0,0,0,0,0,0,0,0,0,0,0,0,0,0,0,0,0,0,0,0,0,0,0,0,0,0,0,0,0,0,0,0,0,0,0,0,0,0,0,0,0,0,0,0,0,0,0,0,0,0,0,0,0,0,0,0,0,0,0,0,0,0,0,0,0,0,0,0,0,0,0,0,0,0,0,0,0,0,0,0,0,0,0,0,0,0,0,0,0,0,0,0,0,0,0,0,0,0,0,0,0,0,0,0,0,0,0,0,0,0,0,0,0,0,0,0,0,0,0,0,0,0,0,0,0,0,0,0,0,0,0,0,0,0,0,0,0,0,0,0,0,0,0,0,0,0,0,0,0,0,0,0,0,0,0,0,0,0,0,0,0,0,0,0,0,0,0,0,0,0,0,0,0,0,0,0,0,0,0,0,0,0,0,0,0,0,0,0,0,0,0,0,0,0,0,0,0,0,0,0,0,0,0,0,0,0,0,0,0,0,0,0,0,0,0,0,0,0,0,0,0,0,0,0,0,0,0,0,0,0,0,0,0,0,0,0,0,0,0,0,0,0,0,0,0,0,0,0,0,0,0,0,0,0,0,0,0,0,0,0,0,0,0,0,0,0,0,0,0,0,0,0,0,0,0,0,0,0,0,0,0,0,0,0,0,0,0,0,0,0,0,0,0,0,0,0,0,0,0,0,0,0,0,0,0,0,0,0,0,0,0,0,0,0,0,0,0,0,0,0,0,0,0,0,0,0,0,0,0,0,0,0,0,0,0,0,0,0,0,0,0,0,0,0,0,0,0,0,0,0,0,0,0,0,0,0,0,0,0,0,0,0,0,0,0,0,0,0,0,0,0,0,0,0,0,0,0,0,0,0,0,0,0,0,0,0,0,0,0,0,0,0,0,0,0,0,0,0,0,0,0,0,0,0,0,0,0,0,0,0,0,0,0,0,0,0,0,0,0,0,0,0,0,0,0,0,0,0,0,0,0,0,0,0,0,0,0,0,0,0,0,0,0,0,0,0,0,0,0,0,0,0,0,0,0,0,0,0,0,0,0,0,0,0,0,0,0,0,0,0,0,0,0,0,0,0,0,0,0,0,0,0,0,0,0,0,0,0,0,0,0,0,0,0,0,0,0,0,0,0,0,0,0,0,0,0,0,0,0,0,0,0,0,0,0,0,0,0,0,0,0,0,0,0,0,0,0,0,0,0,0,0,0,0,0,0,0,0,0,0,0,0,0,0,0,0,0,0,0,0,0,0,0,0,0,0,0,0,0,0,0,0,0,0,0,0,0,0,0,0,0,0,0,0,0,0,0,0,0,0,0,0,0,0,0,0,0,0,0,0,0,0,0,0,0,0,0,0,0,0,0,0,0,0,0,0,0,0,0,0,0,0,0,0,0,0,0,0,0,0,0,0,0,0,0,0,0,0,0,0,0,0,0,0,0,0,0,0,0,0,0,0,0,0,0,0,0,0,0,0,0,0,0,0,0,0,0,0,0,0,0,0,0,0,0,0,0,0,0,0,0,0,0,0,0,0,0,0,0,0,0,0,0,0,0,0,0,0,0,0,0,0,0,0,0,0,0,0,0,0,0,0,0,0,0,0,0,0,0,0,0,0,0,0,0,0,0,0,0,0,0,0,0,0,0,0,0,0,0,0,0,0,0,0,0,0,0,
0,0,0,0,0,0,0,0,0,0,0,0,0,0,0,0,0,0,0,0,0,0,0,0,0,0,0,0,0,0,0,0,0,0,0,0,0,0,0,0,0,0,0,0,0,0,0,0,0,0,0,0,0,0,0,0,0,0,0,0,0,0,0,0,0,0,0,0,0,0,0,0,0,0,0,0,0,0,0,0,0,0,0,0,0,0,0,0,0,0,0,0,0,0,0,0,0,0,0,0,0,0,0,0,0,0,0,0,0,0,0,0,0,0,0,0,0,0,0,0,0,0,0,0,0,0,0,0,0,0,0,0,0,0,0,0,0,0,0,0,0,0,0,0,0,0,0,0,0,0,0,0,0,0,0,0,0,0,0,0,0,0,0,0,0,0,0,0,0,0,0,0,0,0,0,0,0,0,0,0,0,0,0,0,0,0,0,0,0,0,0,0,0,0,0,0,0,0,0,0,0,0,0,0,0,0,0,0,0,0,0,0,0,0,0,0,0,0,0,0,0,0,0,0,0,0,0,0,0,0,0,0,0,0,0,0,0,0,0,0,0,0,0,0,0,0,0,0,0,0,0,0,0,0,0,0,0,0,0,0,0,0,0,0,0,0,0,0,0,0,0,0,0,0,0,0,0,0,0,0,0,0,0,0,0,0,0,0,0,0,0,0,0,0,0,0,0,0,0,0,0,0,0,0,0,0,0,0,0,0,0,0,0,0,0,0,0,0,0,0,0,0,0,0,0,0,0,0,0,0,0,0,0,0,0,0,0,0,0,0,0,0,0,0,0,0,0,0,0,0,0,0,0,0,0,0,0,0,0,0,0,0,0,0,0,0,0,0,0,0,0,0,0,0,0,0,0,0,0,0,0,0,0,0,0,0,0,0,0,0,0,0,0,0,0,0,0,0,0,0,0,0,0,0,0,0,0,0,0,0,0,0,0,0,0,0,0,0,0,0,0,0,0,0,0,0,0,0,0,0,0,0,0,0,0,0,0,0,0,0,0,0,0,0,0,0,0,0,0,0,0,0,0,0,0,0,0,0,0,0,0,0,0,0,0,0,0,0,0,0,0,0,0,0,0,0,0,0,0,0,0,0,0,0,0,0,0,0,0,0,0,0,0,0,0,0,0,0,0,0,0,0,0,0,0,0,0,0,0,0,0,0,0,0,0,0,0,0,0,0,0,0,0,0,0,0,0,0,0,0,0,0,0,0,0,0,0,0,0,0,0,0,0,0,0,0,0,0,0,0,0,0,0,0,0,0,0,0,0,0,0,0,0,0,0,0,0,0,0,0,0,0,0,0,0,0,0,0,0,0,0,0,0,0,0,0,0,0,0,0,0,0,0,0,0,0,0,0,0,0,0,0,0,0,0,0,0,0,0,0,0,0,0,0,0,0,0,0,0,0,0,0,0,0,0,0,0,0,0,0,0,0,0,0,0,0,0,0,0,0,0,0,0,0,0,0,0,0,0,0,0,0,0,0,0,0,0,0,0,0,0,0,0,0,0,0,0,0,0,0,0,0,0,0,0,0,0,0,0,0,0,0,0,0,0,0,0,0,0,0,0,0,0,0,0,0,0,0,0,0,0,0,0,0,0,0,0,0,0,0,0,0,0,0,0,0,0,0,0,0,0,0,0,0,0,0,0,0,0,0,0,0,0,0,0,0,0,0,0,0,0,0,0,0,0,0,0,0,0,0,0,0,0,0,0,0,0,0,0,0,0,0,0,0,0,0,0,0,0,0,0,0,0,0,0,0,0,0,0,0,0,0,0,0,0,0,0,0,0,0,0,0,0,0,0,0,0,0,0,0,0,0,0,0,0,0,0,0,0,0,0,0,0,0,0,0,0,0,0,0,0,0,0,0,0,0,0,0,0,0,0,0,0,0,0,0,0,0,0,0,0,0,0,0,0,0,0,0,0,0,0,0,0,0,0,0,0,0,0,0,0,0,0,0,0,0,0,0,0,0,0,0,0,0,0,0,0,0,0,0,0,0,0,0,0,0,0,0,0,0,0,0,0,0,0,0,0,0,0,0,0,0,0,0,0,0,0,0,0,0,0,0,0,0,0,0,0,0,0,0,0,0,0,0,0,0,0,0,0,0,0,0,0,0,0,0,0,0,0,0,0,0,0,0,0,0,0,0,0,0,0,0,0,0,0,0,0,0,0,0,0,0,0,0,0,0,0,0,0,0,0,0,0,0,0,0,0,0,0,0,0,0,0,0,0,0,0,0,0,0,0,0,0,0,0,0,0,0,0,0,
0,0,0,0,0,0,0,0,0,0,0,0,0,0,0,0,0,0,0,0,0,0,0,0,0,0,0,0,0,0,0,0,0,0,0,0,0,0,0,0,0,0,0,0,0,0,0,0,0,0,0,0,0,0,0,0,0,0,0,0,0,0,0,0,0,0,0,0,0,0,0,0,0,0,0,0,0,0,0,0,0,0,0,0,0,0,0,0,0,0,0,0,0,0,0,0,0,0,0,0,0,0,0,0,0,0,0,0,0,0,0,0,0,0,0,0,0,0,0,0,0,0,0,0,0,0,0,0,0,0,0,0,0,0,0,0,0,0,0,0,0,0,0,0,0,0,0,0,0,0,0,0,0,0,0,0,0,0,0,0,0,0,0,0,0,0,0,0,0,0,0,0,0,0,0,0,0,0,0,0,0,0,0,0,0,0,0,0,0,0,0,0,0,0,0,0,0,0,0,0,0,0,0,0,0,0,0,0,0,0,0,0,0,0,0,0,0,0,0,0,0,0,0,0,0,0,0,0,0,0,0,0,0,0,0,0,0,0,0,0,0,0,0,0,0,0,0,0,0,0,0,0,0,0,0,0,0,0,0,0,0,0,0,0,0,0,0,0,0,0,0,0,0,0,0,0,0,0,0,0,0,0,0,0,0,0,0,0,0,0,0,0,0,0,0,0,0,0,0,0,0,0,0,0,0,0,0,0,0,0,0,0,0,0,0,0,0,0,0,0,0,0,0,0,0,0,0,0,0,0,0,0,0,0,0,0,0,0,0,0,0,0,0,0,0,0,0,0,0,0,0,0,0,0,0,0,0,0,0,0,0,0,0,0,0,0,0,0,0,0,0,0,0,0,0,0,0,0,0,0,0,0,0,0,0,0,0,0,0,0,0,0,0,0,0,0,0,0,0,0,0,0,0,0,0,0,0,0,0,0,0,0,0,0,0,0,0,0,0,0,0,0,0,0,0,0,0,0,0,0,0,0,0,0,0,0,0,0,0,0,0,0,0,0,0,0,0,0,0,0,0,0,0,0,0,0,0,0,0,0,0,0,0,0,0,0,0,0,0,0,0,0,0,0,0,0,0,0,0,0,0,0,0,0,0,0,0,0,0,0,0,0,0,0,0,0,0,0,0,0,0,0,0,0,0,0,0,0,0,0,0,0,0,0,0,0,0,0,0,0,0,0,0,0,0,0,0,0,0,0,0,0,0,0,0,0,0,0,0,0,0,0,0,0,0,0,0,0,0,0,0,0,0,0,0,0,0,0,0,0,0,0,0,0,0,0,0,0,0,0,0,0,0,0,0,0,0,0,0,0,0,0,0,0,0,0,0,0,0,0,0,0,0,0,0,0,0,0,0,0,0,0,0,0,0,0,0,0,0,0,0,0,0,0,0,0,0,0,0,0,0,0,0,0,0,0,0,0,0,0,0,0,0,0,0,0,0,0,0,0,0,0,0,0,0,0,0,0,0,0,0,0,0,0,0,0,0,0,0,0,0,0,0,0,0,0,0,0,0,0,0,0,0,0,0,0,0,0,0,0,0,0,0,0,0,0,0,0,0,0,0,0,0,0,0,0,0,0,0,0,0,0,0,0,0,0,0,0,0,0,0,0,0,0,0,0,0,0,0,0,0,0,0,0,0,0,0,0,0,0,0,0,0,0,0,0,0,0,0,0,0,0,0,0,0,0,0,0,0,0,0,0,0,0,0,0,0,0,0,0,0,0,0,0,0,0,0,0,0,0,0,0,0,0,0,0,0,0,0,0,0,0,0,0,0,0,0,0,0,0,0,0,0,0,0,0,0,0,0,0,0,0,0,0,0,0,0,0,0,0,0,0,0,0,0,0,0,0,0,0,0,0,0,0,0,0,0,0,0,0,0,0,0,0,0,0,0,0,0,0,0,0,0,0,0,0,0,0,0,0,0,0,0,0,0,0,0,0,0,0,0,0,0,0,0,0,0,0,0,0,0,0,0,0,0,0,0,0,0,0,0,0,0,0,0,0,0,0,0,0,0,0,0,0,0,0,0,0,0,0,0,0,0,0,0,0,0,0,0,0,0,0,0,0,0,0,0,0,0,0,0,0,0,0,0,0,0,0,0,0,0,0,0,0,0,0,0,0,0,0,0,0,0,0,0,0,0,0,0,0,0,0,0,0,0,0,0,0,0,0,0,0,0,0,0,0,0,0,0,0,0,0,0,0,0,0,0,0,0,0,0,0,0,0,0,0,0,0,0,0,0,0,0,0,0,0,0,0,0,0,
0,0,0,0,0,0,0,0,0,0,0,0,0,0,0,0,0,0,0,0,0,0,0,0,0,0,0,0,0,0,0,0,0,0,0,0,0,0,0,0,0,0,0,0,0,0,0,0,0,0,0,0,0,0,0,0,0,0,0,0,0,0,0,0,0,0,0,0,0,0,0,0,0,0,0,0,0,0,0,0,0,0,0,0,0,0,0,0,0,0,0,0,0,0,0,0,0,0,0,0,0,0,0,0,0,0,0,0,0,0,0,0,0,0,0,0,0,0,0,0,0,0,0,0,0,0,0,0,0,0,0,0,0,0,0,0,0,0,0,0,0,0,0,0,0,0,0,0,0,0,0,0,0,0,0,0,0,0,0,0,0,0,0,0,0,0,0,0,0,0,0,0,0,0,0,0,0,0,0,0,0,0,0,0,0,0,0,0,0,0,0,0,0,0,0,0,0,0,0,0,0,0,0,0,0,0,0,0,0,0,0,0,0,0,0,0,0,0,0,0,0,0,0,0,0,0,0,0,0,0,0,0,0,0,0,0,0,0,0,0,0,0,0,0,0,0,0,0,0,0,0,0,0,0,0,0,0,0,0,0,0,0,0,0,0,0,0,0,0,0,0,0,0,0,0,0,0,0,0,0,0,0,0,0,0,0,0,0,0,0,0,0,0,0,0,0,0,0,0,0,0,0,0,0,0,0,0,0,0,0,0,0,0,0,0,0,0,0,0,0,0,0,0,0,0,0,0,0,0,0,0,0,0,0,0,0,0,0,0,0,0,0,0,0,0,0,0,0,0,0,0,0,0,0,0,0,0,0,0,0,0,0,0,0,0,0,0,0,0,0,0,0,0,0,0,0,0,0,0,0,0,0,0,0,0,0,0,0,0,0,0,0,0,0,0,0,0,0,0,0,0,0,0,0,0,0,0,0,0,0,0,0,0,0,0,0,0,0,0,0,0,0,0,0,0,0,0,0,0,0,0,0,0,0,0,0,0,0,0,0,0,0,0,0,0,0,0,0,0,0,0,0,0,0,0,0,0,0,0,0,0,0,0,0,0,0,0,0,0,0,0,0,0,0,0,0,0,0,0,0,0,0,0,0,0,0,0,0,0,0,0,0,0,0,0,0,0,0,0,0,0,0,0,0,0,0,0,0,0,0,0,0,0,0,0,0,0,0,0,0,0,0,0,0,0,0,0,0,0,0,0,0,0,0,0,0,0,0,0,0,0,0,0,0,0,0,0,0,0,0,0,0,0,0,0,0,0,0,0,0,0,0,0,0,0,0,0,0,0,0,0,0,0,0,0,0,0,0,0,0,0,0,0,0,0,0,0,0,0,0,0,0,0,0,0,0,0,0,0,0,0,0,0,0,0,0,0,0,0,0,0,0,0,0,0,0,0,0,0,0,0,0,0,0,0,0,0,0,0,0,0,0,0,0,0,0,0,0,0,0,0,0,0,0,0,0,0,0,0,0,0,0,0,0,0,0,0,0,0,0,0,0,0,0,0,0,0,0,0,0,0,0,0,0,0,0,0,0,0,0,0,0,0,0,0,0,0,0,0,0,0,0,0,0,0,0,0,0,0,0,0,0,0,0,0,0,0,0,0,0,0,0,0,0,0,0,0,0,0,0,0,0,0,0,0,0,0,0,0,0,0,0,0,0,0,0,0,0,0,0,0,0,0,0,0,0,0,0,0,0,0,0,0,0,0,0,0,0,0,0,0,0,0,0,0,0,0,0,0,0,0,0,0,0,0,0,0,0,0,0,0,0,0,0,0,0,0,0,0,0,0,0,0,0,0,0,0,0,0,0,0,0,0,0,0,0,0,0,0,0,0,0,0,0,0,0,0,0,0,0,0,0,0,0,0,0,0,0,0,0,0,0,0,0,0,0,0,0,0,0,0,0,0,0,0,0,0,0,0,0,0,0,0,0,0,0,0,0,0,0,0,0,0,0,0,0,0,0,0,0,0,0,0,0,0,0,0,0,0,0,0,0,0,0,0,0,0,0,0,0,0,0,0,0,0,0,0,0,0,0,0,0,0,0,0,0,0,0,0,0,0,0,0,0,0,0,0,0,0,0,0,0,0,0,0,0,0,0,0,0,0,0,0,0,0,0,0,0,0,0,0,0,0,0,0,0,0,0,0,0,0,0,0,0,0,0,0,0,0,0,0,0,0,0,0,0,0,0,0,0,0,0,0,0,0,0,0,0,0,0,0,0,0,0,0,0,0,0,0,0,0,0,0,0,0,0,0,0,0,0,
0,0,0,0,0,0,0,0,0,0,0,0,0,0,0,0,0,0,0,0,0,0,0,0,0,0,0,0,0,0,0,0,0,0,0,0,0,0,0,0,0,0,0,0,0,0,0,0,0,0,0,0,0,0,0,0,0,0,0,0,0,0,0,0,0,0,0,0,0,0,0,0,0,0,0,0,0,0,0,0,0,0,0,0,0,0,0,0,0,0,0,0,0,0,0,0,0,0,0,0,0,0,0,0,0,0,0,0,0,0,0,0,0,0,0,0,0,0,0,0,0,0,0,0,0,0,0,0,0,0,0,0,0,0,0,0,0,0,0,0,0,0,0,0,0,0,0,0,0,0,0,0,0,0,0,0,0,0,0,0,0,0,0,0,0,0,0,0,0,0,0,0,0,0,0,0,0,0,0,0,0,0,0,0,0,0,0,0,0,0,0,0,0,0,0,0,0,0,0,0,0,0,0,0,0,0,0,0,0,0,0,0,0,0,0,0,0,0,0,0,0,0,0,0,0,0,0,0,0,0,0,0,0,0,0,0,0,0,0,0,0,0,0,0,0,0,0,0,0,0,0,0,0,0,0,0,0,0,0,0,0,0,0,0,0,0,0,0,0,0,0,0,0,0,0,0,0,0,0,0,0,0,0,0,0,0,0,0,0,0,0,0,0,0,0,0,0,0,0,0,0,0,0,0,0,0,0,0,0,0,0,0,0,0,0,0,0,0,0,0,0,0,0,0,0,0,0,0,0,0,0,0,0,0,0,0,0,0,0,0,0,0,0,0,0,0,0,0,0,0,0,0,0,0,0,0,0,0,0,0,0,0,0,0,0,0,0,0,0,0,0,0,0,0,0,0,0,0,0,0,0,0,0,0,0,0,0,0,0,0,0,0,0,0,0,0,0,0,0,0,0,0,0,0,0,0,0,0,0,0,0,0,0,0,0,0,0,0,0,0,0,0,0,0,0,0,0,0,0,0,0,0,0,0,0,0,0,0,0,0,0,0,0,0,0,0,0,0,0,0,0,0,0,0,0,0,0,0,0,0,0,0,0,0,0,0,0,0,0,0,0,0,0,0,0,0,0,0,0,0,0,0,0,0,0,0,0,0,0,0,0,0,0,0,0,0,0,0,0,0,0,0,0,0,0,0,0,0,0,0,0,0,0,0,0,0,0,0,0,0,0,0,0,0,0,0,0,0,0,0,0,0,0,0,0,0,0,0,0,0,0,0,0,0,0,0,0,0,0,0,0,0,0,0,0,0,0,0,0,0,0,0,0,0,0,0,0,0,0,0,0,0,0,0,0,0,0,0,0,0,0,0,0,0,0,0,0,0,0,0,0,0,0,0,0,0,0,0,0,0,0,0,0,0,0,0,0,0,0,0,0,0,0,0,0,0,0,0,0,0,0,0,0,0,0,0,0,0,0,0,0,0,0,0,0,0,0,0,0,0,0,0,0,0,0,0,0,0,0,0,0,0,0,0,0,0,0,0,0,0,0,0,0,0,0,0,0,0,0,0,0,0,0,0,0,0,0,0,0,0,0,0,0,0,0,0,0,0,0,0,0,0,0,0,0,0,0,0,0,0,0,0,0,0,0,0,0,0,0,0,0,0,0,0,0,0,0,0,0,0,0,0,0,0,0,0,0,0,0,0,0,0,0,0,0,0,0,0,0,0,0,0,0,0,0,0,0,0,0,0,0,0,0,0,0,0,0,0,0,0,0,0,0,0,0,0,0,0,0,0,0,0,0,0,0,0,0,0,0,0,0,0,0,0,0,0,0,0,0,0,0,0,0,0,0,0,0,0,0,0,0,0,0,0,0,0,0,0,0,0,0,0,0,0,0,0,0,0,0,0,0,0,0,0,0,0,0,0,0,0,0,0,0,0,0,0,0,0,0,0,0,0,0,0,0,0,0,0,0,0,0,0,0,0,0,0,0,0,0,0,0,0,0,0,0,0,0,0,0,0,0,0,0,0,0,0,0,0,0,0,0,0,0,0,0,0,0,0,0,0,0,0,0,0,0,0,0,0,0,0,0,0,0,0,0,0,0,0,0,0,0,0,0,0,0,0,0,0,0,0,0,0,0,0,0,0,0,0,0,0,0,0,0,0,0,0,0,0,0,0,0,0,0,0,0,0,0,0,0,0,0,0,0,0,0,0,0,0,0,0,0,0,0,0,0,0,0,0,0,0,0,0,0,0,0,0,0,0,0,0,0,0,0,0,0,0,0,0,0,0,0,0,0,0,0,0,0,0,0,0,
0,0,0,0,0,0,0,0,0,0,0,0,0,0,0,0,0,0,0,0,0,0,0,0,0,0,0,0,0,0,0,0,0,0,0,0,0,0,0,0,0,0,0,0,0,0,0,0,0,0,0,0,0,0,0,0,0,0,0,0,0,0,0,0,0,0,0,0,0,0,0,0,0,0,0,0,0,0,0,0,0,0,0,0,0,0,0,0,0,0,0,0,0,0,0,0,0,0,0,0,0,0,0,0,0,0,0,0,0,0,0,0,0,0,0,0,0,0,0,0,0,0,0,0,0,0,0,0,0,0,0,0,0,0,0,0,0,0,0,0,0,0,0,0,0,0,0,0,0,0,0,0,0,0,0,0,0,0,0,0,0,0,0,0,0,0,0,0,0,0,0,0,0,0,0,0,0,0,0,0,0,0,0,0,0,0,0,0,0,0,0,0,0,0,0,0,0,0,0,0,0,0,0,0,0,0,0,0,0,0,0,0,0,0,0,0,0,0,0,0,0,0,0,0,0,0,0,0,0,0,0,0,0,0,0,0,0,0,0,0,0,0,0,0,0,0,0,0,0,0,0,0,0,0,0,0,0,0,0,0,0,0,0,0,0,0,0,0,0,0,0,0,0,0,0,0,0,0,0,0,0,0,0,0,0,0,0,0,0,0,0,0,0,0,0,0,0,0,0,0,0,0,0,0,0,0,0,0,0,0,0,0,0,0,0,0,0,0,0,0,0,0,0,0,0,0,0,0,0,0,0,0,0,0,0,0,0,0,0,0,0,0,0,0,0,0,0,0,0,0,0,0,0,0,0,0,0,0,0,0,0,0,0,0,0,0,0,0,0,0,0,0,0,0,0,0,0,0,0,0,0,0,0,0,0,0,0,0,0,0,0,0,0,0,0,0,0,0,0,0,0,0,0,0,0,0,0,0,0,0,0,0,0,0,0,0,0,0,0,0,0,0,0,0,0,0,0,0,0,0,0,0,0,0,0,0,0,0,0,0,0,0,0,0,0,0,0,0,0,0,0,0,0,0,0,0,0,0,0,0,0,0,0,0,0,0,0,0,0,0,0,0,0,0,0,0,0,0,0,0,0,0,0,0,0,0,0,0,0,0,0,0,0,0,0,0,0,0,0,0,0,0,0,0,0,0,0,0,0,0,0,0,0,0,0,0,0,0,0,0,0,0,0,0,0,0,0,0,0,0,0,0,0,0,0,0,0,0,0,0,0,0,0,0,0,0,0,0,0,0,0,0,0,0,0,0,0,0,0,0,0,0,0,0,0,0,0,0,0,0,0,0,0,0,0,0,0,0,0,0,0,0,0,0,0,0,0,0,0,0,0,0,0,0,0,0,0,0,0,0,0,0,0,0,0,0,0,0,0,0,0,0,0,0,0,0,0,0,0,0,0,0,0,0,0,0,0,0,0,0,0,0,0,0,0,0,0,0,0,0,0,0,0,0,0,0,0,0,0,0,0,0,0,0,0,0,0,0,0,0,0,0,0,0,0,0,0,0,0,0,0,0,0,0,0,0,0,0,0,0,0,0,0,0,0,0,0,0,0,0,0,0,0,0,0,0,0,0,0,0,0,0,0,0,0,0,0,0,0,0,0,0,0,0,0,0,0,0,0,0,0,0,0,0,0,0,0,0,0,0,0,0,0,0,0,0,0,0,0,0,0,0,0,0,0,0,0,0,0,0,0,0,0,0,0,0,0,0,0,0,0,0,0,0,0,0,0,0,0,0,0,0,0,0,0,0,0,0,0,0,0,0,0,0,0,0,0,0,0,0,0,0,0,0,0,0,0,0,0,0,0,0,0,0,0,0,0,0,0,0,0,0,0,0,0,0,0,0,0,0,0,0,0,0,0,0,0,0,0,0,0,0,0,0,0,0,0,0,0,0,0,0,0,0,0,0,0,0,0,0,0,0,0,0,0,0,0,0,0,0,0,0,0,0,0,0,0,0,0,0,0,0,0,0,0,0,0,0,0,0,0,0,0,0,0,0,0,0,0,0,0,0,0,0,0,0,0,0,0,0,0,0,0,0,0,0,0,0,0,0,0,0,0,0,0,0,0,0,0,0,0,0,0,0,0,0,0,0,0,0,0,0,0,0,0,0,0,0,0,0,0,0,0,0,0,0,0,0,0,0,0,0,0,0,0,0,0,0,0,0,0,0,0,0,0,0,0,0,0,0,0,0,0,0,0,0,0,0,0,0,0,0,0,0,0,0,0,0,0,0,0,0,0,0,0,0,0,0,0,0,
0,0,0,0,0,0,0,0,0,0,0,0,0,0,0,0,0,0,0,0,0,0,0,0,0,0,0,0,0,0,0,0,0,0,0,0,0,0,0,0,0,0,0,0,0,0,0,0,0,0,0,0,0,0,0,0,0,0,0,0,0,0,0,0,0,0,0,0,0,0,0,0,0,0,0,0,0,0,0,0,0,0,0,0,0,0,0,0,0,0,0,0,0,0,0,0,0,0,0,0,0,0,0,0,0,0,0,0,0,0,0,0,0,0,0,0,0,0,0,0,0,0,0,0,0,0,0,0,0,0,0,0,0,0,0,0,0,0,0,0,0,0,0,0,0,0,0,0,0,0,0,0,0,0,0,0,0,0,0,0,0,0,0,0,0,0,0,0,0,0,0,0,0,0,0,0,0,0,0,0,0,0,0,0,0,0,0,0,0,0,0,0,0,0,0,0,0,0,0,0,0,0,0,0,0,0,0,0,0,0,0,0,0,0,0,0,0,0,0,0,0,0,0,0,0,0,0,0,0,0,0,0,0,0,0,0,0,0,0,0,0,0,0,0,0,0,0,0,0,0,0,0,0,0,0,0,0,0,0,0,0,0,0,0,0,0,0,0,0,0,0,0,0,0,0,0,0,0,0,0,0,0,0,0,0,0,0,0,0,0,0,0,0,0,0,0,0,0,0,0,0,0,0,0,0,0,0,0,0,0,0,0,0,0,0,0,0,0,0,0,0,0,0,0,0,0,0,0,0,0,0,0,0,0,0,0,0,0,0,0,0,0,0,0,0,0,0,0,0,0,0,0,0,0,0,0,0,0,0,0,0,0,0,0,0,0,0,0,0,0,0,0,0,0,0,0,0,0,0,0,0,0,0,0,0,0,0,0,0,0,0,0,0,0,0,0,0,0,0,0,0,0,0,0,0,0,0,0,0,0,0,0,0,0,0,0,0,0,0,0,0,0,0,0,0,0,0,0,0,0,0,0,0,0,0,0,0,0,0,0,0,0,0,0,0,0,0,0,0,0,0,0,0,0,0,0,0,0,0,0,0,0,0,0,0,0,0,0,0,0,0,0,0,0,0,0,0,0,0,0,0,0,0,0,0,0,0,0,0,0,0,0,0,0,0,0,0,0,0,0,0,0,0,0,0,0,0,0,0,0,0,0,0,0,0,0,0,0,0,0,0,0,0,0,0,0,0,0,0,0,0,0,0,0,0,0,0,0,0,0,0,0,0,0,0,0,0,0,0,0,0,0,0,0,0,0,0,0,0,0,0,0,0,0,0,0,0,0,0,0,0,0,0,0,0,0,0,0,0,0,0,0,0,0,0,0,0,0,0,0,0,0,0,0,0,0,0,0,0,0,0,0,0,0,0,0,0,0,0,0,0,0,0,0,0,0,0,0,0,0,0,0,0,0,0,0,0,0,0,0,0,0,0,0,0,0,0,0,0,0,0,0,0,0,0,0,0,0,0,0,0,0,0,0,0,0,0,0,0,0,0,0,0,0,0,0,0,0,0,0,0,0,0,0,0,0,0,0,0,0,0,0,0,0,0,0,0,0,0,0,0,0,0,0,0,0,0,0,0,0,0,0,0,0,0,0,0,0,0,0,0,0,0,0,0,0,0,0,0,0,0,0,0,0,0,0,0,0,0,0,0,0,0,0,0,0,0,0,0,0,0,0,0,0,0,0,0,0,0,0,0,0,0,0,0,0,0,0,0,0,0,0,0,0,0,0,0,0,0,0,0,0,0,0,0,0,0,0,0,0,0,0,0,0,0,0,0,0,0,0,0,0,0,0,0,0,0,0,0,0,0,0,0,0,0,0,0,0,0,0,0,0,0,0,0,0,0,0,0,0,0,0,0,0,0,0,0,0,0,0,0,0,0,0,0,0,0,0,0,0,0,0,0,0,0,0,0,0,0,0,0,0,0,0,0,0,0,0,0,0,0,0,0,0,0,0,0,0,0,0,0,0,0,0,0,0,0,0,0,0,0,0,0,0,0,0,0,0,0,0,0,0,0,0,0,0,0,0,0,0,0,0,0,0,0,0,0,0,0,0,0,0,0,0,0,0,0,0,0,0,0,0,0,0,0,0,0,0,0,0,0,0,0,0,0,0,0,0,0,0,0,0,0,0,0,0,0,0,0,0,0,0,0,0,0,0,0,0,0,0,0,0,0,0,0,0,0,0,0,0,0,0,0,0,0,0,0,0,0,0,0,0,0,0,0,0,0,0,0,0,0,0,0,0,0,0,0,0,0,0,
2411,2412,2413,2411,2412,2413,2411,2412,2413,2411,2412,2413,2411,2412,2413,2411,2412,2413,2411,2412,2413,2411,2412,2413,2411,2412,2413,2411,2412,2413,2411,2412,2413,2411,2412,2413,2411,2412,2413,2411,2412,2413,2411,2412,2413,2411,2412,2413,2411,2412,2413,2411,2412,2413,2411,2412,2413,2411,2412,2413,2411,2412,2413,2411,2412,2413,2411,2412,2413,2411,2412,2413,2411,2412,2413,2411,2412,2413,2411,2412,2413,2411,2412,2413,2411,2412,2413,2411,2412,2413,2411,2412,2413,2411,2412,2413,2411,2412,2413,2411,2412,2413,2411,2412,2413,2411,2412,2413,2411,2412,2413,2411,2412,2413,2411,2412,2413,2411,2412,2413,2411,2412,2413,2411,2412,2413,2411,2412,2413,2411,2412,2413,2411,2412,2413,2411,2412,2413,2411,2412,2413,2411,2412,2413,2411,2412,2413,2411,2412,2413,2411,2412,2413,2411,2412,2413,2411,2412,2413,2411,2412,2413,2411,2412,2413,2411,2412,2413,2411,2412,2413,2411,2412,2413,2411,2412,2413,2411,2412,2413,2411,2412,2413,2411,2412,2413,2411,2412,2413,2411,2412,2413,2411,2412,2413,2411,2412,2413,2411,2412,2413,2411,2412,2413,2411,2412,2413,2411,2412,2413,2411,2412,2413,2411,2412,2413,2411,2412,2413,2411,2412,2413,2411,2412,2413,2411,2412,2413,2411,2412,2413,2411,2412,2413,2411,2412,2413,2411,2412,2413,2411,2412,2413,2411,2412,2413,2411,2412,2413,2411,2412,2413,2411,2412,2413,2411,2412,2413,2411,2412,2413,2411,2412,2413,2411,2412,2413,2411,2412,2413,2411,2412,2413,2411,2412,2413,2411,2412,2413,2411,2412,2413,2411,2412,2413,2411,2412,2413,2411,2412,2413,2411,2412,2413,2411,2412,2413,2411,2411,2412,2413,2411,2412,2413,2411,2412,2413,2411,2412,2413,2411,2412,2413,2411,2412,2413,2411,2412,2413,2411,2412,2413,2411,2412,2413,2411,2412,2413,2411,2412,2413,2411,2412,2413,2411,2412,2413,2411,2412,2413,2411,2412,2413,2411,2412,2413,2411,2412,2413,2411,2412,2413,2411,2412,2413,2411,2412,2413,2411,2412,2413,2411,2412,2413,2411,2412,2413,2411,2412,2413,2411,2412,2413,2411,2412,2413,2411,2412,2413,2411,2412,2413,2411,2412,2413,2411,2412,2413,2411,2412,2413,2411,2412,2413,2411,2412,2413,2411,2412,2413,2411,2412,2413,2411,2412,2413,2411,2412,2413,2411,2412,2413,2411,2412,2413,2411,2412,2413,2411,2412,2413,2411,2412,2413,2411,2412,2413,2411,2412,2413,2411,2412,2413,2411,2412,2413,2411,2412,2413,2411,2412,2413,2411,2412,2413,2411,2412,2411,2412,2413,2411,2412,2413,2411,2412,2413,2411,2412,2413,2411,2412,2413,2411,2412,2413,2411,2412,2413,2411,2412,2413,2411,2412,2413,2411,2412,2413,2411,2412,2413,2411,2412,2413,2411,2412,2413,2411,2412,2413,2411,2412,2413,2411,2412,2413,2411,2412,2413,2411,2412,2413,2411,2412,2413,2411,2412,2413,2411,2412,2413,2411,2412,2413,2411,2412,2413,2411,2412,2413,2411,2412,2411,2412,2412,2413,2411,2412,2413,2411,2412,2413,2411,2412,2413,2411,2412,2413,2411,2412,2413,2411,2412,2413,2411,2412,2413,2411,2412,2413,2411,2412,2413,2411,2412,2413,2411,2412,2413,2411,2412,2413,2411,2412,2413,2411,2412,2413,2411,2412,2413,2411,2412,2413,2411,2412,2413,2411,2412,2413,2411,2412,2413,2411,2412,2413,2411,2412,2413,2411,2412,2413,2411,2412,2413,2411,2412,2413,2411,2412,2413,2411,2412,2413,2411,2412,2413,2411,2412,2413,2411,2412,2413,2411,2412,2413,2411,2412,2413,2411,2412,2413,2411,2412,2413,2411,2412,2413,2411,2412,2413,2411,2412,2413,2411,2412,2413,2411,2412,2413,2411,2412,2413,2411,2412,2413,2411,2412,2413,2411,2412,2413,2411,2412,2413,2411,2412,2413,2411,2412,2413,2411,2412,2413,2411,2412,2413,2411,2412,2413,2411,2412,2413,2411,2412,2413,2411,2412,2413,2411,2412,2413,2411,2412,2413,2411,2412,2413,2411,2412,2413,2411,2412,2413,2411,2412,2413,2411,2412,2413,2411,2412,2413,2411,2412,2413,2411,2412,2413,2411,2412,2413,2411,2412,2413,2411,2412,2413,2411,2412,2413,2411,2412,2413,2411,2412,2413,2411,2412,2413,2411,2412,2413,2411,2412,2413,2411,2412,2413,2411,2412,2413,2411,2412,2413,2411,2412,2413,2411,2412,2413,2411,2412,2413,2411,2412,2413,2411,2412,2413,2411,2412,2413,2411,2412,2413,2411,2412,2413,2411,2412,2413,2411,2412,2413,2411,2412,2413,2411,2412,2413,2411,2412,2413,2411,2412,2413,2411,2412,2413,2411,2412,2413,2411,2412,2413,2411,2412,2413,2411,2412,2413,2411,2412,2413,2411,2412,2413,2411,2412,2413,2411,2412,2413,2411,2412,2413,2411,2412,2413,2411,2412,2413,2411,2412,2413,2411,2412,2413,2411,2412,2413,2411,2412,2413,2411,2412,2413,2411,2411,2412,2413,2411,2412,2413,2411,2412,2413,2411,2412,2413,2411,2412,2413,2411,2412,2413,2411,2412,2413,2411,2412,2413,2411,2412,2413,2411,2412,2413,2411,2412,2413,2411,2412,2413,2411,2412,2413,2411,2412,2413,2411,2412,2413,2411,2412,2413,2411,2412,2413,2411,2412,2413,2411,2412,2413,2411,2412,2413,2411,2412,2413,2411,2412,2413,2411,2412,2413,2411,2412,2413,2411,2412,2413,2411,2412,2413,2411,2412,2413,2411,2412,2413,2411,2412,2413,2411,2412,2413,2411,2412,2413,2411,2412,2413,2411,2412,2413,2411,2412,2413,2411,2412,2413,2411,2412,2413,2411,2412,2413,2411,2412,2413,2411,2412,2413,2411,2412,2413,2411,2412,2413,2411,2412,2413,2411,2412,2413,2411,2412,2413,2411,2412,2413,2411,2412,2413,2411,2412,2413,2411,2412,2413,2411,2412,2413,2411,2412,2413,2411,2412,2413,2411,2412,2413,2411,2412,2413,2411,2412,2413,
2431,2432,2433,2431,2432,2433,2431,2432,2433,2431,2432,2433,2431,2432,2433,2431,2432,2433,2431,2432,2433,2431,2432,2433,2431,2432,2433,2431,2432,2433,2431,2432,2433,2431,2432,2433,2431,2432,2433,2431,2432,2433,2431,2432,2433,2431,2432,2433,2431,2432,2433,2431,2432,2433,2431,2432,2433,2431,2432,2433,2431,2432,2433,2431,2432,2433,2431,2432,2433,2431,2432,2433,2431,2432,2433,2431,2432,2433,2431,2432,2433,2431,2432,2433,2431,2432,2433,2431,2432,2433,2431,2432,2433,2431,2432,2433,2431,2432,2433,2431,2432,2433,2431,2432,2433,2431,2432,2433,2431,2432,2433,2431,2432,2433,2431,2432,2433,2431,2432,2433,2431,2432,2433,2431,2432,2433,2431,2432,2433,2431,2432,2433,2431,2432,2433,2431,2432,2433,2431,2432,2433,2431,2432,2433,2431,2432,2433,2431,2432,2433,2431,2432,2433,2431,2432,2433,2431,2432,2433,2431,2432,2433,2431,2432,2433,2431,2432,2433,2431,2432,2433,2431,2432,2433,2431,2432,2433,2431,2432,2433,2431,2432,2433,2431,2432,2433,2431,2432,2433,2431,2432,2433,2431,2432,2433,2431,2432,2433,2431,2432,2433,2431,2432,2433,2431,2432,2433,2431,2432,2433,2431,2432,2433,2431,2432,2433,2431,2432,2433,2431,2432,2433,2431,2432,2433,2431,2432,2433,2431,2432,2433,2431,2432,2433,2431,2432,2433,2431,2432,2433,2431,2432,2433,2431,2432,2433,2431,2432,2433,2431,2432,2433,2431,2432,2433,2431,2432,2433,2431,2432,2433,2431,2432,2433,2431,2432,2433,2431,2432,2433,2431,2432,2433,2431,2432,2433,2431,2432,2433,2431,2432,2433,2431,2432,2433,2431,2432,2433,2431,2432,2433,2431,2432,2433,2431,2432,2433,2431,2431,2432,2433,2431,2432,2433,2431,2432,2433,2431,2432,2433,2431,2432,2433,2431,2432,2433,2431,2432,2433,2431,2432,2433,2431,2432,2433,2431,2432,2433,2431,2432,2433,2431,2432,2433,2431,2432,2433,2431,2432,2433,2431,2432,2433,2431,2432,2433,2431,2432,2433,2431,2432,2433,2431,2432,2433,2431,2432,2433,2431,2432,2433,2431,2432,2433,2431,2432,2433,2431,2432,2433,2431,2432,2433,2431,2432,2433,2431,2432,2433,2431,2432,2433,2431,2432,2433,2431,2432,2433,2431,2432,2433,2431,2432,2433,2431,2432,2433,2431,2432,2433,2431,2432,2433,2431,2432,2433,2431,2432,2433,2431,2432,2433,2431,2432,2433,2431,2432,2433,2431,2432,2433,2431,2432,2433,2431,2432,2433,2431,2432,2433,2431,2432,2433,2431,2432,2433,2431,2432,2433,2431,2432,2433,2431,2432,2433,2431,2432,2431,2432,2433,2431,2432,2433,2431,2432,2433,2431,2432,2433,2431,2432,2433,2431,2432,2433,2431,2432,2433,2431,2432,2433,2431,2432,2433,2431,2432,2433,2431,2432,2433,2431,2432,2433,2431,2432,2433,2431,2432,2433,2431,2432,2433,2431,2432,2433,2431,2432,2433,2431,2432,2433,2431,2432,2433,2431,2432,2433,2431,2432,2433,2431,2432,2433,2431,2432,2433,2431,2432,2433,2431,2432,2431,2432,2432,2433,2431,2432,2433,2431,2432,2433,2431,2432,2433,2431,2432,2433,2431,2432,2433,2431,2432,2433,2431,2432,2433,2431,2432,2433,2431,2432,2433,2431,2432,2433,2431,2432,2433,2431,2432,2433,2431,2432,2433,2431,2432,2433,2431,2432,2433,2431,2432,2433,2431,2432,2433,2431,2432,2433,2431,2432,2433,2431,2432,2433,2431,2432,2433,2431,2432,2433,2431,2432,2433,2431,2432,2433,2431,2432,2433,2431,2432,2433,2431,2432,2433,2431,2432,2433,2431,2432,2433,2431,2432,2433,2431,2432,2433,2431,2432,2433,2431,2432,2433,2431,2432,2433,2431,2432,2433,2431,2432,2433,2431,2432,2433,2431,2432,2433,2431,2432,2433,2431,2432,2433,2431,2432,2433,2431,2432,2433,2431,2432,2433,2431,2432,2433,2431,2432,2433,2431,2432,2433,2431,2432,2433,2431,2432,2433,2431,2432,2433,2431,2432,2433,2431,2432,2433,2431,2432,2433,2431,2432,2433,2431,2432,2433,2431,2432,2433,2431,2432,2433,2431,2432,2433,2431,2432,2433,2431,2432,2433,2431,2432,2433,2431,2432,2433,2431,2432,2433,2431,2432,2433,2431,2432,2433,2431,2432,2433,2431,2432,2433,2431,2432,2433,2431,2432,2433,2431,2432,2433,2431,2432,2433,2431,2432,2433,2431,2432,2433,2431,2432,2433,2431,2432,2433,2431,2432,2433,2431,2432,2433,2431,2432,2433,2431,2432,2433,2431,2432,2433,2431,2432,2433,2431,2432,2433,2431,2432,2433,2431,2432,2433,2431,2432,2433,2431,2432,2433,2431,2432,2433,2431,2432,2433,2431,2432,2433,2431,2432,2433,2431,2432,2433,2431,2432,2433,2431,2432,2433,2431,2432,2433,2431,2432,2433,2431,2432,2433,2431,2432,2433,2431,2432,2433,2431,2432,2433,2431,2432,2433,2431,2432,2433,2431,2432,2433,2431,2432,2433,2431,2432,2433,2431,2432,2433,2431,2431,2432,2433,2431,2432,2433,2431,2432,2433,2431,2432,2433,2431,2432,2433,2431,2432,2433,2431,2432,2433,2431,2432,2433,2431,2432,2433,2431,2432,2433,2431,2432,2433,2431,2432,2433,2431,2432,2433,2431,2432,2433,2431,2432,2433,2431,2432,2433,2431,2432,2433,2431,2432,2433,2431,2432,2433,2431,2432,2433,2431,2432,2433,2431,2432,2433,2431,2432,2433,2431,2432,2433,2431,2432,2433,2431,2432,2433,2431,2432,2433,2431,2432,2433,2431,2432,2433,2431,2432,2433,2431,2432,2433,2431,2432,2433,2431,2432,2433,2431,2432,2433,2431,2432,2433,2431,2432,2433,2431,2432,2433,2431,2432,2433,2431,2432,2433,2431,2432,2433,2431,2432,2433,2431,2432,2433,2431,2432,2433,2431,2432,2433,2431,2432,2433,2431,2432,2433,2431,2432,2433,2431,2432,2433,2431,2432,2433,2431,2432,2433,2431,2432,2433,2431,2432,2433,2431,2432,2433,2431,2432,2433,
2411,2412,2413,2411,2412,2413,2411,2412,2413,2411,2412,2413,2411,2412,2413,2411,2412,2413,2411,2412,2413,2411,2412,2413,2411,2412,2413,2411,2412,2413,2411,2412,2413,2411,2412,2413,2411,2412,2413,2411,2412,2413,2411,2412,2413,2411,2412,2413,2411,2412,2413,2411,2412,2413,2411,2412,2413,2411,2412,2413,2411,2412,2413,2411,2412,2413,2411,2412,2413,2411,2412,2413,2411,2412,2413,2411,2412,2413,2411,2412,2413,2411,2412,2413,2411,2412,2413,2411,2412,2413,2411,2412,2413,2411,2412,2413,2411,2412,2413,2411,2412,2413,2411,2412,2413,2411,2412,2413,2411,2412,2413,2411,2412,2413,2411,2412,2413,2411,2412,2413,2411,2412,2413,2411,2412,2413,2411,2412,2413,2411,2412,2413,2411,2412,2413,2411,2412,2413,2411,2412,2413,2411,2412,2413,2411,2412,2413,2411,2412,2413,2411,2412,2413,2411,2412,2413,2411,2412,2413,2411,2412,2413,2411,2412,2413,2411,2412,2413,2411,2412,2413,2411,2412,2413,2411,2412,2413,2411,2412,2413,2411,2412,2413,2411,2412,2413,2411,2412,2413,2411,2412,2413,2411,2412,2413,2411,2412,2413,2411,2412,2413,2411,2412,2413,2411,2412,2413,2411,2412,2413,2411,2412,2413,2411,2412,2413,2411,2412,2413,2411,2412,2413,2411,2412,2413,2411,2412,2413,2411,2412,2413,2411,2412,2413,2411,2412,2413,2411,2412,2413,2411,2412,2413,2411,2412,2413,2411,2412,2413,2411,2412,2413,2411,2412,2413,2411,2412,2413,2411,2412,2413,2411,2412,2413,2411,2412,2413,2411,2412,2413,2411,2412,2413,2411,2412,2413,2411,2412,2413,2411,2412,2413,2411,2412,2413,2411,2412,2413,2411,2412,2413,2411,2412,2413,2411,2412,2413,2411,2411,2412,2413,2411,2412,2413,2411,2412,2413,2411,2412,2413,2411,2412,2413,2411,2412,2413,2411,2412,2413,2411,2412,2413,2411,2412,2413,2411,2412,2413,2411,2412,2413,2411,2412,2413,2411,2412,2413,2411,2412,2413,2411,2412,2413,2411,2412,2413,2411,2412,2413,2411,2412,2413,2411,2412,2413,2411,2412,2413,2411,2412,2413,2411,2412,2413,2411,2412,2413,2411,2412,2413,2411,2412,2413,2411,2412,2413,2411,2412,2413,2411,2412,2413,2411,2412,2413,2411,2412,2413,2411,2412,2413,2411,2412,2413,2411,2412,2413,2411,2412,2413,2411,2412,2413,2411,2412,2413,2411,2412,2413,2411,2412,2413,2411,2412,2413,2411,2412,2413,2411,2412,2413,2411,2412,2413,2411,2412,2413,2411,2412,2413,2411,2412,2413,2411,2412,2413,2411,2412,2413,2411,2412,2413,2411,2412,2413,2411,2412,2411,2412,2413,2411,2412,2413,2411,2412,2413,2411,2412,2413,2411,2412,2413,2411,2412,2413,2411,2412,2413,2411,2412,2413,2411,2412,2413,2411,2412,2413,2411,2412,2413,2411,2412,2413,2411,2412,2413,2411,2412,2413,2411,2412,2413,2411,2412,2413,2411,2412,2413,2411,2412,2413,2411,2412,2413,2411,2412,2413,2411,2412,2413,2411,2412,2413,2411,2412,2413,2411,2412,2413,2411,2412,2411,2412,2412,2413,2411,2412,2413,2411,2412,2413,2411,2412,2413,2411,2412,2413,2411,2412,2413,2411,2412,2413,2411,2412,2413,2411,2412,2413,2411,2412,2413,2411,2412,2413,2411,2412,2413,2411,2412,2413,2411,2412,2413,2411,2412,2413,2411,2412,2413,2411,2412,2413,2411,2412,2413,2411,2412,2413,2411,2412,2413,2411,2412,2413,2411,2412,2413,2411,2412,2413,2411,2412,2413,2411,2412,2413,2411,2412,2413,2411,2412,2413,2411,2412,2413,2411,2412,2413,2411,2412,2413,2411,2412,2413,2411,2412,2413,2411,2412,2413,2411,2412,2413,2411,2412,2413,2411,2412,2413,2411,2412,2413,2411,2412,2413,2411,2412,2413,2411,2412,2413,2411,2412,2413,2411,2412,2413,2411,2412,2413,2411,2412,2413,2411,2412,2413,2411,2412,2413,2411,2412,2413,2411,2412,2413,2411,2412,2413,2411,2412,2413,2411,2412,2413,2411,2412,2413,2411,2412,2413,2411,2412,2413,2411,2412,2413,2411,2412,2413,2411,2412,2413,2411,2412,2413,2411,2412,2413,2411,2412,2413,2411,2412,2413,2411,2412,2413,2411,2412,2413,2411,2412,2413,2411,2412,2413,2411,2412,2413,2411,2412,2413,2411,2412,2413,2411,2412,2413,2411,2412,2413,2411,2412,2413,2411,2412,2413,2411,2412,2413,2411,2412,2413,2411,2412,2413,2411,2412,2413,2411,2412,2413,2411,2412,2413,2411,2412,2413,2411,2412,2413,2411,2412,2413,2411,2412,2413,2411,2412,2413,2411,2412,2413,2411,2412,2413,2411,2412,2413,2411,2412,2413,2411,2412,2413,2411,2412,2413,2411,2412,2413,2411,2412,2413,2411,2412,2413,2411,2412,2413,2411,2412,2413,2411,2412,2413,2411,2412,2413,2411,2412,2413,2411,2412,2413,2411,2412,2413,2411,2412,2413,2411,2412,2413,2411,2412,2413,2411,2412,2413,2411,2412,2413,2411,2412,2413,2411,2411,2412,2413,2411,2412,2413,2411,2412,2413,2411,2412,2413,2411,2412,2413,2411,2412,2413,2411,2412,2413,2411,2412,2413,2411,2412,2413,2411,2412,2413,2411,2412,2413,2411,2412,2413,2411,2412,2413,2411,2412,2413,2411,2412,2413,2411,2412,2413,2411,2412,2413,2411,2412,2413,2411,2412,2413,2411,2412,2413,2411,2412,2413,2411,2412,2413,2411,2412,2413,2411,2412,2413,2411,2412,2413,2411,2412,2413,2411,2412,2413,2411,2412,2413,2411,2412,2413,2411,2412,2413,2411,2412,2413,2411,2412,2413,2411,2412,2413,2411,2412,2413,2411,2412,2413,2411,2412,2413,2411,2412,2413,2411,2412,2413,2411,2412,2413,2411,2412,2413,2411,2412,2413,2411,2412,2413,2411,2412,2413,2411,2412,2413,2411,2412,2413,2411,2412,2413,2411,2412,2413,2411,2412,2413,2411,2412,2413,2411,2412,2413,2411,2412,2413,2411,2412,2413,2411,2412,2413,2411,2412,2413,
0,0,0,0,0,0,0,0,0,0,0,0,0,0,0,0,0,0,0,0,0,0,0,0,0,0,0,0,0,0,0,0,0,0,0,0,0,0,0,0,0,0,0,0,0,0,0,0,0,0,0,0,0,0,0,0,0,0,0,0,0,0,0,0,0,0,0,0,0,0,0,0,0,0,0,0,0,0,0,0,0,0,0,0,0,0,0,0,0,0,0,0,0,0,0,0,0,0,0,0,0,0,0,0,0,0,0,0,0,0,0,0,0,0,0,0,0,0,0,0,0,0,0,0,0,0,0,0,0,0,0,0,0,0,0,0,0,0,0,0,0,0,0,0,0,0,0,0,0,0,0,0,0,0,0,0,0,0,0,0,0,0,0,0,0,0,0,0,0,0,0,0,0,0,0,0,0,0,0,0,0,0,0,0,0,0,0,0,0,0,0,0,0,0,0,0,0,0,0,0,0,0,0,0,0,0,0,0,0,0,0,0,0,0,0,0,0,0,0,0,0,0,0,0,0,0,0,0,0,0,0,0,0,0,0,0,0,0,0,0,0,0,0,0,0,0,0,0,0,0,0,0,0,0,0,0,0,0,0,0,0,0,0,0,0,0,0,0,0,0,0,0,0,0,0,0,0,0,0,0,0,0,0,0,0,0,0,0,0,0,0,0,0,0,0,0,0,0,0,0,0,0,0,0,0,0,0,0,0,0,0,0,0,0,0,0,0,0,0,0,0,0,0,0,0,0,0,0,0,0,0,0,0,0,0,0,0,0,0,0,0,0,0,0,0,0,0,0,0,0,0,0,0,0,0,0,0,0,0,0,0,0,0,0,0,0,0,0,0,0,0,0,0,0,0,0,0,0,0,0,0,0,0,0,0,0,0,0,0,0,0,0,0,0,0,0,0,0,0,0,0,0,0,0,0,0,0,0,0,0,0,0,0,0,0,0,0,0,0,0,0,0,0,0,0,0,0,0,0,0,0,0,0,0,0,0,0,0,0,0,0,0,0,0,0,0,0,0,0,0,0,0,0,0,0,0,0,0,0,0,0,0,0,0,0,0,0,0,0,0,0,0,0,0,0,0,0,0,0,0,0,0,0,0,0,0,0,0,0,0,0,0,0,0,0,0,0,0,0,0,0,0,0,0,0,0,0,0,0,0,0,0,0,0,0,0,0,0,0,0,0,0,0,0,0,0,0,0,0,0,0,0,0,0,0,0,0,0,0,0,0,0,0,0,0,0,0,0,0,0,0,0,0,0,0,0,0,0,0,0,0,0,0,0,0,0,0,0,0,0,0,0,0,0,0,0,0,0,0,0,0,0,0,0,0,0,0,0,0,0,0,0,0,0,0,0,0,0,0,0,0,0,0,0,0,0,0,0,0,0,0,0,0,0,0,0,0,0,0,0,0,0,0,0,0,0,0,0,0,0,0,0,0,0,0,0,0,0,0,0,0,0,0,0,0,0,0,0,0,0,0,0,0,0,0,0,0,0,0,0,0,0,0,0,0,0,0,0,0,0,0,0,0,0,0,0,0,0,0,0,0,0,0,0,0,0,0,0,0,0,0,0,0,0,0,0,0,0,0,0,0,0,0,0,0,0,0,0,0,0,0,0,0,0,0,0,0,0,0,0,0,0,0,0,0,0,0,0,0,0,0,0,0,0,0,0,0,0,0,0,0,0,0,0,0,0,0,0,0,0,0,0,0,0,0,0,0,0,0,0,0,0,0,0,0,0,0,0,0,0,0,0,0,0,0,0,0,0,0,0,0,0,0,0,0,0,0,0,0,0,0,0,0,0,0,0,0,0,0,0,0,0,0,0,0,0,0,0,0,0,0,0,0,0,0,0,0,0,0,0,0,0,0,0,0,0,0,0,0,0,0,0,0,0,0,0,0,0,0,0,0,0,0,0,0,0,0,0,0,0,0,0,0,0,0,0,0,0,0,0,0,0,0,0,0,0,0,0,0,0,0,0,0,0,0,0,0,0,0,0,0,0,0,0,0,0,0,0,0,0,0,0,0,0,0,0,0,0,0,0,0,0,0,0,0,0,0,0,0,0,0,0,0,0,0,0,0,0,0,0,0,0,0,0,0,0,0,0,0,0,0,0,0,0,0,0,0,0,0,0,0,0,0,0,0,0,0,0,0,0,0,0,0,0,0,0,0,0,0,0,0,0,0,0,0,0,0,0,0,0,0,0,0,0,0,0,0,0,0,0,0,0,0,0,0,0,0,0,0,0,0,0,0,0,0,0,0,0,0,0,
0,0,0,0,0,0,0,0,0,0,0,0,0,0,0,0,0,0,0,0,0,0,0,0,0,0,0,0,0,0,0,0,0,0,0,0,0,0,0,0,0,0,0,0,0,0,0,0,0,0,0,0,0,0,0,0,0,0,0,0,0,0,0,0,0,0,0,0,0,0,0,0,0,0,0,0,0,0,0,0,0,0,0,0,0,0,0,0,0,0,0,0,0,0,0,0,0,0,0,0,0,0,0,0,0,0,0,0,0,0,0,0,0,0,0,0,0,0,0,0,0,0,0,0,0,0,0,0,0,0,0,0,0,0,0,0,0,0,0,0,0,0,0,0,0,0,0,0,0,0,0,0,0,0,0,0,0,0,0,0,0,0,0,0,0,0,0,0,0,0,0,0,0,0,0,0,0,0,0,0,0,0,0,0,0,0,0,0,0,0,0,0,0,0,0,0,0,0,0,0,0,0,0,0,0,0,0,0,0,0,0,0,0,0,0,0,0,0,0,0,0,0,0,0,0,0,0,0,0,0,0,0,0,0,0,0,0,0,0,0,0,0,0,0,0,0,0,0,0,0,0,0,0,0,0,0,0,0,0,0,0,0,0,0,0,0,0,0,0,0,0,0,0,0,0,0,0,0,0,0,0,0,0,0,0,0,0,0,0,0,0,0,0,0,0,0,0,0,0,0,0,0,0,0,0,0,0,0,0,0,0,0,0,0,0,0,0,0,0,0,0,0,0,0,0,0,0,0,0,0,0,0,0,0,0,0,0,0,0,0,0,0,0,0,0,0,0,0,0,0,0,0,0,0,0,0,0,0,0,0,0,0,0,0,0,0,0,0,0,0,0,0,0,0,0,0,0,0,0,0,0,0,0,0,0,0,0,0,0,0,0,0,0,0,0,0,0,0,0,0,0,0,0,0,0,0,0,0,0,0,0,0,0,0,0,0,0,0,0,0,0,0,0,0,0,0,0,0,0,0,0,0,0,0,0,0,0,0,0,0,0,0,0,0,0,0,0,0,0,0,0,0,0,0,0,0,0,0,0,0,0,0,0,0,0,0,0,0,0,0,0,0,0,0,0,0,0,0,0,0,0,0,0,0,0,0,0,0,0,0,0,0,0,0,0,0,0,0,0,0,0,0,0,0,0,0,0,0,0,0,0,0,0,0,0,0,0,0,0,0,0,0,0,0,0,0,0,0,0,0,0,0,0,0,0,0,0,0,0,0,0,0,0,0,0,0,0,0,0,0,0,0,0,0,0,0,0,0,0,0,0,0,0,0,0,0,0,0,0,0,0,0,0,0,0,0,0,0,0,0,0,0,0,0,0,0,0,0,0,0,0,0,0,0,0,0,0,0,0,0,0,0,0,0,0,0,0,0,0,0,0,0,0,0,0,0,0,0,0,0,0,0,0,0,0,0,0,0,0,0,0,0,0,0,0,0,0,0,0,0,0,0,0,0,0,0,0,0,0,0,0,0,0,0,0,0,0,0,0,0,0,0,0,0,0,0,0,0,0,0,0,0,0,0,0,0,0,0,0,0,0,0,0,0,0,0,0,0,0,0,0,0,0,0,0,0,0,0,0,0,0,0,0,0,0,0,0,0,0,0,0,0,0,0,0,0,0,0,0,0,0,0,0,0,0,0,0,0,0,0,0,0,0,0,0,0,0,0,0,0,0,0,0,0,0,0,0,0,0,0,0,0,0,0,0,0,0,0,0,0,0,0,0,0,0,0,0,0,0,0,0,0,0,0,0,0,0,0,0,0,0,0,0,0,0,0,0,0,0,0,0,0,0,0,0,0,0,0,0,0,0,0,0,0,0,0,0,0,0,0,0,0,0,0,0,0,0,0,0,0,0,0,0,0,0,0,0,0,0,0,0,0,0,0,0,0,0,0,0,0,0,0,0,0,0,0,0,0,0,0,0,0,0,0,0,0,0,0,0,0,0,0,0,0,0,0,0,0,0,0,0,0,0,0,0,0,0,0,0,0,0,0,0,0,0,0,0,0,0,0,0,0,0,0,0,0,0,0,0,0,0,0,0,0,0,0,0,0,0,0,0,0,0,0,0,0,0,0,0,0,0,0,0,0,0,0,0,0,0,0,0,0,0,0,0,0,0,0,0,0,0,0,0,0,0,0,0,0,0,0,0,0,0,0,0,0,0,0,0,0,0,0,0,0,0,0,0,0,0,0,0,0,0,0,0,0,0,0,0,0,0,0,0,0,0,0,0,0,0,0,0,0,0,0,0,0,0,0,0,0,
0,0,0,0,0,0,0,0,0,0,0,0,0,0,0,0,0,0,0,0,0,0,0,0,0,0,0,0,0,0,0,0,0,0,0,0,0,0,0,0,0,0,0,0,0,0,0,0,0,0,0,0,0,0,0,0,0,0,0,0,0,0,0,0,0,0,0,0,0,0,0,0,0,0,0,0,0,0,0,0,0,0,0,0,0,0,0,0,0,0,0,0,0,0,0,0,0,0,0,0,0,0,0,0,0,0,0,0,0,0,0,0,0,0,0,0,0,0,0,0,0,0,0,0,0,0,0,0,0,0,0,0,0,0,0,0,0,0,0,0,0,0,0,0,0,0,0,0,0,0,0,0,0,0,0,0,0,0,0,0,0,0,0,0,0,0,0,0,0,0,0,0,0,0,0,0,0,0,0,0,0,0,0,0,0,0,0,0,0,0,0,0,0,0,0,0,0,0,0,0,0,0,0,0,0,0,0,0,0,0,0,0,0,0,0,0,0,0,0,0,0,0,0,0,0,0,0,0,0,0,0,0,0,0,0,0,0,0,0,0,0,0,0,0,0,0,0,0,0,0,0,0,0,0,0,0,0,0,0,0,0,0,0,0,0,0,0,0,0,0,0,0,0,0,0,0,0,0,0,0,0,0,0,0,0,0,0,0,0,0,0,0,0,0,0,0,0,0,0,0,0,0,0,0,0,0,0,0,0,0,0,0,0,0,0,0,0,0,0,0,0,0,0,0,0,0,0,0,0,0,0,0,0,0,0,0,0,0,0,0,0,0,0,0,0,0,0,0,0,0,0,0,0,0,0,0,0,0,0,0,0,0,0,0,0,0,0,0,0,0,0,0,0,0,0,0,0,0,0,0,0,0,0,0,0,0,0,0,0,0,0,0,0,0,0,0,0,0,0,0,0,0,0,0,0,0,0,0,0,0,0,0,0,0,0,0,0,0,0,0,0,0,0,0,0,0,0,0,0,0,0,0,0,0,0,0,0,0,0,0,0,0,0,0,0,0,0,0,0,0,0,0,0,0,0,0,0,0,0,0,0,0,0,0,0,0,0,0,0,0,0,0,0,0,0,0,0,0,0,0,0,0,0,0,0,0,0,0,0,0,0,0,0,0,0,0,0,0,0,0,0,0,0,0,0,0,0,0,0,0,0,0,0,0,0,0,0,0,0,0,0,0,0,0,0,0,0,0,0,0,0,0,0,0,0,0,0,0,0,0,0,0,0,0,0,0,0,0,0,0,0,0,0,0,0,0,0,0,0,0,0,0,0,0,0,0,0,0,0,0,0,0,0,0,0,0,0,0,0,0,0,0,0,0,0,0,0,0,0,0,0,0,0,0,0,0,0,0,0,0,0,0,0,0,0,0,0,0,0,0,0,0,0,0,0,0,0,0,0,0,0,0,0,0,0,0,0,0,0,0,0,0,0,0,0,0,0,0,0,0,0,0,0,0,0,0,0,0,0,0,0,0,0,0,0,0,0,0,0,0,0,0,0,0,0,0,0,0,0,0,0,0,0,0,0,0,0,0,0,0,0,0,0,0,0,0,0,0,0,0,0,0,0,0,0,0,0,0,0,0,0,0,0,0,0,0,0,0,0,0,0,0,0,0,0,0,0,0,0,0,0,0,0,0,0,0,0,0,0,0,0,0,0,0,0,0,0,0,0,0,0,0,0,0,0,0,0,0,0,0,0,0,0,0,0,0,0,0,0,0,0,0,0,0,0,0,0,0,0,0,0,0,0,0,0,0,0,0,0,0,0,0,0,0,0,0,0,0,0,0,0,0,0,0,0,0,0,0,0,0,0,0,0,0,0,0,0,0,0,0,0,0,0,0,0,0,0,0,0,0,0,0,0,0,0,0,0,0,0,0,0,0,0,0,0,0,0,0,0,0,0,0,0,0,0,0,0,0,0,0,0,0,0,0,0,0,0,0,0,0,0,0,0,0,0,0,0,0,0,0,0,0,0,0,0,0,0,0,0,0,0,0,0,0,0,0,0,0,0,0,0,0,0,0,0,0,0,0,0,0,0,0,0,0,0,0,0,0,0,0,0,0,0,0,0,0,0,0,0,0,0,0,0,0,0,0,0,0,0,0,0,0,0,0,0,0,0,0,0,0,0,0,0,0,0,0,0,0,0,0,0,0,0,0,0,0,0,0,0,0,0,0,0,0,0,0,0,0,0,0,0,0,0,0,0,0,0,0,0,0,0,0,0,0,0,0,0,0,0,0,0,0,0,0,0,0,0,0,0,0,
0,0,0,0,0,0,0,0,0,0,0,0,0,0,0,0,0,0,0,0,0,0,0,0,0,0,0,0,0,0,0,0,0,0,0,0,0,0,0,0,0,0,0,0,0,0,0,0,0,0,0,0,0,0,0,0,0,0,0,0,0,0,0,0,0,0,0,0,0,0,0,0,0,0,0,0,0,0,0,0,0,0,0,0,0,0,0,0,0,0,0,0,0,0,0,0,0,0,0,0,0,0,0,0,0,0,0,0,0,0,0,0,0,0,0,0,0,0,0,0,0,0,0,0,0,0,0,0,0,0,0,0,0,0,0,0,0,0,0,0,0,0,0,0,0,0,0,0,0,0,0,0,0,0,0,0,0,0,0,0,0,0,0,0,0,0,0,0,0,0,0,0,0,0,0,0,0,0,0,0,0,0,0,0,0,0,0,0,0,0,0,0,0,0,0,0,0,0,0,0,0,0,0,0,0,0,0,0,0,0,0,0,0,0,0,0,0,0,0,0,0,0,0,0,0,0,0,0,0,0,0,0,0,0,0,0,0,0,0,0,0,0,0,0,0,0,0,0,0,0,0,0,0,0,0,0,0,0,0,0,0,0,0,0,0,0,0,0,0,0,0,0,0,0,0,0,0,0,0,0,0,0,0,0,0,0,0,0,0,0,0,0,0,0,0,0,0,0,0,0,0,0,0,0,0,0,0,0,0,0,0,0,0,0,0,0,0,0,0,0,0,0,0,0,0,0,0,0,0,0,0,0,0,0,0,0,0,0,0,0,0,0,0,0,0,0,0,0,0,0,0,0,0,0,0,0,0,0,0,0,0,0,0,0,0,0,0,0,0,0,0,0,0,0,0,0,0,0,0,0,0,0,0,0,0,0,0,0,0,0,0,0,0,0,0,0,0,0,0,0,0,0,0,0,0,0,0,0,0,0,0,0,0,0,0,0,0,0,0,0,0,0,0,0,0,0,0,0,0,0,0,0,0,0,0,0,0,0,0,0,0,0,0,0,0,0,0,0,0,0,0,0,0,0,0,0,0,0,0,0,0,0,0,0,0,0,0,0,0,0,0,0,0,0,0,0,0,0,0,0,0,0,0,0,0,0,0,0,0,0,0,0,0,0,0,0,0,0,0,0,0,0,0,0,0,0,0,0,0,0,0,0,0,0,0,0,0,0,0,0,0,0,0,0,0,0,0,0,0,0,0,0,0,0,0,0,0,0,0,0,0,0,0,0,0,0,0,0,0,0,0,0,0,0,0,0,0,0,0,0,0,0,0,0,0,0,0,0,0,0,0,0,0,0,0,0,0,0,0,0,0,0,0,0,0,0,0,0,0,0,0,0,0,0,0,0,0,0,0,0,0,0,0,0,0,0,0,0,0,0,0,0,0,0,0,0,0,0,0,0,0,0,0,0,0,0,0,0,0,0,0,0,0,0,0,0,0,0,0,0,0,0,0,0,0,0,0,0,0,0,0,0,0,0,0,0,0,0,0,0,0,0,0,0,0,0,0,0,0,0,0,0,0,0,0,0,0,0,0,0,0,0,0,0,0,0,0,0,0,0,0,0,0,0,0,0,0,0,0,0,0,0,0,0,0,0,0,0,0,0,0,0,0,0,0,0,0,0,0,0,0,0,0,0,0,0,0,0,0,0,0,0,0,0,0,0,0,0,0,0,0,0,0,0,0,0,0,0,0,0,0,0,0,0,0,0,0,0,0,0,0,0,0,0,0,0,0,0,0,0,0,0,0,0,0,0,0,0,0,0,0,0,0,0,0,0,0,0,0,0,0,0,0,0,0,0,0,0,0,0,0,0,0,0,0,0,0,0,0,0,0,0,0,0,0,0,0,0,0,0,0,0,0,0,0,0,0,0,0,0,0,0,0,0,0,0,0,0,0,0,0,0,0,0,0,0,0,0,0,0,0,0,0,0,0,0,0,0,0,0,0,0,0,0,0,0,0,0,0,0,0,0,0,0,0,0,0,0,0,0,0,0,0,0,0,0,0,0,0,0,0,0,0,0,0,0,0,0,0,0,0,0,0,0,0,0,0,0,0,0,0,0,0,0,0,0,0,0,0,0,0,0,0,0,0,0,0,0,0,0,0,0,0,0,0,0,0,0,0,0,0,0,0,0,0,0,0,0,0,0,0,0,0,0,0,0,0,0,0,0,0,0,0,0,0,0,0,0,0,0,0,0,0,0,0,0,0,0,0,0,0,0,0,0,0,0,0,0,0,0,0,0,0,0,0,0,0,0,0,0,
0,0,0,0,0,0,0,0,0,0,0,0,0,0,0,0,0,0,0,0,0,0,0,0,0,0,0,0,0,0,0,0,0,0,0,0,0,0,0,0,0,0,0,0,0,0,0,0,0,0,0,0,0,0,0,0,0,0,0,0,0,0,0,0,0,0,0,0,0,0,0,0,0,0,0,0,0,0,0,0,0,0,0,0,0,0,0,0,0,0,0,0,0,0,0,0,0,0,0,0,0,0,0,0,0,0,0,0,0,0,0,0,0,0,0,0,0,0,0,0,0,0,0,0,0,0,0,0,0,0,0,0,0,0,0,0,0,0,0,0,0,0,0,0,0,0,0,0,0,0,0,0,0,0,0,0,0,0,0,0,0,0,0,0,0,0,0,0,0,0,0,0,0,0,0,0,0,0,0,0,0,0,0,0,0,0,0,0,0,0,0,0,0,0,0,0,0,0,0,0,0,0,0,0,0,0,0,0,0,0,0,0,0,0,0,0,0,0,0,0,0,0,0,0,0,0,0,0,0,0,0,0,0,0,0,0,0,0,0,0,0,0,0,0,0,0,0,0,0,0,0,0,0,0,0,0,0,0,0,0,0,0,0,0,0,0,0,0,0,0,0,0,0,0,0,0,0,0,0,0,0,0,0,0,0,0,0,0,0,0,0,0,0,0,0,0,0,0,0,0,0,0,0,0,0,0,0,0,0,0,0,0,0,0,0,0,0,0,0,0,0,0,0,0,0,0,0,0,0,0,0,0,0,0,0,0,0,0,0,0,0,0,0,0,0,0,0,0,0,0,0,0,0,0,0,0,0,0,0,0,0,0,0,0,0,0,0,0,0,0,0,0,0,0,0,0,0,0,0,0,0,0,0,0,0,0,0,0,0,0,0,0,0,0,0,0,0,0,0,0,0,0,0,0,0,0,0,0,0,0,0,0,0,0,0,0,0,0,0,0,0,0,0,0,0,0,0,0,0,0,0,0,0,0,0,0,0,0,0,0,0,0,0,0,0,0,0,0,0,0,0,0,0,0,0,0,0,0,0,0,0,0,0,0,0,0,0,0,0,0,0,0,0,0,0,0,0,0,0,0,0,0,0,0,0,0,0,0,0,0,0,0,0,0,0,0,0,0,0,0,0,0,0,0,0,0,0,0,0,0,0,0,0,0,0,0,0,0,0,0,0,0,0,0,0,0,0,0,0,0,0,0,0,0,0,0,0,0,0,0,0,0,0,0,0,0,0,0,0,0,0,0,0,0,0,0,0,0,0,0,0,0,0,0,0,0,0,0,0,0,0,0,0,0,0,0,0,0,0,0,0,0,0,0,0,0,0,0,0,0,0,0,0,0,0,0,0,0,0,0,0,0,0,0,0,0,0,0,0,0,0,0,0,0,0,0,0,0,0,0,0,0,0,0,0,0,0,0,0,0,0,0,0,0,0,0,0,0,0,0,0,0,0,0,0,0,0,0,0,0,0,0,0,0,0,0,0,0,0,0,0,0,0,0,0,0,0,0,0,0,0,0,0,0,0,0,0,0,0,0,0,0,0,0,0,0,0,0,0,0,0,0,0,0,0,0,0,0,0,0,0,0,0,0,0,0,0,0,0,0,0,0,0,0,0,0,0,0,0,0,0,0,0,0,0,0,0,0,0,0,0,0,0,0,0,0,0,0,0,0,0,0,0,0,0,0,0,0,0,0,0,0,0,0,0,0,0,0,0,0,0,0,0,0,0,0,0,0,0,0,0,0,0,0,0,0,0,0,0,0,0,0,0,0,0,0,0,0,0,0,0,0,0,0,0,0,0,0,0,0,0,0,0,0,0,0,0,0,0,0,0,0,0,0,0,0,0,0,0,0,0,0,0,0,0,0,0,0,0,0,0,0,0,0,0,0,0,0,0,0,0,0,0,0,0,0,0,0,0,0,0,0,0,0,0,0,0,0,0,0,0,0,0,0,0,0,0,0,0,0,0,0,0,0,0,0,0,0,0,0,0,0,0,0,0,0,0,0,0,0,0,0,0,0,0,0,0,0,0,0,0,0,0,0,0,0,0,0,0,0,0,0,0,0,0,0,0,0,0,0,0,0,0,0,0,0,0,0,0,0,0,0,0,0,0,0,0,0,0,0,0,0,0,0,0,0,0,0,0,0,0,0,0,0,0,0,0,0,0,0,0,0,0,0,0,0,0,0,0,0,0,0,0,0,0,0,0,0,0,0,0,0,0,0,0,0,0,0,0,0,0,0,0,0,0,0,0,0,0,0,
0,0,0,0,0,0,0,0,0,0,0,0,0,0,0,0,0,0,0,0,0,0,0,0,0,0,0,0,0,0,0,0,0,0,0,0,0,0,0,0,0,0,0,0,0,0,0,0,0,0,0,0,0,0,0,0,0,0,0,0,0,0,0,0,0,0,0,0,0,0,0,0,0,0,0,0,0,0,0,0,0,0,0,0,0,0,0,0,0,0,0,0,0,0,0,0,0,0,0,0,0,0,0,0,0,0,0,0,0,0,0,0,0,0,0,0,0,0,0,0,0,0,0,0,0,0,0,0,0,0,0,0,0,0,0,0,0,0,0,0,0,0,0,0,0,0,0,0,0,0,0,0,0,0,0,0,0,0,0,0,0,0,0,0,0,0,0,0,0,0,0,0,0,0,0,0,0,0,0,0,0,0,0,0,0,0,0,0,0,0,0,0,0,0,0,0,0,0,0,0,0,0,0,0,0,0,0,0,0,0,0,0,0,0,0,0,0,0,0,0,0,0,0,0,0,0,0,0,0,0,0,0,0,0,0,0,0,0,0,0,0,0,0,0,0,0,0,0,0,0,0,0,0,0,0,0,0,0,0,0,0,0,0,0,0,0,0,0,0,0,0,0,0,0,0,0,0,0,0,0,0,0,0,0,0,0,0,0,0,0,0,0,0,0,0,0,0,0,0,0,0,0,0,0,0,0,0,0,0,0,0,0,0,0,0,0,0,0,0,0,0,0,0,0,0,0,0,0,0,0,0,0,0,0,0,0,0,0,0,0,0,0,0,0,0,0,0,0,0,0,0,0,0,0,0,0,0,0,0,0,0,0,0,0,0,0,0,0,0,0,0,0,0,0,0,0,0,0,0,0,0,0,0,0,0,0,0,0,0,0,0,0,0,0,0,0,0,0,0,0,0,0,0,0,0,0,0,0,0,0,0,0,0,0,0,0,0,0,0,0,0,0,0,0,0,0,0,0,0,0,0,0,0,0,0,0,0,0,0,0,0,0,0,0,0,0,0,0,0,0,0,0,0,0,0,0,0,0,0,0,0,0,0,0,0,0,0,0,0,0,0,0,0,0,0,0,0,0,0,0,0,0,0,0,0,0,0,0,0,0,0,0,0,0,0,0,0,0,0,0,0,0,0,0,0,0,0,0,0,0,0,0,0,0,0,0,0,0,0,0,0,0,0,0,0,0,0,0,0,0,0,0,0,0,0,0,0,0,0,0,0,0,0,0,0,0,0,0,0,0,0,0,0,0,0,0,0,0,0,0,0,0,0,0,0,0,0,0,0,0,0,0,0,0,0,0,0,0,0,0,0,0,0,0,0,0,0,0,0,0,0,0,0,0,0,0,0,0,0,0,0,0,0,0,0,0,0,0,0,0,0,0,0,0,0,0,0,0,0,0,0,0,0,0,0,0,0,0,0,0,0,0,0,0,0,0,0,0,0,0,0,0,0,0,0,0,0,0,0,0,0,0,0,0,0,0,0,0,0,0,0,0,0,0,0,0,0,0,0,0,0,0,0,0,0,0,0,0,0,0,0,0,0,0,0,0,0,0,0,0,0,0,0,0,0,0,0,0,0,0,0,0,0,0,0,0,0,0,0,0,0,0,0,0,0,0,0,0,0,0,0,0,0,0,0,0,0,0,0,0,0,0,0,0,0,0,0,0,0,0,0,0,0,0,0,0,0,0,0,0,0,0,0,0,0,0,0,0,0,0,0,0,0,0,0,0,0,0,0,0,0,0,0,0,0,0,0,0,0,0,0,0,0,0,0,0,0,0,0,0,0,0,0,0,0,0,0,0,0,0,0,0,0,0,0,0,0,0,0,0,0,0,0,0,0,0,0,0,0,0,0,0,0,0,0,0,0,0,0,0,0,0,0,0,0,0,0,0,0,0,0,0,0,0,0,0,0,0,0,0,0,0,0,0,0,0,0,0,0,0,0,0,0,0,0,0,0,0,0,0,0,0,0,0,0,0,0,0,0,0,0,0,0,0,0,0,0,0,0,0,0,0,0,0,0,0,0,0,0,0,0,0,0,0,0,0,0,0,0,0,0,0,0,0,0,0,0,0,0,0,0,0,0,0,0,0,0,0,0,0,0,0,0,0,0,0,0,0,0,0,0,0,0,0,0,0,0,0,0,0,0,0,0,0,0,0,0,0,0,0,0,0,0,0,0,0,0,0,0,0,0,0,0,0,0,0,0,0,0,0,0,0,0,0,0,0,0,0,0,0,0,0,0,0,0,0,0,0,0,0,
0,0,0,0,0,0,0,0,0,0,0,0,0,0,0,0,0,0,0,0,0,0,0,0,0,0,0,0,0,0,0,0,0,0,0,0,0,0,0,0,0,0,0,0,0,0,0,0,0,0,0,0,0,0,0,0,0,0,0,0,0,0,0,0,0,0,0,0,0,0,0,0,0,0,0,0,0,0,0,0,0,0,0,0,0,0,0,0,0,0,0,0,0,0,0,0,0,0,0,0,0,0,0,0,0,0,0,0,0,0,0,0,0,0,0,0,0,0,0,0,0,0,0,0,0,0,0,0,0,0,0,0,0,0,0,0,0,0,0,0,0,0,0,0,0,0,0,0,0,0,0,0,0,0,0,0,0,0,0,0,0,0,0,0,0,0,0,0,0,0,0,0,0,0,0,0,0,0,0,0,0,0,0,0,0,0,0,0,0,0,0,0,0,0,0,0,0,0,0,0,0,0,0,0,0,0,0,0,0,0,0,0,0,0,0,0,0,0,0,0,0,0,0,0,0,0,0,0,0,0,0,0,0,0,0,0,0,0,0,0,0,0,0,0,0,0,0,0,0,0,0,0,0,0,0,0,0,0,0,0,0,0,0,0,0,0,0,0,0,0,0,0,0,0,0,0,0,0,0,0,0,0,0,0,0,0,0,0,0,0,0,0,0,0,0,0,0,0,0,0,0,0,0,0,0,0,0,0,0,0,0,0,0,0,0,0,0,0,0,0,0,0,0,0,0,0,0,0,0,0,0,0,0,0,0,0,0,0,0,0,0,0,0,0,0,0,0,0,0,0,0,0,0,0,0,0,0,0,0,0,0,0,0,0,0,0,0,0,0,0,0,0,0,0,0,0,0,0,0,0,0,0,0,0,0,0,0,0,0,0,0,0,0,0,0,0,0,0,0,0,0,0,0,0,0,0,0,0,0,0,0,0,0,0,0,0,0,0,0,0,0,0,0,0,0,0,0,0,0,0,0,0,0,0,0,0,0,0,0,0,0,0,0,0,0,0,0,0,0,0,0,0,0,0,0,0,0,0,0,0,0,0,0,0,0,0,0,0,0,0,0,0,0,0,0,0,0,0,0,0,0,0,0,0,0,0,0,0,0,0,0,0,0,0,0,0,0,0,0,0,0,0,0,0,0,0,0,0,0,0,0,0,0,0,0,0,0,0,0,0,0,0,0,0,0,0,0,0,0,0,0,0,0,0,0,0,0,0,0,0,0,0,0,0,0,0,0,0,0,0,0,0,0,0,0,0,0,0,0,0,0,0,0,0,0,0,0,0,0,0,0,0,0,0,0,0,0,0,0,0,0,0,0,0,0,0,0,0,0,0,0,0,0,0,0,0,0,0,0,0,0,0,0,0,0,0,0,0,0,0,0,0,0,0,0,0,0,0,0,0,0,0,0,0,0,0,0,0,0,0,0,0,0,0,0,0,0,0,0,0,0,0,0,0,0,0,0,0,0,0,0,0,0,0,0,0,0,0,0,0,0,0,0,0,0,0,0,0,0,0,0,0,0,0,0,0,0,0,0,0,0,0,0,0,0,0,0,0,0,0,0,0,0,0,0,0,0,0,0,0,0,0,0,0,0,0,0,0,0,0,0,0,0,0,0,0,0,0,0,0,0,0,0,0,0,0,0,0,0,0,0,0,0,0,0,0,0,0,0,0,0,0,0,0,0,0,0,0,0,0,0,0,0,0,0,0,0,0,0,0,0,0,0,0,0,0,0,0,0,0,0,0,0,0,0,0,0,0,0,0,0,0,0,0,0,0,0,0,0,0,0,0,0,0,0,0,0,0,0,0,0,0,0,0,0,0,0,0,0,0,0,0,0,0,0,0,0,0,0,0,0,0,0,0,0,0,0,0,0,0,0,0,0,0,0,0,0,0,0,0,0,0,0,0,0,0,0,0,0,0,0,0,0,0,0,0,0,0,0,0,0,0,0,0,0,0,0,0,0,0,0,0,0,0,0,0,0,0,0,0,0,0,0,0,0,0,0,0,0,0,0,0,0,0,0,0,0,0,0,0,0,0,0,0,0,0,0,0,0,0,0,0,0,0,0,0,0,0,0,0,0,0,0,0,0,0,0,0,0,0,0,0,0,0,0,0,0,0,0,0,0,0,0,0,0,0,0,0,0,0,0,0,0,0,0,0,0,0,0,0,0,0,0,0,0,0,0,0,0,0,0,0,0,0,0,0,0,0,0,0,0,0,0,0,0,0,0,0,0,0,0,0,0,0,0,0,0,0,0,0,
0,0,0,0,0,0,0,0,0,0,0,0,0,0,0,0,0,0,0,0,0,0,0,0,0,0,0,0,0,0,0,0,0,0,0,0,0,0,0,0,0,0,0,0,0,0,0,0,0,0,0,0,0,0,0,0,0,0,0,0,0,0,0,0,0,0,0,0,0,0,0,0,0,0,0,0,0,0,0,0,0,0,0,0,0,0,0,0,0,0,0,0,0,0,0,0,0,0,0,0,0,0,0,0,0,0,0,0,0,0,0,0,0,0,0,0,0,0,0,0,0,0,0,0,0,0,0,0,0,0,0,0,0,0,0,0,0,0,0,0,0,0,0,0,0,0,0,0,0,0,0,0,0,0,0,0,0,0,0,0,0,0,0,0,0,0,0,0,0,0,0,0,0,0,0,0,0,0,0,0,0,0,0,0,0,0,0,0,0,0,0,0,0,0,0,0,0,0,0,0,0,0,0,0,0,0,0,0,0,0,0,0,0,0,0,0,0,0,0,0,0,0,0,0,0,0,0,0,0,0,0,0,0,0,0,0,0,0,0,0,0,0,0,0,0,0,0,0,0,0,0,0,0,0,0,0,0,0,0,0,0,0,0,0,0,0,0,0,0,0,0,0,0,0,0,0,0,0,0,0,0,0,0,0,0,0,0,0,0,0,0,0,0,0,0,0,0,0,0,0,0,0,0,0,0,0,0,0,0,0,0,0,0,0,0,0,0,0,0,0,0,0,0,0,0,0,0,0,0,0,0,0,0,0,0,0,0,0,0,0,0,0,0,0,0,0,0,0,0,0,0,0,0,0,0,0,0,0,0,0,0,0,0,0,0,0,0,0,0,0,0,0,0,0,0,0,0,0,0,0,0,0,0,0,0,0,0,0,0,0,0,0,0,0,0,0,0,0,0,0,0,0,0,0,0,0,0,0,0,0,0,0,0,0,0,0,0,0,0,0,0,0,0,0,0,0,0,0,0,0,0,0,0,0,0,0,0,0,0,0,0,0,0,0,0,0,0,0,0,0,0,0,0,0,0,0,0,0,0,0,0,0,0,0,0,0,0,0,0,0,0,0,0,0,0,0,0,0,0,0,0,0,0,0,0,0,0,0,0,0,0,0,0,0,0,0,0,0,0,0,0,0,0,0,0,0,0,0,0,0,0,0,0,0,0,0,0,0,0,0,0,0,0,0,0,0,0,0,0,0,0,0,0,0,0,0,0,0,0,0,0,0,0,0,0,0,0,0,0,0,0,0,0,0,0,0,0,0,0,0,0,0,0,0,0,0,0,0,0,0,0,0,0,0,0,0,0,0,0,0,0,0,0,0,0,0,0,0,0,0,0,0,0,0,0,0,0,0,0,0,0,0,0,0,0,0,0,0,0,0,0,0,0,0,0,0,0,0,0,0,0,0,0,0,0,0,0,0,0,0,0,0,0,0,0,0,0,0,0,0,0,0,0,0,0,0,0,0,0,0,0,0,0,0,0,0,0,0,0,0,0,0,0,0,0,0,0,0,0,0,0,0,0,0,0,0,0,0,0,0,0,0,0,0,0,0,0,0,0,0,0,0,0,0,0,0,0,0,0,0,0,0,0,0,0,0,0,0,0,0,0,0,0,0,0,0,0,0,0,0,0,0,0,0,0,0,0,0,0,0,0,0,0,0,0,0,0,0,0,0,0,0,0,0,0,0,0,0,0,0,0,0,0,0,0,0,0,0,0,0,0,0,0,0,0,0,0,0,0,0,0,0,0,0,0,0,0,0,0,0,0,0,0,0,0,0,0,0,0,0,0,0,0,0,0,0,0,0,0,0,0,0,0,0,0,0,0,0,0,0,0,0,0,0,0,0,0,0,0,0,0,0,0,0,0,0,0,0,0,0,0,0,0,0,0,0,0,0,0,0,0,0,0,0,0,0,0,0,0,0,0,0,0,0,0,0,0,0,0,0,0,0,0,0,0,0,0,0,0,0,0,0,0,0,0,0,0,0,0,0,0,0,0,0,0,0,0,0,0,0,0,0,0,0,0,0,0,0,0,0,0,0,0,0,0,0,0,0,0,0,0,0,0,0,0,0,0,0,0,0,0,0,0,0,0,0,0,0,0,0,0,0,0,0,0,0,0,0,0,0,0,0,0,0,0,0,0,0,0,0,0,0,0,0,0,0,0,0,0,0,0,0,0,0,0,0,0,0,0,0,0,0,0,0,0,0,0,0,0,0,0,0,0,0,0,0,0,0,0,0,0,0,0,0,0,0,0,0,0,0,
0,0,0,0,0,0,0,0,0,0,0,0,0,0,0,0,0,0,0,0,0,0,0,0,0,0,0,0,0,0,0,0,0,0,0,0,0,0,0,0,0,0,0,0,0,0,0,0,0,0,0,0,0,0,0,0,0,0,0,0,0,0,0,0,0,0,0,0,0,0,0,0,0,0,0,0,0,0,0,0,0,0,0,0,0,0,0,0,0,0,0,0,0,0,0,0,0,0,0,0,0,0,0,0,0,0,0,0,0,0,0,0,0,0,0,0,0,0,0,0,0,0,0,0,0,0,0,0,0,0,0,0,0,0,0,0,0,0,0,0,0,0,0,0,0,0,0,0,0,0,0,0,0,0,0,0,0,0,0,0,0,0,0,0,0,0,0,0,0,0,0,0,0,0,0,0,0,0,0,0,0,0,0,0,0,0,0,0,0,0,0,0,0,0,0,0,0,0,0,0,0,0,0,0,0,0,0,0,0,0,0,0,0,0,0,0,0,0,0,0,0,0,0,0,0,0,0,0,0,0,0,0,0,0,0,0,0,0,0,0,0,0,0,0,0,0,0,0,0,0,0,0,0,0,0,0,0,0,0,0,0,0,0,0,0,0,0,0,0,0,0,0,0,0,0,0,0,0,0,0,0,0,0,0,0,0,0,0,0,0,0,0,0,0,0,0,0,0,0,0,0,0,0,0,0,0,0,0,0,0,0,0,0,0,0,0,0,0,0,0,0,0,0,0,0,0,0,0,0,0,0,0,0,0,0,0,0,0,0,0,0,0,0,0,0,0,0,0,0,0,0,0,0,0,0,0,0,0,0,0,0,0,0,0,0,0,0,0,0,0,0,0,0,0,0,0,0,0,0,0,0,0,0,0,0,0,0,0,0,0,0,0,0,0,0,0,0,0,0,0,0,0,0,0,0,0,0,0,0,0,0,0,0,0,0,0,0,0,0,0,0,0,0,0,0,0,0,0,0,0,0,0,0,0,0,0,0,0,0,0,0,0,0,0,0,0,0,0,0,0,0,0,0,0,0,0,0,0,0,0,0,0,0,0,0,0,0,0,0,0,0,0,0,0,0,0,0,0,0,0,0,0,0,0,0,0,0,0,0,0,0,0,0,0,0,0,0,0,0,0,0,0,0,0,0,0,0,0,0,0,0,0,0,0,0,0,0,0,0,0,0,0,0,0,0,0,0,0,0,0,0,0,0,0,0,0,0,0,0,0,0,0,0,0,0,0,0,0,0,0,0,0,0,0,0,0,0,0,0,0,0,0,0,0,0,0,0,0,0,0,0,0,0,0,0,0,0,0,0,0,0,0,0,0,0,0,0,0,0,0,0,0,0,0,0,0,0,0,0,0,0,0,0,0,0,0,0,0,0,0,0,0,0,0,0,0,0,0,0,0,0,0,0,0,0,0,0,0,0,0,0,0,0,0,0,0,0,0,0,0,0,0,0,0,0,0,0,0,0,0,0,0,0,0,0,0,0,0,0,0,0,0,0,0,0,0,0,0,0,0,0,0,0,0,0,0,0,0,0,0,0,0,0,0,0,0,0,0,0,0,0,0,0,0,0,0,0,0,0,0,0,0,0,0,0,0,0,0,0,0,0,0,0,0,0,0,0,0,0,0,0,0,0,0,0,0,0,0,0,0,0,0,0,0,0,0,0,0,0,0,0,0,0,0,0,0,0,0,0,0,0,0,0,0,0,0,0,0,0,0,0,0,0,0,0,0,0,0,0,0,0,0,0,0,0,0,0,0,0,0,0,0,0,0,0,0,0,0,0,0,0,0,0,0,0,0,0,0,0,0,0,0,0,0,0,0,0,0,0,0,0,0,0,0,0,0,0,0,0,0,0,0,0,0,0,0,0,0,0,0,0,0,0,0,0,0,0,0,0,0,0,0,0,0,0,0,0,0,0,0,0,0,0,0,0,0,0,0,0,0,0,0,0,0,0,0,0,0,0,0,0,0,0,0,0,0,0,0,0,0,0,0,0,0,0,0,0,0,0,0,0,0,0,0,0,0,0,0,0,0,0,0,0,0,0,0,0,0,0,0,0,0,0,0,0,0,0,0,0,0,0,0,0,0,0,0,0,0,0,0,0,0,0,0,0,0,0,0,0,0,0,0,0,0,0,0,0,0,0,0,0,0,0,0,0,0,0,0,0,0,0,0,0,0,0,0,0,0,0,0,0,0,0,0,0,0,0,0,0,0,0,0,0,0,0,0,0,0,0,0,0,0,0,0,0,0,0,0,0,0,
0,0,0,0,0,0,0,0,0,0,0,0,0,0,0,0,0,0,0,0,0,0,0,0,0,0,0,0,0,0,0,0,0,0,0,0,0,0,0,0,0,0,0,0,0,0,0,0,0,0,0,0,0,0,0,0,0,0,0,0,0,0,0,0,0,0,0,0,0,0,0,0,0,0,0,0,0,0,0,0,0,0,0,0,0,0,0,0,0,0,0,0,0,0,0,0,0,0,0,0,0,0,0,0,0,0,0,0,0,0,0,0,0,0,0,0,0,0,0,0,0,0,0,0,0,0,0,0,0,0,0,0,0,0,0,0,0,0,0,0,0,0,0,0,0,0,0,0,0,0,0,0,0,0,0,0,0,0,0,0,0,0,0,0,0,0,0,0,0,0,0,0,0,0,0,0,0,0,0,0,0,0,0,0,0,0,0,0,0,0,0,0,0,0,0,0,0,0,0,0,0,0,0,0,0,0,0,0,0,0,0,0,0,0,0,0,0,0,0,0,0,0,0,0,0,0,0,0,0,0,0,0,0,0,0,0,0,0,0,0,0,0,0,0,0,0,0,0,0,0,0,0,0,0,0,0,0,0,0,0,0,0,0,0,0,0,0,0,0,0,0,0,0,0,0,0,0,0,0,0,0,0,0,0,0,0,0,0,0,0,0,0,0,0,0,0,0,0,0,0,0,0,0,0,0,0,0,0,0,0,0,0,0,0,0,0,0,0,0,0,0,0,0,0,0,0,0,0,0,0,0,0,0,0,0,0,0,0,0,0,0,0,0,0,0,0,0,0,0,0,0,0,0,0,0,0,0,0,0,0,0,0,0,0,0,0,0,0,0,0,0,0,0,0,0,0,0,0,0,0,0,0,0,0,0,0,0,0,0,0,0,0,0,0,0,0,0,0,0,0,0,0,0,0,0,0,0,0,0,0,0,0,0,0,0,0,0,0,0,0,0,0,0,0,0,0,0,0,0,0,0,0,0,0,0,0,0,0,0,0,0,0,0,0,0,0,0,0,0,0,0,0,0,0,0,0,0,0,0,0,0,0,0,0,0,0,0,0,0,0,0,0,0,0,0,0,0,0,0,0,0,0,0,0,0,0,0,0,0,0,0,0,0,0,0,0,0,0,0,0,0,0,0,0,0,0,0,0,0,0,0,0,0,0,0,0,0,0,0,0,0,0,0,0,0,0,0,0,0,0,0,0,0,0,0,0,0,0,0,0,0,0,0,0,0,0,0,0,0,0,0,0,0,0,0,0,0,0,0,0,0,0,0,0,0,0,0,0,0,0,0,0,0,0,0,0,0,0,0,0,0,0,0,0,0,0,0,0,0,0,0,0,0,0,0,0,0,0,0,0,0,0,0,0,0,0,0,0,0,0,0,0,0,0,0,0,0,0,0,0,0,0,0,0,0,0,0,0,0,0,0,0,0,0,0,0,0,0,0,0,0,0,0,0,0,0,0,0,0,0,0,0,0,0,0,0,0,0,0,0,0,0,0,0,0,0,0,0,0,0,0,0,0,0,0,0,0,0,0,0,0,0,0,0,0,0,0,0,0,0,0,0,0,0,0,0,0,0,0,0,0,0,0,0,0,0,0,0,0,0,0,0,0,0,0,0,0,0,0,0,0,0,0,0,0,0,0,0,0,0,0,0,0,0,0,0,0,0,0,0,0,0,0,0,0,0,0,0,0,0,0,0,0,0,0,0,0,0,0,0,0,0,0,0,0,0,0,0,0,0,0,0,0,0,0,0,0,0,0,0,0,0,0,0,0,0,0,0,0,0,0,0,0,0,0,0,0,0,0,0,0,0,0,0,0,0,0,0,0,0,0,0,0,0,0,0,0,0,0,0,0,0,0,0,0,0,0,0,0,0,0,0,0,0,0,0,0,0,0,0,0,0,0,0,0,0,0,0,0,0,0,0,0,0,0,0,0,0,0,0,0,0,0,0,0,0,0,0,0,0,0,0,0,0,0,0,0,0,0,0,0,0,0,0,0,0,0,0,0,0,0,0,0,0,0,0,0,0,0,0,0,0,0,0,0,0,0,0,0,0,0,0,0,0,0,0,0,0,0,0,0,0,0,0,0,0,0,0,0,0,0,0,0,0,0,0,0,0,0,0,0,0,0,0,0,0,0,0,0,0,0,0,0,0,0,0,0,0,0,0,0,0,0,0,0,0,0,0,0,0,0,0,0,0,0,0,0,0,0,0,0,0,0,0,0,0,0,0,0,0,0,0,0,0,0,0,0,0,0,0,
0,0,0,0,0,0,0,0,0,0,0,0,0,0,0,0,0,0,0,0,0,0,0,0,0,0,0,0,0,0,0,0,0,0,0,0,0,0,0,0,0,0,0,0,0,0,0,0,0,0,0,0,0,0,0,0,0,0,0,0,0,0,0,0,0,0,0,0,0,0,0,0,0,0,0,0,0,0,0,0,0,0,0,0,0,0,0,0,0,0,0,0,0,0,0,0,0,0,0,0,0,0,0,0,0,0,0,0,0,0,0,0,0,0,0,0,0,0,0,0,0,0,0,0,0,0,0,0,0,0,0,0,0,0,0,0,0,0,0,0,0,0,0,0,0,0,0,0,0,0,0,0,0,0,0,0,0,0,0,0,0,0,0,0,0,0,0,0,0,0,0,0,0,0,0,0,0,0,0,0,0,0,0,0,0,0,0,0,0,0,0,0,0,0,0,0,0,0,0,0,0,0,0,0,0,0,0,0,0,0,0,0,0,0,0,0,0,0,0,0,0,0,0,0,0,0,0,0,0,0,0,0,0,0,0,0,0,0,0,0,0,0,0,0,0,0,0,0,0,0,0,0,0,0,0,0,0,0,0,0,0,0,0,0,0,0,0,0,0,0,0,0,0,0,0,0,0,0,0,0,0,0,0,0,0,0,0,0,0,0,0,0,0,0,0,0,0,0,0,0,0,0,0,0,0,0,0,0,0,0,0,0,0,0,0,0,0,0,0,0,0,0,0,0,0,0,0,0,0,0,0,0,0,0,0,0,0,0,0,0,0,0,0,0,0,0,0,0,0,0,0,0,0,0,0,0,0,0,0,0,0,0,0,0,0,0,0,0,0,0,0,0,0,0,0,0,0,0,0,0,0,0,0,0,0,0,0,0,0,0,0,0,0,0,0,0,0,0,0,0,0,0,0,0,0,0,0,0,0,0,0,0,0,0,0,0,0,0,0,0,0,0,0,0,0,0,0,0,0,0,0,0,0,0,0,0,0,0,0,0,0,0,0,0,0,0,0,0,0,0,0,0,0,0,0,0,0,0,0,0,0,0,0,0,0,0,0,0,0,0,0,0,0,0,0,0,0,0,0,0,0,0,0,0,0,0,0,0,0,0,0,0,0,0,0,0,0,0,0,0,0,0,0,0,0,0,0,0,0,0,0,0,0,0,0,0,0,0,0,0,0,0,0,0,0,0,0,0,0,0,0,0,0,0,0,0,0,0,0,0,0,0,0,0,0,0,0,0,0,0,0,0,0,0,0,0,0,0,0,0,0,0,0,0,0,0,0,0,0,0,0,0,0,0,0,0,0,0,0,0,0,0,0,0,0,0,0,0,0,0,0,0,0,0,0,0,0,0,0,0,0,0,0,0,0,0,0,0,0,0,0,0,0,0,0,0,0,0,0,0,0,0,0,0,0,0,0,0,0,0,0,0,0,0,0,0,0,0,0,0,0,0,0,0,0,0,0,0,0,0,0,0,0,0,0,0,0,0,0,0,0,0,0,0,0,0,0,0,0,0,0,0,0,0,0,0,0,0,0,0,0,0,0,0,0,0,0,0,0,0,0,0,0,0,0,0,0,0,0,0,0,0,0,0,0,0,0,0,0,0,0,0,0,0,0,0,0,0,0,0,0,0,0,0,0,0,0,0,0,0,0,0,0,0,0,0,0,0,0,0,0,0,0,0,0,0,0,0,0,0,0,0,0,0,0,0,0,0,0,0,0,0,0,0,0,0,0,0,0,0,0,0,0,0,0,0,0,0,0,0,0,0,0,0,0,0,0,0,0,0,0,0,0,0,0,0,0,0,0,0,0,0,0,0,0,0,0,0,0,0,0,0,0,0,0,0,0,0,0,0,0,0,0,0,0,0,0,0,0,0,0,0,0,0,0,0,0,0,0,0,0,0,0,0,0,0,0,0,0,0,0,0,0,0,0,0,0,0,0,0,0,0,0,0,0,0,0,0,0,0,0,0,0,0,0,0,0,0,0,0,0,0,0,0,0,0,0,0,0,0,0,0,0,0,0,0,0,0,0,0,0,0,0,0,0,0,0,0,0,0,0,0,0,0,0,0,0,0,0,0,0,0,0,0,0,0,0,0,0,0,0,0,0,0,0,0,0,0,0,0,0,0,0,0,0,0,0,0,0,0,0,0,0,0,0,0,0,0,0,0,0,0,0,0,0,0,0,0,0,0,0,0,0,0,0,0,0,0,0,0,0,0,0,0,0,0,0,0,0,0,0,0,0,0,0,0,0,0,0,0,
0,0,0,0,0,0,0,0,0,0,0,0,0,0,0,0,0,0,0,0,0,0,0,0,0,0,0,0,0,0,0,0,0,0,0,0,0,0,0,0,0,0,0,0,0,0,0,0,0,0,0,0,0,0,0,0,0,0,0,0,0,0,0,0,0,0,0,0,0,0,0,0,0,0,0,0,0,0,0,0,0,0,0,0,0,0,0,0,0,0,0,0,0,0,0,0,0,0,0,0,0,0,0,0,0,0,0,0,0,0,0,0,0,0,0,0,0,0,0,0,0,0,0,0,0,0,0,0,0,0,0,0,0,0,0,0,0,0,0,0,0,0,0,0,0,0,0,0,0,0,0,0,0,0,0,0,0,0,0,0,0,0,0,0,0,0,0,0,0,0,0,0,0,0,0,0,0,0,0,0,0,0,0,0,0,0,0,0,0,0,0,0,0,0,0,0,0,0,0,0,0,0,0,0,0,0,0,0,0,0,0,0,0,0,0,0,0,0,0,0,0,0,0,0,0,0,0,0,0,0,0,0,0,0,0,0,0,0,0,0,0,0,0,0,0,0,0,0,0,0,0,0,0,0,0,0,0,0,0,0,0,0,0,0,0,0,0,0,0,0,0,0,0,0,0,0,0,0,0,0,0,0,0,0,0,0,0,0,0,0,0,0,0,0,0,0,0,0,0,0,0,0,0,0,0,0,0,0,0,0,0,0,0,0,0,0,0,0,0,0,0,0,0,0,0,0,0,0,0,0,0,0,0,0,0,0,0,0,0,0,0,0,0,0,0,0,0,0,0,0,0,0,0,0,0,0,0,0,0,0,0,0,0,0,0,0,0,0,0,0,0,0,0,0,0,0,0,0,0,0,0,0,0,0,0,0,0,0,0,0,0,0,0,0,0,0,0,0,0,0,0,0,0,0,0,0,0,0,0,0,0,0,0,0,0,0,0,0,0,0,0,0,0,0,0,0,0,0,0,0,0,0,0,0,0,0,0,0,0,0,0,0,0,0,0,0,0,0,0,0,0,0,0,0,0,0,0,0,0,0,0,0,0,0,0,0,0,0,0,0,0,0,0,0,0,0,0,0,0,0,0,0,0,0,0,0,0,0,0,0,0,0,0,0,0,0,0,0,0,0,0,0,0,0,0,0,0,0,0,0,0,0,0,0,0,0,0,0,0,0,0,0,0,0,0,0,0,0,0,0,0,0,0,0,0,0,0,0,0,0,0,0,0,0,0,0,0,0,0,0,0,0,0,0,0,0,0,0,0,0,0,0,0,0,0,0,0,0,0,0,0,0,0,0,0,0,0,0,0,0,0,0,0,0,0,0,0,0,0,0,0,0,0,0,0,0,0,0,0,0,0,0,0,0,0,0,0,0,0,0,0,0,0,0,0,0,0,0,0,0,0,0,0,0,0,0,0,0,0,0,0,0,0,0,0,0,0,0,0,0,0,0,0,0,0,0,0,0,0,0,0,0,0,0,0,0,0,0,0,0,0,0,0,0,0,0,0,0,0,0,0,0,0,0,0,0,0,0,0,0,0,0,0,0,0,0,0,0,0,0,0,0,0,0,0,0,0,0,0,0,0,0,0,0,0,0,0,0,0,0,0,0,0,0,0,0,0,0,0,0,0,0,0,0,0,0,0,0,0,0,0,0,0,0,0,0,0,0,0,0,0,0,0,0,0,0,0,0,0,0,0,0,0,0,0,0,0,0,0,0,0,0,0,0,0,0,0,0,0,0,0,0,0,0,0,0,0,0,0,0,0,0,0,0,0,0,0,0,0,0,0,0,0,0,0,0,0,0,0,0,0,0,0,0,0,0,0,0,0,0,0,0,0,0,0,0,0,0,0,0,0,0,0,0,0,0,0,0,0,0,0,0,0,0,0,0,0,0,0,0,0,0,0,0,0,0,0,0,0,0,0,0,0,0,0,0,0,0,0,0,0,0,0,0,0,0,0,0,0,0,0,0,0,0,0,0,0,0,0,0,0,0,0,0,0,0,0,0,0,0,0,0,0,0,0,0,0,0,0,0,0,0,0,0,0,0,0,0,0,0,0,0,0,0,0,0,0,0,0,0,0,0,0,0,0,0,0,0,0,0,0,0,0,0,0,0,0,0,0,0,0,0,0,0,0,0,0,0,0,0,0,0,0,0,0,0,0,0,0,0,0,0,0,0,0,0,0,0,0,0,0,0,0,0,0,0,0,0,0,0,0,0,0,0,0,0,0,0,0,0,0,0,0,0,0,0,0,0,0,0,
0,0,0,0,0,0,0,0,0,0,0,0,0,0,0,0,0,0,0,0,0,0,0,0,0,0,0,0,0,0,0,0,0,0,0,0,0,0,0,0,0,0,0,0,0,0,0,0,0,0,0,0,0,0,0,0,0,0,0,0,0,0,0,0,0,0,0,0,0,0,0,0,0,0,0,0,0,0,0,0,0,0,0,0,0,0,0,0,0,0,0,0,0,0,0,0,0,0,0,0,0,0,0,0,0,0,0,0,0,0,0,0,0,0,0,0,0,0,0,0,0,0,0,0,0,0,0,0,0,0,0,0,0,0,0,0,0,0,0,0,0,0,0,0,0,0,0,0,0,0,0,0,0,0,0,0,0,0,0,0,0,0,0,0,0,0,0,0,0,0,0,0,0,0,0,0,0,0,0,0,0,0,0,0,0,0,0,0,0,0,0,0,0,0,0,0,0,0,0,0,0,0,0,0,0,0,0,0,0,0,0,0,0,0,0,0,0,0,0,0,0,0,0,0,0,0,0,0,0,0,0,0,0,0,0,0,0,0,0,0,0,0,0,0,0,0,0,0,0,0,0,0,0,0,0,0,0,0,0,0,0,0,0,0,0,0,0,0,0,0,0,0,0,0,0,0,0,0,0,0,0,0,0,0,0,0,0,0,0,0,0,0,0,0,0,0,0,0,0,0,0,0,0,0,0,0,0,0,0,0,0,0,0,0,0,0,0,0,0,0,0,0,0,0,0,0,0,0,0,0,0,0,0,0,0,0,0,0,0,0,0,0,0,0,0,0,0,0,0,0,0,0,0,0,0,0,0,0,0,0,0,0,0,0,0,0,0,0,0,0,0,0,0,0,0,0,0,0,0,0,0,0,0,0,0,0,0,0,0,0,0,0,0,0,0,0,0,0,0,0,0,0,0,0,0,0,0,0,0,0,0,0,0,0,0,0,0,0,0,0,0,0,0,0,0,0,0,0,0,0,0,0,0,0,0,0,0,0,0,0,0,0,0,0,0,0,0,0,0,0,0,0,0,0,0,0,0,0,0,0,0,0,0,0,0,0,0,0,0,0,0,0,0,0,0,0,0,0,0,0,0,0,0,0,0,0,0,0,0,0,0,0,0,0,0,0,0,0,0,0,0,0,0,0,0,0,0,0,0,0,0,0,0,0,0,0,0,0,0,0,0,0,0,0,0,0,0,0,0,0,0,0,0,0,0,0,0,0,0,0,0,0,0,0,0,0,0,0,0,0,0,0,0,0,0,0,0,0,0,0,0,0,0,0,0,0,0,0,0,0,0,0,0,0,0,0,0,0,0,0,0,0,0,0,0,0,0,0,0,0,0,0,0,0,0,0,0,0,0,0,0,0,0,0,0,0,0,0,0,0,0,0,0,0,0,0,0,0,0,0,0,0,0,0,0,0,0,0,0,0,0,0,0,0,0,0,0,0,0,0,0,0,0,0,0,0,0,0,0,0,0,0,0,0,0,0,0,0,0,0,0,0,0,0,0,0,0,0,0,0,0,0,0,0,0,0,0,0,0,0,0,0,0,0,0,0,0,0,0,0,0,0,0,0,0,0,0,0,0,0,0,0,0,0,0,0,0,0,0,0,0,0,0,0,0,0,0,0,0,0,0,0,0,0,0,0,0,0,0,0,0,0,0,0,0,0,0,0,0,0,0,0,0,0,0,0,0,0,0,0,0,0,0,0,0,0,0,0,0,0,0,0,0,0,0,0,0,0,0,0,0,0,0,0,0,0,0,0,0,0,0,0,0,0,0,0,0,0,0,0,0,0,0,0,0,0,0,0,0,0,0,0,0,0,0,0,0,0,0,0,0,0,0,0,0,0,0,0,0,0,0,0,0,0,0,0,0,0,0,0,0,0,0,0,0,0,0,0,0,0,0,0,0,0,0,0,0,0,0,0,0,0,0,0,0,0,0,0,0,0,0,0,0,0,0,0,0,0,0,0,0,0,0,0,0,0,0,0,0,0,0,0,0,0,0,0,0,0,0,0,0,0,0,0,0,0,0,0,0,0,0,0,0,0,0,0,0,0,0,0,0,0,0,0,0,0,0,0,0,0,0,0,0,0,0,0,0,0,0,0,0,0,0,0,0,0,0,0,0,0,0,0,0,0,0,0,0,0,0,0,0,0,0,0,0,0,0,0,0,0,0,0,0,0,0,0,0,0,0,0,0,0,0,0,0,0,0,0,0,0,0,0,0,0,0,0,0,0,0,0,0,0,0,0,0,0,0,0,0,0,
0,0,0,0,0,0,0,0,0,0,0,0,0,0,0,0,0,0,0,0,0,0,0,0,0,0,0,0,0,0,0,0,0,0,0,0,0,0,0,0,0,0,0,0,0,0,0,0,0,0,0,0,0,0,0,0,0,0,0,0,0,0,0,0,0,0,0,0,0,0,0,0,0,0,0,0,0,0,0,0,0,0,0,0,0,0,0,0,0,0,0,0,0,0,0,0,0,0,0,0,0,0,0,0,0,0,0,0,0,0,0,0,0,0,0,0,0,0,0,0,0,0,0,0,0,0,0,0,0,0,0,0,0,0,0,0,0,0,0,0,0,0,0,0,0,0,0,0,0,0,0,0,0,0,0,0,0,0,0,0,0,0,0,0,0,0,0,0,0,0,0,0,0,0,0,0,0,0,0,0,0,0,0,0,0,0,0,0,0,0,0,0,0,0,0,0,0,0,0,0,0,0,0,0,0,0,0,0,0,0,0,0,0,0,0,0,0,0,0,0,0,0,0,0,0,0,0,0,0,0,0,0,0,0,0,0,0,0,0,0,0,0,0,0,0,0,0,0,0,0,0,0,0,0,0,0,0,0,0,0,0,0,0,0,0,0,0,0,0,0,0,0,0,0,0,0,0,0,0,0,0,0,0,0,0,0,0,0,0,0,0,0,0,0,0,0,0,0,0,0,0,0,0,0,0,0,0,0,0,0,0,0,0,0,0,0,0,0,0,0,0,0,0,0,0,0,0,0,0,0,0,0,0,0,0,0,0,0,0,0,0,0,0,0,0,0,0,0,0,0,0,0,0,0,0,0,0,0,0,0,0,0,0,0,0,0,0,0,0,0,0,0,0,0,0,0,0,0,0,0,0,0,0,0,0,0,0,0,0,0,0,0,0,0,0,0,0,0,0,0,0,0,0,0,0,0,0,0,0,0,0,0,0,0,0,0,0,0,0,0,0,0,0,0,0,0,0,0,0,0,0,0,0,0,0,0,0,0,0,0,0,0,0,0,0,0,0,0,0,0,0,0,0,0,0,0,0,0,0,0,0,0,0,0,0,0,0,0,0,0,0,0,0,0,0,0,0,0,0,0,0,0,0,0,0,0,0,0,0,0,0,0,0,0,0,0,0,0,0,0,0,0,0,0,0,0,0,0,0,0,0,0,0,0,0,0,0,0,0,0,0,0,0,0,0,0,0,0,0,0,0,0,0,0,0,0,0,0,0,0,0,0,0,0,0,0,0,0,0,0,0,0,0,0,0,0,0,0,0,0,0,0,0,0,0,0,0,0,0,0,0,0,0,0,0,0,0,0,0,0,0,0,0,0,0,0,0,0,0,0,0,0,0,0,0,0,0,0,0,0,0,0,0,0,0,0,0,0,0,0,0,0,0,0,0,0,0,0,0,0,0,0,0,0,0,0,0,0,0,0,0,0,0,0,0,0,0,0,0,0,0,0,0,0,0,0,0,0,0,0,0,0,0,0,0,0,0,0,0,0,0,0,0,0,0,0,0,0,0,0,0,0,0,0,0,0,0,0,0,0,0,0,0,0,0,0,0,0,0,0,0,0,0,0,0,0,0,0,0,0,0,0,0,0,0,0,0,0,0,0,0,0,0,0,0,0,0,0,0,0,0,0,0,0,0,0,0,0,0,0,0,0,0,0,0,0,0,0,0,0,0,0,0,0,0,0,0,0,0,0,0,0,0,0,0,0,0,0,0,0,0,0,0,0,0,0,0,0,0,0,0,0,0,0,0,0,0,0,0,0,0,0,0,0,0,0,0,0,0,0,0,0,0,0,0,0,0,0,0,0,0,0,0,0,0,0,0,0,0,0,0,0,0,0,0,0,0,0,0,0,0,0,0,0,0,0,0,0,0,0,0,0,0,0,0,0,0,0,0,0,0,0,0,0,0,0,0,0,0,0,0,0,0,0,0,0,0,0,0,0,0,0,0,0,0,0,0,0,0,0,0,0,0,0,0,0,0,0,0,0,0,0,0,0,0,0,0,0,0,0,0,0,0,0,0,0,0,0,0,0,0,0,0,0,0,0,0,0,0,0,0,0,0,0,0,0,0,0,0,0,0,0,0,0,0,0,0,0,0,0,0,0,0,0,0,0,0,0,0,0,0,0,0,0,0,0,0,0,0,0,0,0,0,0,0,0,0,0,0,0,0,0,0,0,0,0,0,0,0,0,0,0,0,0,0,0,0,0,0,0,0,0,0,0,0,0,0,0,0,0,0,0,0,0,0,0,0,0,0,0,
0,0,0,0,0,0,0,0,0,0,0,0,0,0,0,0,0,0,0,0,0,0,0,0,0,0,0,0,0,0,0,0,0,0,0,0,0,0,0,0,0,0,0,0,0,0,0,0,0,0,0,0,0,0,0,0,0,0,0,0,0,0,0,0,0,0,0,0,0,0,0,0,0,0,0,0,0,0,0,0,0,0,0,0,0,0,0,0,0,0,0,0,0,0,0,0,0,0,0,0,0,0,0,0,0,0,0,0,0,0,0,0,0,0,0,0,0,0,0,0,0,0,0,0,0,0,0,0,0,0,0,0,0,0,0,0,0,0,0,0,0,0,0,0,0,0,0,0,0,0,0,0,0,0,0,0,0,0,0,0,0,0,0,0,0,0,0,0,0,0,0,0,0,0,0,0,0,0,0,0,0,0,0,0,0,0,0,0,0,0,0,0,0,0,0,0,0,0,0,0,0,0,0,0,0,0,0,0,0,0,0,0,0,0,0,0,0,0,0,0,0,0,0,0,0,0,0,0,0,0,0,0,0,0,0,0,0,0,0,0,0,0,0,0,0,0,0,0,0,0,0,0,0,0,0,0,0,0,0,0,0,0,0,0,0,0,0,0,0,0,0,0,0,0,0,0,0,0,0,0,0,0,0,0,0,0,0,0,0,0,0,0,0,0,0,0,0,0,0,0,0,0,0,0,0,0,0,0,0,0,0,0,0,0,0,0,0,0,0,0,0,0,0,0,0,0,0,0,0,0,0,0,0,0,0,0,0,0,0,0,0,0,0,0,0,0,0,0,0,0,0,0,0,0,0,0,0,0,0,0,0,0,0,0,0,0,0,0,0,0,0,0,0,0,0,0,0,0,0,0,0,0,0,0,0,0,0,0,0,0,0,0,0,0,0,0,0,0,0,0,0,0,0,0,0,0,0,0,0,0,0,0,0,0,0,0,0,0,0,0,0,0,0,0,0,0,0,0,0,0,0,0,0,0,0,0,0,0,0,0,0,0,0,0,0,0,0,0,0,0,0,0,0,0,0,0,0,0,0,0,0,0,0,0,0,0,0,0,0,0,0,0,0,0,0,0,0,0,0,0,0,0,0,0,0,0,0,0,0,0,0,0,0,0,0,0,0,0,0,0,0,0,0,0,0,0,0,0,0,0,0,0,0,0,0,0,0,0,0,0,0,0,0,0,0,0,0,0,0,0,0,0,0,0,0,0,0,0,0,0,0,0,0,0,0,0,0,0,0,0,0,0,0,0,0,0,0,0,0,0,0,0,0,0,0,0,0,0,0,0,0,0,0,0,0,0,0,0,0,0,0,0,0,0,0,0,0,0,0,0,0,0,0,0,0,0,0,0,0,0,0,0,0,0,0,0,0,0,0,0,0,0,0,0,0,0,0,0,0,0,0,0,0,0,0,0,0,0,0,0,0,0,0,0,0,0,0,0,0,0,0,0,0,0,0,0,0,0,0,0,0,0,0,0,0,0,0,0,0,0,0,0,0,0,0,0,0,0,0,0,0,0,0,0,0,0,0,0,0,0,0,0,0,0,0,0,0,0,0,0,0,0,0,0,0,0,0,0,0,0,0,0,0,0,0,0,0,0,0,0,0,0,0,0,0,0,0,0,0,0,0,0,0,0,0,0,0,0,0,0,0,0,0,0,0,0,0,0,0,0,0,0,0,0,0,0,0,0,0,0,0,0,0,0,0,0,0,0,0,0,0,0,0,0,0,0,0,0,0,0,0,0,0,0,0,0,0,0,0,0,0,0,0,0,0,0,0,0,0,0,0,0,0,0,0,0,0,0,0,0,0,0,0,0,0,0,0,0,0,0,0,0,0,0,0,0,0,0,0,0,0,0,0,0,0,0,0,0,0,0,0,0,0,0,0,0,0,0,0,0,0,0,0,0,0,0,0,0,0,0,0,0,0,0,0,0,0,0,0,0,0,0,0,0,0,0,0,0,0,0,0,0,0,0,0,0,0,0,0,0,0,0,0,0,0,0,0,0,0,0,0,0,0,0,0,0,0,0,0,0,0,0,0,0,0,0,0,0,0,0,0,0,0,0,0,0,0,0,0,0,0,0,0,0,0,0,0,0,0,0,0,0,0,0,0,0,0,0,0,0,0,0,0,0,0,0,0,0,0,0,0,0,0,0,0,0,0,0,0,0,0,0,0,0,0,0,0,0,0,0,0,0,0,0,0,0,0,0,0,0,0,0,0,0,0,0,0,0,0,0,0,0,0,0,0,0,0,0,0,0,
0,0,0,0,0,0,0,0,0,0,0,0,0,0,0,0,0,0,0,0,0,0,0,0,0,0,0,0,0,0,0,0,0,0,0,0,0,0,0,0,0,0,0,0,0,0,0,0,0,0,0,0,0,0,0,0,0,0,0,0,0,0,0,0,0,0,0,0,0,0,0,0,0,0,0,0,0,0,0,0,0,0,0,0,0,0,0,0,0,0,0,0,0,0,0,0,0,0,0,0,0,0,0,0,0,0,0,0,0,0,0,0,0,0,0,0,0,0,0,0,0,0,0,0,0,0,0,0,0,0,0,0,0,0,0,0,0,0,0,0,0,0,0,0,0,0,0,0,0,0,0,0,0,0,0,0,0,0,0,0,0,0,0,0,0,0,0,0,0,0,0,0,0,0,0,0,0,0,0,0,0,0,0,0,0,0,0,0,0,0,0,0,0,0,0,0,0,0,0,0,0,0,0,0,0,0,0,0,0,0,0,0,0,0,0,0,0,0,0,0,0,0,0,0,0,0,0,0,0,0,0,0,0,0,0,0,0,0,0,0,0,0,0,0,0,0,0,0,0,0,0,0,0,0,0,0,0,0,0,0,0,0,0,0,0,0,0,0,0,0,0,0,0,0,0,0,0,0,0,0,0,0,0,0,0,0,0,0,0,0,0,0,0,0,0,0,0,0,0,0,0,0,0,0,0,0,0,0,0,0,0,0,0,0,0,0,0,0,0,0,0,0,0,0,0,0,0,0,0,0,0,0,0,0,0,0,0,0,0,0,0,0,0,0,0,0,0,0,0,0,0,0,0,0,0,0,0,0,0,0,0,0,0,0,0,0,0,0,0,0,0,0,0,0,0,0,0,0,0,0,0,0,0,0,0,0,0,0,0,0,0,0,0,0,0,0,0,0,0,0,0,0,0,0,0,0,0,0,0,0,0,0,0,0,0,0,0,0,0,0,0,0,0,0,0,0,0,0,0,0,0,0,0,0,0,0,0,0,0,0,0,0,0,0,0,0,0,0,0,0,0,0,0,0,0,0,0,0,0,0,0,0,0,0,0,0,0,0,0,0,0,0,0,0,0,0,0,0,0,0,0,0,0,0,0,0,0,0,0,0,0,0,0,0,0,0,0,0,0,0,0,0,0,0,0,0,0,0,0,0,0,0,0,0,0,0,0,0,0,0,0,0,0,0,0,0,0,0,0,0,0,0,0,0,0,0,0,0,0,0,0,0,0,0,0,0,0,0,0,0,0,0,0,0,0,0,0,0,0,0,0,0,0,0,0,0,0,0,0,0,0,0,0,0,0,0,0,0,0,0,0,0,0,0,0,0,0,0,0,0,0,0,0,0,0,0,0,0,0,0,0,0,0,0,0,0,0,0,0,0,0,0,0,0,0,0,0,0,0,0,0,0,0,0,0,0,0,0,0,0,0,0,0,0,0,0,0,0,0,0,0,0,0,0,0,0,0,0,0,0,0,0,0,0,0,0,0,0,0,0,0,0,0,0,0,0,0,0,0,0,0,0,0,0,0,0,0,0,0,0,0,0,0,0,0,0,0,0,0,0,0,0,0,0,0,0,0,0,0,0,0,0,0,0,0,0,0,0,0,0,0,0,0,0,0,0,0,0,0,0,0,0,0,0,0,0,0,0,0,0,0,0,0,0,0,0,0,0,0,0,0,0,0,0,0,0,0,0,0,0,0,0,0,0,0,0,0,0,0,0,0,0,0,0,0,0,0,0,0,0,0,0,0,0,0,0,0,0,0,0,0,0,0,0,0,0,0,0,0,0,0,0,0,0,0,0,0,0,0,0,0,0,0,0,0,0,0,0,0,0,0,0,0,0,0,0,0,0,0,0,0,0,0,0,0,0,0,0,0,0,0,0,0,0,0,0,0,0,0,0,0,0,0,0,0,0,0,0,0,0,0,0,0,0,0,0,0,0,0,0,0,0,0,0,0,0,0,0,0,0,0,0,0,0,0,0,0,0,0,0,0,0,0,0,0,0,0,0,0,0,0,0,0,0,0,0,0,0,0,0,0,0,0,0,0,0,0,0,0,0,0,0,0,0,0,0,0,0,0,0,0,0,0,0,0,0,0,0,0,0,0,0,0,0,0,0,0,0,0,0,0,0,0,0,0,0,0,0,0,0,0,0,0,0,0,0,0,0,0,0,0,0,0,0,0,0,0,0,0,0,0,0,0,0,0,0,0,0,0,0,0,0,0,0,0,0,0,0,0,0,0,0,0,0,0,0,0,0,0,0,
0,0,0,0,0,0,0,0,0,0,0,0,0,0,0,0,0,0,0,0,0,0,0,0,0,0,0,0,0,0,0,0,0,0,0,0,0,0,0,0,0,0,0,0,0,0,0,0,0,0,0,0,0,0,0,0,0,0,0,0,0,0,0,0,0,0,0,0,0,0,0,0,0,0,0,0,0,0,0,0,0,0,0,0,0,0,0,0,0,0,0,0,0,0,0,0,0,0,0,0,0,0,0,0,0,0,0,0,0,0,0,0,0,0,0,0,0,0,0,0,0,0,0,0,0,0,0,0,0,0,0,0,0,0,0,0,0,0,0,0,0,0,0,0,0,0,0,0,0,0,0,0,0,0,0,0,0,0,0,0,0,0,0,0,0,0,0,0,0,0,0,0,0,0,0,0,0,0,0,0,0,0,0,0,0,0,0,0,0,0,0,0,0,0,0,0,0,0,0,0,0,0,0,0,0,0,0,0,0,0,0,0,0,0,0,0,0,0,0,0,0,0,0,0,0,0,0,0,0,0,0,0,0,0,0,0,0,0,0,0,0,0,0,0,0,0,0,0,0,0,0,0,0,0,0,0,0,0,0,0,0,0,0,0,0,0,0,0,0,0,0,0,0,0,0,0,0,0,0,0,0,0,0,0,0,0,0,0,0,0,0,0,0,0,0,0,0,0,0,0,0,0,0,0,0,0,0,0,0,0,0,0,0,0,0,0,0,0,0,0,0,0,0,0,0,0,0,0,0,0,0,0,0,0,0,0,0,0,0,0,0,0,0,0,0,0,0,0,0,0,0,0,0,0,0,0,0,0,0,0,0,0,0,0,0,0,0,0,0,0,0,0,0,0,0,0,0,0,0,0,0,0,0,0,0,0,0,0,0,0,0,0,0,0,0,0,0,0,0,0,0,0,0,0,0,0,0,0,0,0,0,0,0,0,0,0,0,0,0,0,0,0,0,0,0,0,0,0,0,0,0,0,0,0,0,0,0,0,0,0,0,0,0,0,0,0,0,0,0,0,0,0,0,0,0,0,0,0,0,0,0,0,0,0,0,0,0,0,0,0,0,0,0,0,0,0,0,0,0,0,0,0,0,0,0,0,0,0,0,0,0,0,0,0,0,0,0,0,0,0,0,0,0,0,0,0,0,0,0,0,0,0,0,0,0,0,0,0,0,0,0,0,0,0,0,0,0,0,0,0,0,0,0,0,0,0,0,0,0,0,0,0,0,0,0,0,0,0,0,0,0,0,0,0,0,0,0,0,0,0,0,0,0,0,0,0,0,0,0,0,0,0,0,0,0,0,0,0,0,0,0,0,0,0,0,0,0,0,0,0,0,0,0,0,0,0,0,0,0,0,0,0,0,0,0,0,0,0,0,0,0,0,0,0,0,0,0,0,0,0,0,0,0,0,0,0,0,0,0,0,0,0,0,0,0,0,0,0,0,0,0,0,0,0,0,0,0,0,0,0,0,0,0,0,0,0,0,0,0,0,0,0,0,0,0,0,0,0,0,0,0,0,0,0,0,0,0,0,0,0,0,0,0,0,0,0,0,0,0,0,0,0,0,0,0,0,0,0,0,0,0,0,0,0,0,0,0,0,0,0,0,0,0,0,0,0,0,0,0,0,0,0,0,0,0,0,0,0,0,0,0,0,0,0,0,0,0,0,0,0,0,0,0,0,0,0,0,0,0,0,0,0,0,0,0,0,0,0,0,0,0,0,0,0,0,0,0,0,0,0,0,0,0,0,0,0,0,0,0,0,0,0,0,0,0,0,0,0,0,0,0,0,0,0,0,0,0,0,0,0,0,0,0,0,0,0,0,0,0,0,0,0,0,0,0,0,0,0,0,0,0,0,0,0,0,0,0,0,0,0,0,0,0,0,0,0,0,0,0,0,0,0,0,0,0,0,0,0,0,0,0,0,0,0,0,0,0,0,0,0,0,0,0,0,0,0,0,0,0,0,0,0,0,0,0,0,0,0,0,0,0,0,0,0,0,0,0,0,0,0,0,0,0,0,0,0,0,0,0,0,0,0,0,0,0,0,0,0,0,0,0,0,0,0,0,0,0,0,0,0,0,0,0,0,0,0,0,0,0,0,0,0,0,0,0,0,0,0,0,0,0,0,0,0,0,0,0,0,0,0,0,0,0,0,0,0,0,0,0,0,0,0,0,0,0,0,0,0,0,0,0,0,0,0,0,0,0,0,0,0,0,0,0,0,0,0,0,0,0,0,0,0,0,0,0,0,0,0,0,0,
0,0,0,0,0,0,0,0,0,0,0,0,0,0,0,0,0,0,0,0,0,0,0,0,0,0,0,0,0,0,0,0,0,0,0,0,0,0,0,0,0,0,0,0,0,0,0,0,0,0,0,0,0,0,0,0,0,0,0,0,0,0,0,0,0,0,0,0,0,0,0,0,0,0,0,0,0,0,0,0,0,0,0,0,0,0,0,0,0,0,0,0,0,0,0,0,0,0,0,0,0,0,0,0,0,0,0,0,0,0,0,0,0,0,0,0,0,0,0,0,0,0,0,0,0,0,0,0,0,0,0,0,0,0,0,0,0,0,0,0,0,0,0,0,0,0,0,0,0,0,0,0,0,0,0,0,0,0,0,0,0,0,0,0,0,0,0,0,0,0,0,0,0,0,0,0,0,0,0,0,0,0,0,0,0,0,0,0,0,0,0,0,0,0,0,0,0,0,0,0,0,0,0,0,0,0,0,0,0,0,0,0,0,0,0,0,0,0,0,0,0,0,0,0,0,0,0,0,0,0,0,0,0,0,0,0,0,0,0,0,0,0,0,0,0,0,0,0,0,0,0,0,0,0,0,0,0,0,0,0,0,0,0,0,0,0,0,0,0,0,0,0,0,0,0,0,0,0,0,0,0,0,0,0,0,0,0,0,0,0,0,0,0,0,0,0,0,0,0,0,0,0,0,0,0,0,0,0,0,0,0,0,0,0,0,0,0,0,0,0,0,0,0,0,0,0,0,0,0,0,0,0,0,0,0,0,0,0,0,0,0,0,0,0,0,0,0,0,0,0,0,0,0,0,0,0,0,0,0,0,0,0,0,0,0,0,0,0,0,0,0,0,0,0,0,0,0,0,0,0,0,0,0,0,0,0,0,0,0,0,0,0,0,0,0,0,0,0,0,0,0,0,0,0,0,0,0,0,0,0,0,0,0,0,0,0,0,0,0,0,0,0,0,0,0,0,0,0,0,0,0,0,0,0,0,0,0,0,0,0,0,0,0,0,0,0,0,0,0,0,0,0,0,0,0,0,0,0,0,0,0,0,0,0,0,0,0,0,0,0,0,0,0,0,0,0,0,0,0,0,0,0,0,0,0,0,0,0,0,0,0,0,0,0,0,0,0,0,0,0,0,0,0,0,0,0,0,0,0,0,0,0,0,0,0,0,0,0,0,0,0,0,0,0,0,0,0,0,0,0,0,0,0,0,0,0,0,0,0,0,0,0,0,0,0,0,0,0,0,0,0,0,0,0,0,0,0,0,0,0,0,0,0,0,0,0,0,0,0,0,0,0,0,0,0,0,0,0,0,0,0,0,0,0,0,0,0,0,0,0,0,0,0,0,0,0,0,0,0,0,0,0,0,0,0,0,0,0,0,0,0,0,0,0,0,0,0,0,0,0,0,0,0,0,0,0,0,0,0,0,0,0,0,0,0,0,0,0,0,0,0,0,0,0,0,0,0,0,0,0,0,0,0,0,0,0,0,0,0,0,0,0,0,0,0,0,0,0,0,0,0,0,0,0,0,0,0,0,0,0,0,0,0,0,0,0,0,0,0,0,0,0,0,0,0,0,0,0,0,0,0,0,0,0,0,0,0,0,0,0,0,0,0,0,0,0,0,0,0,0,0,0,0,0,0,0,0,0,0,0,0,0,0,0,0,0,0,0,0,0,0,0,0,0,0,0,0,0,0,0,0,0,0,0,0,0,0,0,0,0,0,0,0,0,0,0,0,0,0,0,0,0,0,0,0,0,0,0,0,0,0,0,0,0,0,0,0,0,0,0,0,0,0,0,0,0,0,0,0,0,0,0,0,0,0,0,0,0,0,0,0,0,0,0,0,0,0,0,0,0,0,0,0,0,0,0,0,0,0,0,0,0,0,0,0,0,0,0,0,0,0,0,0,0,0,0,0,0,0,0,0,0,0,0,0,0,0,0,0,0,0,0,0,0,0,0,0,0,0,0,0,0,0,0,0,0,0,0,0,0,0,0,0,0,0,0,0,0,0,0,0,0,0,0,0,0,0,0,0,0,0,0,0,0,0,0,0,0,0,0,0,0,0,0,0,0,0,0,0,0,0,0,0,0,0,0,0,0,0,0,0,0,0,0,0,0,0,0,0,0,0,0,0,0,0,0,0,0,0,0,0,0,0,0,0,0,0,0,0,0,0,0,0,0,0,0,0,0,0,0,0,0,0,0,0,0,0,0,0,0,0,0,0,0,0,0,0,0,0,0,0,0,0,0,0,0,0,0,0,0,
0,0,0,0,0,0,0,0,0,0,0,0,0,0,0,0,0,0,0,0,0,0,0,0,0,0,0,0,0,0,0,0,0,0,0,0,0,0,0,0,0,0,0,0,0,0,0,0,0,0,0,0,0,0,0,0,0,0,0,0,0,0,0,0,0,0,0,0,0,0,0,0,0,0,0,0,0,0,0,0,0,0,0,0,0,0,0,0,0,0,0,0,0,0,0,0,0,0,0,0,0,0,0,0,0,0,0,0,0,0,0,0,0,0,0,0,0,0,0,0,0,0,0,0,0,0,0,0,0,0,0,0,0,0,0,0,0,0,0,0,0,0,0,0,0,0,0,0,0,0,0,0,0,0,0,0,0,0,0,0,0,0,0,0,0,0,0,0,0,0,0,0,0,0,0,0,0,0,0,0,0,0,0,0,0,0,0,0,0,0,0,0,0,0,0,0,0,0,0,0,0,0,0,0,0,0,0,0,0,0,0,0,0,0,0,0,0,0,0,0,0,0,0,0,0,0,0,0,0,0,0,0,0,0,0,0,0,0,0,0,0,0,0,0,0,0,0,0,0,0,0,0,0,0,0,0,0,0,0,0,0,0,0,0,0,0,0,0,0,0,0,0,0,0,0,0,0,0,0,0,0,0,0,0,0,0,0,0,0,0,0,0,0,0,0,0,0,0,0,0,0,0,0,0,0,0,0,0,0,0,0,0,0,0,0,0,0,0,0,0,0,0,0,0,0,0,0,0,0,0,0,0,0,0,0,0,0,0,0,0,0,0,0,0,0,0,0,0,0,0,0,0,0,0,0,0,0,0,0,0,0,0,0,0,0,0,0,0,0,0,0,0,0,0,0,0,0,0,0,0,0,0,0,0,0,0,0,0,0,0,0,0,0,0,0,0,0,0,0,0,0,0,0,0,0,0,0,0,0,0,0,0,0,0,0,0,0,0,0,0,0,0,0,0,0,0,0,0,0,0,0,0,0,0,0,0,0,0,0,0,0,0,0,0,0,0,0,0,0,0,0,0,0,0,0,0,0,0,0,0,0,0,0,0,0,0,0,0,0,0,0,0,0,0,0,0,0,0,0,0,0,0,0,0,0,0,0,0,0,0,0,0,0,0,0,0,0,0,0,0,0,0,0,0,0,0,0,0,0,0,0,0,0,0,0,0,0,0,0,0,0,0,0,0,0,0,0,0,0,0,0,0,0,0,0,0,0,0,0,0,0,0,0,0,0,0,0,0,0,0,0,0,0,0,0,0,0,0,0,0,0,0,0,0,0,0,0,0,0,0,0,0,0,0,0,0,0,0,0,0,0,0,0,0,0,0,0,0,0,0,0,0,0,0,0,0,0,0,0,0,0,0,0,0,0,0,0,0,0,0,0,0,0,0,0,0,0,0,0,0,0,0,0,0,0,0,0,0,0,0,0,0,0,0,0,0,0,0,0,0,0,0,0,0,0,0,0,0,0,0,0,0,0,0,0,0,0,0,0,0,0,0,0,0,0,0,0,0,0,0,0,0,0,0,0,0,0,0,0,0,0,0,0,0,0,0,0,0,0,0,0,0,0,0,0,0,0,0,0,0,0,0,0,0,0,0,0,0,0,0,0,0,0,0,0,0,0,0,0,0,0,0,0,0,0,0,0,0,0,0,0,0,0,0,0,0,0,0,0,0,0,0,0,0,0,0,0,0,0,0,0,0,0,0,0,0,0,0,0,0,0,0,0,0,0,0,0,0,0,0,0,0,0,0,0,0,0,0,0,0,0,0,0,0,0,0,0,0,0,0,0,0,0,0,0,0,0,0,0,0,0,0,0,0,0,0,0,0,0,0,0,0,0,0,0,0,0,0,0,0,0,0,0,0,0,0,0,0,0,0,0,0,0,0,0,0,0,0,0,0,0,0,0,0,0,0,0,0,0,0,0,0,0,0,0,0,0,0,0,0,0,0,0,0,0,0,0,0,0,0,0,0,0,0,0,0,0,0,0,0,0,0,0,0,0,0,0,0,0,0,0,0,0,0,0,0,0,0,0,0,0,0,0,0,0,0,0,0,0,0,0,0,0,0,0,0,0,0,0,0,0,0,0,0,0,0,0,0,0,0,0,0,0,0,0,0,0,0,0,0,0,0,0,0,0,0,0,0,0,0,0,0,0,0,0,0,0,0,0,0,0,0,0,0,0,0,0,0,0,0,0,0,0,0,0,0,0,0,0,0,0,0,0,0,0,0,0,0,0,0,0,0,0,0,0,0,0,0,0,0,
0,0,0,0,0,0,0,0,0,0,0,0,0,0,0,0,0,0,0,0,0,0,0,0,0,0,0,0,0,0,0,0,0,0,0,0,0,0,0,0,0,0,0,0,0,0,0,0,0,0,0,0,0,0,0,0,0,0,0,0,0,0,0,0,0,0,0,0,0,0,0,0,0,0,0,0,0,0,0,0,0,0,0,0,0,0,0,0,0,0,0,0,0,0,0,0,0,0,0,0,0,0,0,0,0,0,0,0,0,0,0,0,0,0,0,0,0,0,0,0,0,0,0,0,0,0,0,0,0,0,0,0,0,0,0,0,0,0,0,0,0,0,0,0,0,0,0,0,0,0,0,0,0,0,0,0,0,0,0,0,0,0,0,0,0,0,0,0,0,0,0,0,0,0,0,0,0,0,0,0,0,0,0,0,0,0,0,0,0,0,0,0,0,0,0,0,0,0,0,0,0,0,0,0,0,0,0,0,0,0,0,0,0,0,0,0,0,0,0,0,0,0,0,0,0,0,0,0,0,0,0,0,0,0,0,0,0,0,0,0,0,0,0,0,0,0,0,0,0,0,0,0,0,0,0,0,0,0,0,0,0,0,0,0,0,0,0,0,0,0,0,0,0,0,0,0,0,0,0,0,0,0,0,0,0,0,0,0,0,0,0,0,0,0,0,0,0,0,0,0,0,0,0,0,0,0,0,0,0,0,0,0,0,0,0,0,0,0,0,0,0,0,0,0,0,0,0,0,0,0,0,0,0,0,0,0,0,0,0,0,0,0,0,0,0,0,0,0,0,0,0,0,0,0,0,0,0,0,0,0,0,0,0,0,0,0,0,0,0,0,0,0,0,0,0,0,0,0,0,0,0,0,0,0,0,0,0,0,0,0,0,0,0,0,0,0,0,0,0,0,0,0,0,0,0,0,0,0,0,0,0,0,0,0,0,0,0,0,0,0,0,0,0,0,0,0,0,0,0,0,0,0,0,0,0,0,0,0,0,0,0,0,0,0,0,0,0,0,0,0,0,0,0,0,0,0,0,0,0,0,0,0,0,0,0,0,0,0,0,0,0,0,0,0,0,0,0,0,0,0,0,0,0,0,0,0,0,0,0,0,0,0,0,0,0,0,0,0,0,0,0,0,0,0,0,0,0,0,0,0,0,0,0,0,0,0,0,0,0,0,0,0,0,0,0,0,0,0,0,0,0,0,0,0,0,0,0,0,0,0,0,0,0,0,0,0,0,0,0,0,0,0,0,0,0,0,0,0,0,0,0,0,0,0,0,0,0,0,0,0,0,0,0,0,0,0,0,0,0,0,0,0,0,0,0,0,0,0,0,0,0,0,0,0,0,0,0,0,0,0,0,0,0,0,0,0,0,0,0,0,0,0,0,0,0,0,0,0,0,0,0,0,0,0,0,0,0,0,0,0,0,0,0,0,0,0,0,0,0,0,0,0,0,0,0,0,0,0,0,0,0,0,0,0,0,0,0,0,0,0,0,0,0,0,0,0,0,0,0,0,0,0,0,0,0,0,0,0,0,0,0,0,0,0,0,0,0,0,0,0,0,0,0,0,0,0,0,0,0,0,0,0,0,0,0,0,0,0,0,0,0,0,0,0,0,0,0,0,0,0,0,0,0,0,0,0,0,0,0,0,0,0,0,0,0,0,0,0,0,0,0,0,0,0,0,0,0,0,0,0,0,0,0,0,0,0,0,0,0,0,0,0,0,0,0,0,0,0,0,0,0,0,0,0,0,0,0,0,0,0,0,0,0,0,0,0,0,0,0,0,0,0,0,0,0,0,0,0,0,0,0,0,0,0,0,0,0,0,0,0,0,0,0,0,0,0,0,0,0,0,0,0,0,0,0,0,0,0,0,0,0,0,0,0,0,0,0,0,0,0,0,0,0,0,0,0,0,0,0,0,0,0,0,0,0,0,0,0,0,0,0,0,0,0,0,0,0,0,0,0,0,0,0,0,0,0,0,0,0,0,0,0,0,0,0,0,0,0,0,0,0,0,0,0,0,0,0,0,0,0,0,0,0,0,0,0,0,0,0,0,0,0,0,0,0,0,0,0,0,0,0,0,0,0,0,0,0,0,0,0,0,0,0,0,0,0,0,0,0,0,0,0,0,0,0,0,0,0,0,0,0,0,0,0,0,0,0,0,0,0,0,0,0,0,0,0,0,0,0,0,0,0,0,0,0,0,0,0,0,0,0,0,0,0,0,0,0,0,0,0,0,0,0,0,0,0,0,0,0,0,
0,0,0,0,0,0,0,0,0,0,0,0,0,0,0,0,0,0,0,0,0,0,0,0,0,0,0,0,0,0,0,0,0,0,0,0,0,0,0,0,0,0,0,0,0,0,0,0,0,0,0,0,0,0,0,0,0,0,0,0,0,0,0,0,0,0,0,0,0,0,0,0,0,0,0,0,0,0,0,0,0,0,0,0,0,0,0,0,0,0,0,0,0,0,0,0,0,0,0,0,0,0,0,0,0,0,0,0,0,0,0,0,0,0,0,0,0,0,0,0,0,0,0,0,0,0,0,0,0,0,0,0,0,0,0,0,0,0,0,0,0,0,0,0,0,0,0,0,0,0,0,0,0,0,0,0,0,0,0,0,0,0,0,0,0,0,0,0,0,0,0,0,0,0,0,0,0,0,0,0,0,0,0,0,0,0,0,0,0,0,0,0,0,0,0,0,0,0,0,0,0,0,0,0,0,0,0,0,0,0,0,0,0,0,0,0,0,0,0,0,0,0,0,0,0,0,0,0,0,0,0,0,0,0,0,0,0,0,0,0,0,0,0,0,0,0,0,0,0,0,0,0,0,0,0,0,0,0,0,0,0,0,0,0,0,0,0,0,0,0,0,0,0,0,0,0,0,0,0,0,0,0,0,0,0,0,0,0,0,0,0,0,0,0,0,0,0,0,0,0,0,0,0,0,0,0,0,0,0,0,0,0,0,0,0,0,0,0,0,0,0,0,0,0,0,0,0,0,0,0,0,0,0,0,0,0,0,0,0,0,0,0,0,0,0,0,0,0,0,0,0,0,0,0,0,0,0,0,0,0,0,0,0,0,0,0,0,0,0,0,0,0,0,0,0,0,0,0,0,0,0,0,0,0,0,0,0,0,0,0,0,0,0,0,0,0,0,0,0,0,0,0,0,0,0,0,0,0,0,0,0,0,0,0,0,0,0,0,0,0,0,0,0,0,0,0,0,0,0,0,0,0,0,0,0,0,0,0,0,0,0,0,0,0,0,0,0,0,0,0,0,0,0,0,0,0,0,0,0,0,0,0,0,0,0,0,0,0,0,0,0,0,0,0,0,0,0,0,0,0,0,0,0,0,0,0,0,0,0,0,0,0,0,0,0,0,0,0,0,0,0,0,0,0,0,0,0,0,0,0,0,0,0,0,0,0,0,0,0,0,0,0,0,0,0,0,0,0,0,0,0,0,0,0,0,0,0,0,0,0,0,0,0,0,0,0,0,0,0,0,0,0,0,0,0,0,0,0,0,0,0,0,0,0,0,0,0,0,0,0,0,0,0,0,0,0,0,0,0,0,0,0,0,0,0,0,0,0,0,0,0,0,0,0,0,0,0,0,0,0,0,0,0,0,0,0,0,0,0,0,0,0,0,0,0,0,0,0,0,0,0,0,0,0,0,0,0,0,0,0,0,0,0,0,0,0,0,0,0,0,0,0,0,0,0,0,0,0,0,0,0,0,0,0,0,0,0,0,0,0,0,0,0,0,0,0,0,0,0,0,0,0,0,0,0,0,0,0,0,0,0,0,0,0,0,0,0,0,0,0,0,0,0,0,0,0,0,0,0,0,0,0,0,0,0,0,0,0,0,0,0,0,0,0,0,0,0,0,0,0,0,0,0,0,0,0,0,0,0,0,0,0,0,0,0,0,0,0,0,0,0,0,0,0,0,0,0,0,0,0,0,0,0,0,0,0,0,0,0,0,0,0,0,0,0,0,0,0,0,0,0,0,0,0,0,0,0,0,0,0,0,0,0,0,0,0,0,0,0,0,0,0,0,0,0,0,0,0,0,0,0,0,0,0,0,0,0,0,0,0,0,0,0,0,0,0,0,0,0,0,0,0,0,0,0,0,0,0,0,0,0,0,0,0,0,0,0,0,0,0,0,0,0,0,0,0,0,0,0,0,0,0,0,0,0,0,0,0,0,0,0,0,0,0,0,0,0,0,0,0,0,0,0,0,0,0,0,0,0,0,0,0,0,0,0,0,0,0,0,0,0,0,0,0,0,0,0,0,0,0,0,0,0,0,0,0,0,0,0,0,0,0,0,0,0,0,0,0,0,0,0,0,0,0,0,0,0,0,0,0,0,0,0,0,0,0,0,0,0,0,0,0,0,0,0,0,0,0,0,0,0,0,0,0,0,0,0,0,0,0,0,0,0,0,0,0,0,0,0,0,0,0,0,0,0,0,0,0,0,0,0,0,0,0,0,0,0,0,0,0,0,0,0,0,0,0,0,0,0,0,
0,0,0,0,0,0,0,0,0,0,0,0,0,0,0,0,0,0,0,0,0,0,0,0,0,0,0,0,0,0,0,0,0,0,0,0,0,0,0,0,0,0,0,0,0,0,0,0,0,0,0,0,0,0,0,0,0,0,0,0,0,0,0,0,0,0,0,0,0,0,0,0,0,0,0,0,0,0,0,0,0,0,0,0,0,0,0,0,0,0,0,0,0,0,0,0,0,0,0,0,0,0,0,0,0,0,0,0,0,0,0,0,0,0,0,0,0,0,0,0,0,0,0,0,0,0,0,0,0,0,0,0,0,0,0,0,0,0,0,0,0,0,0,0,0,0,0,0,0,0,0,0,0,0,0,0,0,0,0,0,0,0,0,0,0,0,0,0,0,0,0,0,0,0,0,0,0,0,0,0,0,0,0,0,0,0,0,0,0,0,0,0,0,0,0,0,0,0,0,0,0,0,0,0,0,0,0,0,0,0,0,0,0,0,0,0,0,0,0,0,0,0,0,0,0,0,0,0,0,0,0,0,0,0,0,0,0,0,0,0,0,0,0,0,0,0,0,0,0,0,0,0,0,0,0,0,0,0,0,0,0,0,0,0,0,0,0,0,0,0,0,0,0,0,0,0,0,0,0,0,0,0,0,0,0,0,0,0,0,0,0,0,0,0,0,0,0,0,0,0,0,0,0,0,0,0,0,0,0,0,0,0,0,0,0,0,0,0,0,0,0,0,0,0,0,0,0,0,0,0,0,0,0,0,0,0,0,0,0,0,0,0,0,0,0,0,0,0,0,0,0,0,0,0,0,0,0,0,0,0,0,0,0,0,0,0,0,0,0,0,0,0,0,0,0,0,0,0,0,0,0,0,0,0,0,0,0,0,0,0,0,0,0,0,0,0,0,0,0,0,0,0,0,0,0,0,0,0,0,0,0,0,0,0,0,0,0,0,0,0,0,0,0,0,0,0,0,0,0,0,0,0,0,0,0,0,0,0,0,0,0,0,0,0,0,0,0,0,0,0,0,0,0,0,0,0,0,0,0,0,0,0,0,0,0,0,0,0,0,0,0,0,0,0,0,0,0,0,0,0,0,0,0,0,0,0,0,0,0,0,0,0,0,0,0,0,0,0,0,0,0,0,0,0,0,0,0,0,0,0,0,0,0,0,0,0,0,0,0,0,0,0,0,0,0,0,0,0,0,0,0,0,0,0,0,0,0,0,0,0,0,0,0,0,0,0,0,0,0,0,0,0,0,0,0,0,0,0,0,0,0,0,0,0,0,0,0,0,0,0,0,0,0,0,0,0,0,0,0,0,0,0,0,0,0,0,0,0,0,0,0,0,0,0,0,0,0,0,0,0,0,0,0,0,0,0,0,0,0,0,0,0,0,0,0,0,0,0,0,0,0,0,0,0,0,0,0,0,0,0,0,0,0,0,0,0,0,0,0,0,0,0,0,0,0,0,0,0,0,0,0,0,0,0,0,0,0,0,0,0,0,0,0,0,0,0,0,0,0,0,0,0,0,0,0,0,0,0,0,0,0,0,0,0,0,0,0,0,0,0,0,0,0,0,0,0,0,0,0,0,0,0,0,0,0,0,0,0,0,0,0,0,0,0,0,0,0,0,0,0,0,0,0,0,0,0,0,0,0,0,0,0,0,0,0,0,0,0,0,0,0,0,0,0,0,0,0,0,0,0,0,0,0,0,0,0,0,0,0,0,0,0,0,0,0,0,0,0,0,0,0,0,0,0,0,0,0,0,0,0,0,0,0,0,0,0,0,0,0,0,0,0,0,0,0,0,0,0,0,0,0,0,0,0,0,0,0,0,0,0,0,0,0,0,0,0,0,0,0,0,0,0,0,0,0,0,0,0,0,0,0,0,0,0,0,0,0,0,0,0,0,0,0,0,0,0,0,0,0,0,0,0,0,0,0,0,0,0,0,0,0,0,0,0,0,0,0,0,0,0,0,0,0,0,0,0,0,0,0,0,0,0,0,0,0,0,0,0,0,0,0,0,0,0,0,0,0,0,0,0,0,0,0,0,0,0,0,0,0,0,0,0,0,0,0,0,0,0,0,0,0,0,0,0,0,0,0,0,0,0,0,0,0,0,0,0,0,0,0,0,0,0,0,0,0,0,0,0,0,0,0,0,0,0,0,0,0,0,0,0,0,0,0,0,0,0,0,0,0,0,0,0,0,0,0,0,0,0,0,0,0,0,0,0,0,0,0,0,0,0,0,0,0,0,0,0,0,0,0,0
</data>
 </layer>
 <layer id="5" name="spirits" width="1000" height="50" visible="0">
  <data encoding="csv">
0,0,0,0,0,0,0,0,0,0,0,0,0,0,0,0,0,0,0,0,0,0,0,0,0,0,0,0,0,0,0,0,0,0,0,0,0,0,0,0,0,0,0,0,0,0,0,0,0,0,0,0,0,0,0,0,0,0,0,0,0,0,0,0,0,0,0,0,0,0,0,0,0,0,0,0,0,0,0,0,0,0,0,0,0,0,0,0,0,0,0,0,0,0,0,0,0,0,0,0,0,0,0,0,0,0,0,0,0,0,0,0,0,0,0,0,0,0,0,0,0,0,0,0,0,0,0,0,0,0,0,0,0,0,0,0,0,0,0,0,0,0,0,0,0,0,0,0,0,0,0,0,0,0,0,0,0,0,0,0,0,0,0,0,0,0,0,0,0,0,0,0,0,0,0,0,0,0,0,0,0,0,0,0,0,0,0,0,0,0,0,0,0,0,0,0,0,0,0,0,0,0,0,0,0,0,0,0,0,0,0,0,0,0,0,0,0,0,0,0,0,0,0,0,0,0,0,0,0,0,0,0,0,0,0,0,0,0,0,0,0,0,0,0,0,0,0,0,0,0,0,0,0,0,0,0,0,0,0,0,0,0,0,0,0,0,0,0,0,0,0,0,0,0,0,0,0,0,0,0,0,0,0,0,0,0,0,0,0,0,0,0,0,0,0,0,0,0,0,0,0,0,0,0,0,0,0,0,0,0,0,0,0,0,0,0,0,0,0,0,0,0,0,0,0,0,0,0,0,0,0,0,0,0,0,0,0,0,0,0,0,0,0,0,0,0,0,0,0,0,0,0,0,0,0,0,0,0,0,0,0,0,0,0,0,0,0,0,0,0,0,0,0,0,0,0,0,0,0,0,0,0,0,0,0,0,0,0,0,0,0,0,0,0,0,0,0,0,0,0,0,0,0,0,0,0,0,0,0,0,0,0,0,0,0,0,0,0,0,0,0,0,0,0,0,0,0,0,0,0,0,0,0,0,0,0,0,0,0,0,0,0,0,0,0,0,0,0,0,0,0,0,0,0,0,0,0,0,0,0,0,0,0,0,0,0,0,0,0,0,0,0,0,0,0,0,0,0,0,0,0,0,0,0,0,0,0,0,0,0,0,0,0,0,0,0,0,0,0,0,0,0,0,0,0,0,0,0,0,0,0,0,0,0,0,0,0,0,0,0,0,0,0,0,0,0,0,0,0,0,0,0,0,0,0,0,0,0,0,0,0,0,0,0,0,0,0,0,0,0,0,0,0,0,0,0,0,0,0,0,0,0,0,0,0,0,0,0,0,0,0,0,0,0,0,0,0,0,0,0,0,0,0,0,0,0,0,0,0,0,0,0,0,0,0,0,0,0,0,0,0,0,0,0,0,0,0,0,0,0,0,0,0,0,0,0,0,0,0,0,0,0,0,0,0,0,0,0,0,0,0,0,0,0,0,0,0,0,0,0,0,0,0,0,0,0,0,0,0,0,0,0,0,0,0,0,0,0,0,0,0,0,0,0,0,0,0,0,0,0,0,0,0,0,0,0,0,0,0,0,0,0,0,0,0,0,0,0,0,0,0,0,0,0,0,0,0,0,0,0,0,0,0,0,0,0,0,0,0,0,0,0,0,0,0,0,0,0,0,0,0,0,0,0,0,0,0,0,0,0,0,0,0,0,0,0,0,0,0,0,0,0,0,0,0,0,0,0,0,0,0,0,0,0,0,0,0,0,0,0,0,0,0,0,0,0,0,0,0,0,0,0,0,0,0,0,0,0,0,0,0,0,0,0,0,0,0,0,0,0,0,0,0,0,0,0,0,0,0,0,0,0,0,0,0,0,0,0,0,0,0,0,0,0,0,0,0,0,0,0,0,0,0,0,0,0,0,0,0,0,0,0,0,0,0,0,0,0,0,0,0,0,0,0,0,0,0,0,0,0,0,0,0,0,0,0,0,0,0,0,0,0,0,0,0,0,0,0,0,0,0,0,0,0,0,0,0,0,0,0,0,0,0,0,0,0,0,0,0,0,0,0,0,0,0,0,0,0,0,0,0,0,0,0,0,0,0,0,0,0,0,0,0,0,0,0,0,0,0,0,0,0,0,0,0,0,0,0,0,0,0,0,0,0,0,0,0,0,0,0,0,0,0,0,0,0,0,0,0,0,0,0,0,0,0,0,0,0,0,0,0,0,0,0,0,0,0,0,0,0,0,0,0,0,0,0,0,0,0,0,0,0,0,0,0,0,0,0,0,0,0,0,0,0,0,0,0,0,0,0,
0,0,0,0,0,0,0,0,0,0,0,0,0,0,0,0,0,0,0,0,0,0,0,0,0,0,0,0,0,0,0,0,0,0,0,0,0,0,0,0,0,0,0,0,0,0,0,0,0,0,0,0,0,0,0,0,0,0,0,0,0,0,0,0,0,0,0,0,0,0,0,0,0,0,0,0,0,0,0,0,0,0,0,0,0,0,0,0,0,0,0,0,0,0,0,0,0,0,0,0,0,0,0,0,0,0,0,0,0,0,0,0,0,0,0,0,0,0,0,0,0,0,0,0,0,0,0,0,0,0,0,0,0,0,0,0,0,0,0,0,0,0,0,0,0,0,0,0,0,0,0,0,0,0,0,0,0,0,0,0,0,0,0,0,0,0,0,0,0,0,0,0,0,0,0,0,0,0,0,0,0,0,0,0,0,0,0,0,0,0,0,0,0,0,0,0,0,0,0,0,0,0,0,0,0,0,0,0,0,0,0,0,0,0,0,0,0,0,0,0,0,0,0,0,0,0,0,0,0,0,0,0,0,0,0,0,0,0,0,0,0,0,0,0,0,0,0,0,0,0,0,0,0,0,0,0,0,0,0,0,0,0,0,0,0,0,0,0,0,0,0,0,0,0,0,0,0,0,0,0,0,0,0,0,0,0,0,0,0,0,0,0,0,0,0,0,0,0,0,0,0,0,0,0,0,0,0,0,0,0,0,0,0,0,0,0,0,0,0,0,0,0,0,0,0,0,0,0,0,0,0,0,0,0,0,0,0,0,0,0,0,0,0,0,0,0,0,0,0,0,0,0,0,0,0,0,0,0,0,0,0,0,0,0,0,0,0,0,0,0,0,0,0,0,0,0,0,0,0,0,0,0,0,0,0,0,0,0,0,0,0,0,0,0,0,0,0,0,0,0,0,0,0,0,0,0,0,0,0,0,0,0,0,0,0,0,0,0,0,0,0,0,0,0,0,0,0,0,0,0,0,0,0,0,0,0,0,0,0,0,0,0,0,0,0,0,0,0,0,0,0,0,0,0,0,0,0,0,0,0,0,0,0,0,0,0,0,0,0,0,0,0,0,0,0,0,0,0,0,0,0,0,0,0,0,0,0,0,0,0,0,0,0,0,0,0,0,0,0,0,0,0,0,0,0,0,0,0,0,0,0,0,0,0,0,0,0,0,0,0,0,0,0,0,0,0,0,0,0,0,0,0,0,0,0,0,0,0,0,0,0,0,0,0,0,0,0,0,0,0,0,0,0,0,0,0,0,0,0,0,0,0,0,0,0,0,0,0,0,0,0,0,0,0,0,0,0,0,0,0,0,0,0,0,0,0,0,0,0,0,0,0,0,0,0,0,0,0,0,0,0,0,0,0,0,0,0,0,0,0,0,0,0,0,0,0,0,0,0,0,0,0,0,0,0,0,0,0,0,0,0,0,0,0,0,0,0,0,0,0,0,0,0,0,0,0,0,0,0,0,0,0,0,0,0,0,0,0,0,0,0,0,0,0,0,0,0,0,0,0,0,0,0,0,0,0,0,0,0,0,0,0,0,0,0,0,0,0,0,0,0,0,0,0,0,0,0,0,0,0,0,0,0,0,0,0,0,0,0,0,0,0,0,0,0,0,0,0,0,0,0,0,0,0,0,0,0,0,0,0,0,0,0,0,0,0,0,0,0,0,0,0,0,0,0,0,0,0,0,0,0,0,0,0,0,0,0,0,0,0,0,0,0,0,0,0,0,0,0,0,0,0,0,0,0,0,0,0,0,0,0,0,0,0,0,0,0,0,0,0,0,0,0,0,0,0,0,0,0,0,0,0,0,0,0,0,0,0,0,0,0,0,0,0,0,0,0,0,0,0,0,0,0,0,0,0,0,0,0,0,0,0,0,0,0,0,0,0,0,0,0,0,0,0,0,0,0,0,0,0,0,0,0,0,0,0,0,0,0,0,0,0,0,0,0,0,0,0,0,0,0,0,0,0,0,0,0,0,0,0,0,0,0,0,0,0,0,0,0,0,0,0,0,0,0,0,0,0,0,0,0,0,0,0,0,0,0,0,0,0,0,0,0,0,0,0,0,0,0,0,0,0,0,0,0,0,0,0,0,0,0,0,0,0,0,0,0,0,0,0,0,0,0,0,0,0,0,0,0,0,0,0,0,0,0,0,0,0,0,0,0,0,0,0,0,0,0,0,0,0,0,0,0,0,0,0,0,0,0,0,0,0,0,0,0,0,0,0,0,0,0,0,0,0,0,0,0,0,0,0,
0,0,0,0,0,0,0,0,0,0,0,0,0,0,0,0,0,0,0,0,0,0,0,0,0,0,0,0,0,0,0,0,0,0,0,0,0,0,0,0,0,0,0,0,0,0,0,0,0,0,0,0,0,0,0,0,0,0,0,0,0,0,0,0,0,0,0,0,0,0,0,0,0,0,0,0,0,0,0,0,0,0,0,0,0,0,0,0,0,0,0,0,0,0,0,0,0,0,0,0,0,0,0,0,0,0,0,0,0,0,0,0,0,0,0,0,0,0,0,0,0,0,0,0,0,0,0,0,0,0,0,0,0,0,0,0,0,0,0,0,0,0,0,0,0,0,0,0,0,0,0,0,0,0,0,0,0,0,0,0,0,0,0,0,0,0,0,0,0,0,0,0,0,0,0,0,0,0,0,0,0,0,0,0,0,0,0,0,0,0,0,0,0,0,0,0,0,0,0,0,0,0,0,0,0,0,0,0,0,0,0,0,0,0,0,0,0,0,0,0,0,0,0,0,0,0,0,0,0,0,0,0,0,0,0,0,0,0,0,0,0,0,0,0,0,0,0,0,0,0,0,0,0,0,0,0,0,0,0,0,0,0,0,0,0,0,0,0,0,0,0,0,0,0,0,0,0,0,0,0,0,0,0,0,0,0,0,0,0,0,0,0,0,0,0,0,0,0,0,0,0,0,0,0,0,0,0,0,0,0,0,0,0,0,0,0,0,0,0,0,0,0,0,0,0,0,0,0,0,0,0,0,0,0,0,0,0,0,0,0,0,0,0,0,0,0,0,0,0,0,0,0,0,0,0,0,0,0,0,0,0,0,0,0,0,0,0,0,0,0,0,0,0,0,0,0,0,0,0,0,0,0,0,0,0,0,0,0,0,0,0,0,0,0,0,0,0,0,0,0,0,0,0,0,0,0,0,0,0,0,0,0,0,0,0,0,0,0,0,0,0,0,0,0,0,0,0,0,0,0,0,0,0,0,0,0,0,0,0,0,0,0,0,0,0,0,0,0,0,0,0,0,0,0,0,0,0,0,0,0,0,0,0,0,0,0,0,0,0,0,0,0,0,0,0,0,0,0,0,0,0,0,0,0,0,0,0,0,0,0,0,0,0,0,0,0,0,0,0,0,0,0,0,0,0,0,0,0,0,0,0,0,0,0,0,0,0,0,0,0,0,0,0,0,0,0,0,0,0,0,0,0,0,0,0,0,0,0,0,0,0,0,0,0,0,0,0,0,0,0,0,0,0,0,0,0,0,0,0,0,0,0,0,0,0,0,0,0,0,0,0,0,0,0,0,0,0,0,0,0,0,0,0,0,0,0,0,0,0,0,0,0,0,0,0,0,0,0,0,0,0,0,0,0,0,0,0,0,0,0,0,0,0,0,0,0,0,0,0,0,0,0,0,0,0,0,0,0,0,0,0,0,0,0,0,0,0,0,0,0,0,0,0,0,0,0,0,0,0,0,0,0,0,0,0,0,0,0,0,0,0,0,0,0,0,0,0,0,0,0,0,0,0,0,0,0,0,0,0,0,0,0,0,0,0,0,0,0,0,0,0,0,0,0,0,0,0,0,0,0,0,0,0,0,0,0,0,0,0,0,0,0,0,0,0,0,0,0,0,0,0,0,0,0,0,0,0,0,0,0,0,0,0,0,0,0,0,0,0,0,0,0,0,0,0,0,0,0,0,0,0,0,0,0,0,0,0,0,0,0,0,0,0,0,0,0,0,0,0,0,0,0,0,0,0,0,0,0,0,0,0,0,0,0,0,0,0,0,0,0,0,0,0,0,0,0,0,0,0,0,0,0,0,0,0,0,0,0,0,0,0,0,0,0,0,0,0,0,0,0,0,0,0,0,0,0,0,0,0,0,0,0,0,0,0,0,0,0,0,0,0,0,0,0,0,0,0,0,0,0,0,0,0,0,0,0,0,0,0,0,0,0,0,0,0,0,0,0,0,0,0,0,0,0,0,0,0,0,0,0,0,0,0,0,0,0,0,0,0,0,0,0,0,0,0,0,0,0,0,0,0,0,0,0,0,0,0,0,0,0,0,0,0,0,0,0,0,0,0,0,0,0,0,0,0,0,0,0,0,0,0,0,0,0,0,0,0,0,0,0,0,0,0,0,0,0,0,0,0,0,0,0,0,0,0,0,0,0,0,0,0,0,0,0,0,0,0,0,0,0,0,0,0,0,0,0,0,0,0,0,0,0,0,0,0,0,0,0,0,0,0,0,0,0,0,0,0,0,0,0,
0,0,0,0,0,0,0,0,0,0,0,0,0,0,0,0,0,0,0,0,0,0,0,0,0,0,0,0,0,0,0,0,0,0,0,0,0,0,0,0,0,0,0,0,0,0,0,0,0,0,0,0,0,0,0,0,0,0,0,0,0,0,0,0,0,0,0,0,0,0,0,0,0,0,0,0,0,0,0,0,0,0,0,0,0,0,0,0,0,0,0,0,0,0,0,0,0,0,0,0,0,0,0,0,0,0,0,0,0,0,0,0,0,0,0,0,0,0,0,0,0,0,0,0,0,0,0,0,0,0,0,0,0,0,0,0,0,0,0,0,0,0,0,0,0,0,0,0,0,0,0,0,0,0,0,0,0,0,0,0,0,0,0,0,0,0,0,0,0,0,0,0,0,0,0,0,0,0,0,0,0,0,0,0,0,0,0,0,0,0,0,0,0,0,0,0,0,0,0,0,0,0,0,0,0,0,0,0,0,0,0,0,0,0,0,0,0,0,0,0,0,0,0,0,0,0,0,0,0,0,0,0,0,0,0,0,0,0,0,0,0,0,0,0,0,0,0,0,0,0,0,0,0,0,0,0,0,0,0,0,0,0,0,0,0,0,0,0,0,0,0,0,0,0,0,0,0,0,0,0,0,0,0,0,0,0,0,0,0,0,0,0,0,0,0,0,0,0,0,0,0,0,0,0,0,0,0,0,0,0,0,0,0,0,0,0,0,0,0,0,0,0,0,0,0,0,0,0,0,0,0,0,0,0,0,0,0,0,0,0,0,0,0,0,0,0,0,0,0,0,0,0,0,0,0,0,0,0,0,0,0,0,0,0,0,0,0,0,0,0,0,0,0,0,0,0,0,0,0,0,0,0,0,0,0,0,0,0,0,0,0,0,0,0,0,0,0,0,0,0,0,0,0,0,0,0,0,0,0,0,0,0,0,0,0,0,0,0,0,0,0,0,0,0,0,0,0,0,0,0,0,0,0,0,0,0,0,0,0,0,0,0,0,0,0,0,0,0,0,0,0,0,0,0,0,0,0,0,0,0,0,0,0,0,0,0,0,0,0,0,0,0,0,0,0,0,0,0,0,0,0,0,0,0,0,0,0,0,0,0,0,0,0,0,0,0,0,0,0,0,0,0,0,0,0,0,0,0,0,0,0,0,0,0,0,0,0,0,0,0,0,0,0,0,0,0,0,0,0,0,0,0,0,0,0,0,0,0,0,0,0,0,0,0,0,0,0,0,0,0,0,0,0,0,0,0,0,0,0,0,0,0,0,0,0,0,0,0,0,0,0,0,0,0,0,0,0,0,0,0,0,0,0,0,0,0,0,0,0,0,0,0,0,0,0,0,0,0,0,0,0,0,0,0,0,0,0,0,0,0,0,0,0,0,0,0,0,0,0,0,0,0,0,0,0,0,0,0,0,0,0,0,0,0,0,0,0,0,0,0,0,0,0,0,0,0,0,0,0,0,0,0,0,0,0,0,0,0,0,0,0,0,0,0,0,0,0,0,0,0,0,0,0,0,0,0,0,0,0,0,0,0,0,0,0,0,0,0,0,0,0,0,0,0,0,0,0,0,0,0,0,0,0,0,0,0,0,0,0,0,0,0,0,0,0,0,0,0,0,0,0,0,0,0,0,0,0,0,0,0,0,0,0,0,0,0,0,0,0,0,0,0,0,0,0,0,0,0,0,0,0,0,0,0,0,0,0,0,0,0,0,0,0,0,0,0,0,0,0,0,0,0,0,0,0,0,0,0,0,0,0,0,0,0,0,0,0,0,0,0,0,0,0,0,0,0,0,0,0,0,0,0,0,0,0,0,0,0,0,0,0,0,0,0,0,0,0,0,0,0,0,0,0,0,0,0,0,0,0,0,0,0,0,0,0,0,0,0,0,0,0,0,0,0,0,0,0,0,0,0,0,0,0,0,0,0,0,0,0,0,0,0,0,0,0,0,0,0,0,0,0,0,0,0,0,0,0,0,0,0,0,0,0,0,0,0,0,0,0,0,0,0,0,0,0,0,0,0,0,0,0,0,0,0,0,0,0,0,0,0,0,0,0,0,0,0,0,0,0,0,0,0,0,0,0,0,0,0,0,0,0,0,0,0,0,0,0,0,0,0,0,0,0,0,0,0,0,0,0,0,0,0,0,0,0,0,0,0,0,0,0,0,0,0,0,0,0,0,0,0,0,0,0,0,0,0,0,0,0,0,0,0,0,0,0,0,0,0,0,0,0,0,0,0,0,0,0,0,0,0,
0,0,0,0,0,0,0,0,0,0,0,0,0,0,0,0,0,0,0,0,0,0,0,0,0,0,0,0,0,0,0,0,0,0,0,0,0,0,0,0,0,0,0,0,0,0,0,0,0,0,0,0,0,0,0,0,0,0,0,0,0,0,0,0,0,0,0,0,0,0,0,0,0,0,0,0,0,0,0,0,0,0,0,0,0,0,0,0,0,0,0,0,0,0,0,0,0,0,0,0,0,0,0,0,0,0,0,0,0,0,0,0,0,0,0,0,0,0,0,0,0,0,0,0,0,0,0,0,0,0,0,0,0,0,0,0,0,0,0,0,0,0,0,0,0,0,0,0,0,0,0,0,0,0,0,0,0,0,0,0,0,0,0,0,0,0,0,0,0,0,0,0,0,0,0,0,0,0,0,0,0,0,0,0,0,0,0,0,0,0,0,0,0,0,0,0,0,0,0,0,0,0,0,0,0,0,0,0,0,0,0,0,0,0,0,0,0,0,0,0,0,0,0,0,0,0,0,0,0,0,0,0,0,0,0,0,0,0,0,0,0,0,0,0,0,0,0,0,0,0,0,0,0,0,0,0,0,0,0,0,0,0,0,0,0,0,0,0,0,0,0,0,0,0,0,0,0,0,0,0,0,0,0,0,0,0,0,0,0,0,0,0,0,0,0,0,0,0,0,0,0,0,0,0,0,0,0,0,0,0,0,0,0,0,0,0,0,0,0,0,0,0,0,0,0,0,0,0,0,0,0,0,0,0,0,0,0,0,0,0,0,0,0,0,0,0,0,0,0,0,0,0,0,0,0,0,0,0,0,0,0,0,0,0,0,0,0,0,0,0,0,0,0,0,0,0,0,0,0,0,0,0,0,0,0,0,0,0,0,0,0,0,0,0,0,0,0,0,0,0,0,0,0,0,0,0,0,0,0,0,0,0,0,0,0,0,0,0,0,0,0,0,0,0,0,0,0,0,0,0,0,0,0,0,0,0,0,0,0,0,0,0,0,0,0,0,0,0,0,0,0,0,0,0,0,0,0,0,0,0,0,0,0,0,0,0,0,0,0,0,0,0,0,0,0,0,0,0,0,0,0,0,0,0,0,0,0,0,0,0,0,0,0,0,0,0,0,0,0,0,0,0,0,0,0,0,0,0,0,0,0,0,0,0,0,0,0,0,0,0,0,0,0,0,0,0,0,0,0,0,0,0,0,0,0,0,0,0,0,0,0,0,0,0,0,0,0,0,0,0,0,0,0,0,0,0,0,0,0,0,0,0,0,0,0,0,0,0,0,0,0,0,0,0,0,0,0,0,0,0,0,0,0,0,0,0,0,0,0,0,0,0,0,0,0,0,0,0,0,0,0,0,0,0,0,0,0,0,0,0,0,0,0,0,0,0,0,0,0,0,0,0,0,0,0,0,0,0,0,0,0,0,0,0,0,0,0,0,0,0,0,0,0,0,0,0,0,0,0,0,0,0,0,0,0,0,0,0,0,0,0,0,0,0,0,0,0,0,0,0,0,0,0,0,0,0,0,0,0,0,0,0,0,0,0,0,0,0,0,0,0,0,0,0,0,0,0,0,0,0,0,0,0,0,0,0,0,0,0,0,0,0,0,0,0,0,0,0,0,0,0,0,0,0,0,0,0,0,0,0,0,0,0,0,0,0,0,0,0,0,0,0,0,0,0,0,0,0,0,0,0,0,0,0,0,0,0,0,0,0,0,0,0,0,0,0,0,0,0,0,0,0,0,0,0,0,0,0,0,0,0,0,0,0,0,0,0,0,0,0,0,0,0,0,0,0,0,0,0,0,0,0,0,0,0,0,0,0,0,0,0,0,0,0,0,0,0,0,0,0,0,0,0,0,0,0,0,0,0,0,0,0,0,0,0,0,0,0,0,0,0,0,0,0,0,0,0,0,0,0,0,0,0,0,0,0,0,0,0,0,0,0,0,0,0,0,0,0,0,0,0,0,0,0,0,0,0,0,0,0,0,0,0,0,0,0,0,0,0,0,0,0,0,0,0,0,0,0,0,0,0,0,0,0,0,0,0,0,0,0,0,0,0,0,0,0,0,0,0,0,0,0,0,0,0,0,0,0,0,0,0,0,0,0,0,0,0,0,0,0,0,0,0,0,0,0,0,0,0,0,0,0,0,0,0,0,0,0,0,0,0,0,0,0,0,0,0,0,0,0,0,0,0,0,0,0,0,0,0,0,0,0,0,0,0,0,0,0,0,0,0,0,0,0,0,0,0,0,0,0,
0,0,0,0,0,0,0,0,0,0,0,0,0,0,0,0,0,0,0,0,0,0,0,0,0,0,0,0,0,0,0,0,0,0,0,0,0,0,0,0,0,0,0,0,0,0,0,0,0,0,0,0,0,0,0,0,0,0,0,0,0,0,0,0,0,0,0,0,0,0,0,0,0,0,0,0,0,0,0,0,0,0,0,0,0,0,0,0,0,0,0,0,0,0,0,0,0,0,0,0,0,0,0,0,0,0,0,0,0,0,0,0,0,0,0,0,0,0,0,0,0,0,0,0,0,0,0,0,0,0,0,0,0,0,0,0,0,0,0,0,0,0,0,0,0,0,0,0,0,0,0,0,0,0,0,0,0,0,0,0,0,0,0,0,0,0,0,0,0,0,0,0,0,0,0,0,0,0,0,0,0,0,0,0,0,0,0,0,0,0,0,0,0,0,0,0,0,0,0,0,0,0,0,0,0,0,0,0,0,0,0,0,0,0,0,0,0,0,0,0,0,0,0,0,0,0,0,0,0,0,0,0,0,0,0,0,0,0,0,0,0,0,0,0,0,0,0,0,0,0,0,0,0,0,0,0,0,0,0,0,0,0,0,0,0,0,0,0,0,0,0,0,0,0,0,0,0,0,0,0,0,0,0,0,0,0,0,0,0,0,0,0,0,0,0,0,0,0,0,0,0,0,0,0,0,0,0,0,0,0,0,0,0,0,0,0,0,0,0,0,0,0,0,0,0,0,0,0,0,0,0,0,0,0,0,0,0,0,0,0,0,0,0,0,0,0,0,0,0,0,0,0,0,0,0,0,0,0,0,0,0,0,0,0,0,0,0,0,0,0,0,0,0,0,0,0,0,0,0,0,0,0,0,0,0,0,0,0,0,0,0,0,0,0,0,0,0,0,0,0,0,0,0,0,0,0,0,0,0,0,0,0,0,0,0,0,0,0,0,0,0,0,0,0,0,0,0,0,0,0,0,0,0,0,0,0,0,0,0,0,0,0,0,0,0,0,0,0,0,0,0,0,0,0,0,0,0,0,0,0,0,0,0,0,0,0,0,0,0,0,0,0,0,0,0,0,0,0,0,0,0,0,0,0,0,0,0,0,0,0,0,0,0,0,0,0,0,0,0,0,0,0,0,0,0,0,0,0,0,0,0,0,0,0,0,0,0,0,0,0,0,0,0,0,0,0,0,0,0,0,0,0,0,0,0,0,0,0,0,0,0,0,0,0,0,0,0,0,0,0,0,0,0,0,0,0,0,0,0,0,0,0,0,0,0,0,0,0,0,0,0,0,0,0,0,0,0,0,0,0,0,0,0,0,0,0,0,0,0,0,0,0,0,0,0,0,0,0,0,0,0,0,0,0,0,0,0,0,0,0,0,0,0,0,0,0,0,0,0,0,0,0,0,0,0,0,0,0,0,0,0,0,0,0,0,0,0,0,0,0,0,0,0,0,0,0,0,0,0,0,0,0,0,0,0,0,0,0,0,0,0,0,0,0,0,0,0,0,0,0,0,0,0,0,0,0,0,0,0,0,0,0,0,0,0,0,0,0,0,0,0,0,0,0,0,0,0,0,0,0,0,0,0,0,0,0,0,0,0,0,0,0,0,0,0,0,0,0,0,0,0,0,0,0,0,0,0,0,0,0,0,0,0,0,0,0,0,0,0,0,0,0,0,0,0,0,0,0,0,0,0,0,0,0,0,0,0,0,0,0,0,0,0,0,0,0,0,0,0,0,0,0,0,0,0,0,0,0,0,0,0,0,0,0,0,0,0,0,0,0,0,0,0,0,0,0,0,0,0,0,0,0,0,0,0,0,0,0,0,0,0,0,0,0,0,0,0,0,0,0,0,0,0,0,0,0,0,0,0,0,0,0,0,0,0,0,0,0,0,0,0,0,0,0,0,0,0,0,0,0,0,0,0,0,0,0,0,0,0,0,0,0,0,0,0,0,0,0,0,0,0,0,0,0,0,0,0,0,0,0,0,0,0,0,0,0,0,0,0,0,0,0,0,0,0,0,0,0,0,0,0,0,0,0,0,0,0,0,0,0,0,0,0,0,0,0,0,0,0,0,0,0,0,0,0,0,0,0,0,0,0,0,0,0,0,0,0,0,0,0,0,0,0,0,0,0,0,0,0,0,0,0,0,0,0,0,0,0,0,0,0,0,0,0,0,0,0,0,0,0,0,0,0,0,0,0,0,0,0,0,0,0,0,0,0,0,0,0,0,0,0,0,0,0,0,0,0,0,0,0,
0,0,0,0,0,0,0,0,0,0,0,0,0,0,0,0,0,0,0,0,0,0,0,0,0,0,0,0,0,0,0,0,0,0,0,0,0,0,0,0,0,0,0,0,0,0,0,0,0,0,0,0,0,0,0,0,0,0,0,0,0,0,0,0,0,0,0,0,0,0,0,0,0,0,0,0,0,0,0,0,0,0,0,0,0,0,0,0,0,0,0,0,0,0,0,0,0,0,0,0,0,0,0,0,0,0,0,0,0,0,0,0,0,0,0,0,0,0,0,0,0,0,0,0,0,0,0,0,0,0,0,0,0,0,0,0,0,0,0,0,0,0,0,0,0,0,0,0,0,0,0,0,0,0,0,0,0,0,0,0,0,0,0,0,0,0,0,0,0,0,0,0,0,0,0,0,0,0,0,0,0,0,0,0,0,0,0,0,0,0,0,0,0,0,0,0,0,0,0,0,0,0,0,0,0,0,0,0,0,0,0,0,0,0,0,0,0,0,0,0,0,0,0,0,0,0,0,0,0,0,0,0,0,0,0,0,0,0,0,0,0,0,0,0,0,0,0,0,0,0,0,0,0,0,0,0,0,0,0,0,0,0,0,0,0,0,0,0,0,0,0,0,0,0,0,0,0,0,0,0,0,0,0,0,0,0,0,0,0,0,0,0,0,0,0,0,0,0,0,0,0,0,0,0,0,0,0,0,0,0,0,0,0,0,0,0,0,0,0,0,0,0,0,0,0,0,0,0,0,0,0,0,0,0,0,0,0,0,0,0,0,0,0,0,0,0,0,0,0,0,0,0,0,0,0,0,0,0,0,0,0,0,0,0,0,0,0,0,0,0,0,0,0,0,0,0,0,0,0,0,0,0,0,0,0,0,0,0,0,0,0,0,0,0,0,0,0,0,0,0,0,0,0,0,0,0,0,0,0,0,0,0,0,0,0,0,0,0,0,0,0,0,0,0,0,0,0,0,0,0,0,0,0,0,0,0,0,0,0,0,0,0,0,0,0,0,0,0,0,0,0,0,0,0,0,0,0,0,0,0,0,0,0,0,0,0,0,0,0,0,0,0,0,0,0,0,0,0,0,0,0,0,0,0,0,0,0,0,0,0,0,0,0,0,0,0,0,0,0,0,0,0,0,0,0,0,0,0,0,0,0,0,0,0,0,0,0,0,0,0,0,0,0,0,0,0,0,0,0,0,0,0,0,0,0,0,0,0,0,0,0,0,0,0,0,0,0,0,0,0,0,0,0,0,0,0,0,0,0,0,0,0,0,0,0,0,0,0,0,0,0,0,0,0,0,0,0,0,0,0,0,0,0,0,0,0,0,0,0,0,0,0,0,0,0,0,0,0,0,0,0,0,0,0,0,0,0,0,0,0,0,0,0,0,0,0,0,0,0,0,0,0,0,0,0,0,0,0,0,0,0,0,0,0,0,0,0,0,0,0,0,0,0,0,0,0,0,0,0,0,0,0,0,0,0,0,0,0,0,0,0,0,0,0,0,0,0,0,0,0,0,0,0,0,0,0,0,0,0,0,0,0,0,0,0,0,0,0,0,0,0,0,0,0,0,0,0,0,0,0,0,0,0,0,0,0,0,0,0,0,0,0,0,0,0,0,0,0,0,0,0,0,0,0,0,0,0,0,0,0,0,0,0,0,0,0,0,0,0,0,0,0,0,0,0,0,0,0,0,0,0,0,0,0,0,0,0,0,0,0,0,0,0,0,0,0,0,0,0,0,0,0,0,0,0,0,0,0,0,0,0,0,0,0,0,0,0,0,0,0,0,0,0,0,0,0,0,0,0,0,0,0,0,0,0,0,0,0,0,0,0,0,0,0,0,0,0,0,0,0,0,0,0,0,0,0,0,0,0,0,0,0,0,0,0,0,0,0,0,0,0,0,0,0,0,0,0,0,0,0,0,0,0,0,0,0,0,0,0,0,0,0,0,0,0,0,0,0,0,0,0,0,0,0,0,0,0,0,0,0,0,0,0,0,0,0,0,0,0,0,0,0,0,0,0,0,0,0,0,0,0,0,0,0,0,0,0,0,0,0,0,0,0,0,0,0,0,0,0,0,0,0,0,0,0,0,0,0,0,0,0,0,0,0,0,0,0,0,0,0,0,0,0,0,0,0,0,0,0,0,0,0,0,0,0,0,0,0,0,0,0,0,0,0,0,0,0,0,0,0,0,0,0,0,0,0,0,0,0,0,0,0,0,0,0,0,0,0,0,0,0,0,0,0,0,0,0,0,0,0,
0,0,0,0,0,0,0,0,0,0,0,0,0,0,0,0,0,0,0,0,0,0,0,0,0,0,0,0,0,0,0,0,0,0,0,0,0,0,0,0,0,0,0,0,0,0,0,0,0,0,0,0,0,0,0,0,0,0,0,0,0,0,0,0,0,0,0,0,0,0,0,0,0,0,0,0,0,0,0,0,0,0,0,0,0,0,0,0,0,0,0,0,0,0,0,0,0,0,0,0,0,0,0,0,0,0,0,0,0,0,0,0,0,0,0,0,0,0,0,0,0,0,0,0,0,0,0,0,0,0,0,0,0,0,0,0,0,0,0,0,0,0,0,0,0,0,0,0,0,0,0,0,0,0,0,0,0,0,0,0,0,0,0,0,0,0,0,0,0,0,0,0,0,0,0,0,0,0,0,0,0,0,0,0,0,0,0,0,0,0,0,0,0,0,0,0,0,0,0,0,0,0,0,0,0,0,0,0,0,0,0,0,0,0,0,0,0,0,0,0,0,0,0,0,0,0,0,0,0,0,0,0,0,0,0,0,0,0,0,0,0,0,0,0,0,0,0,0,0,0,0,0,0,0,0,0,0,0,0,0,0,0,0,0,0,0,0,0,0,0,0,0,0,0,0,0,0,0,0,0,0,0,0,0,0,0,0,0,0,0,0,0,0,0,0,0,0,0,0,0,0,0,0,0,0,0,0,0,0,0,0,0,0,0,0,0,0,0,0,0,0,0,0,0,0,0,0,0,0,0,0,0,0,0,0,0,0,0,0,0,0,0,0,0,0,0,0,0,0,0,0,0,0,0,0,0,0,0,0,0,0,0,0,0,0,0,0,0,0,0,0,0,0,0,0,0,0,0,0,0,0,0,0,0,0,0,0,0,0,0,0,0,0,0,0,0,0,0,0,0,0,0,0,0,0,0,0,0,0,0,0,0,0,0,0,0,0,0,0,0,0,0,0,0,0,0,0,0,0,0,0,0,0,0,0,0,0,0,0,0,0,0,0,0,0,0,0,0,0,0,0,0,0,0,0,0,0,0,0,0,0,0,0,0,0,0,0,0,0,0,0,0,0,0,0,0,0,0,0,0,0,0,0,0,0,0,0,0,0,0,0,0,0,0,0,0,0,0,0,0,0,0,0,0,0,0,0,0,0,0,0,0,0,0,0,0,0,0,0,0,0,0,0,0,0,0,0,0,0,0,0,0,0,0,0,0,0,0,0,0,0,0,0,0,0,0,0,0,0,0,0,0,0,0,0,0,0,0,0,0,0,0,0,0,0,0,0,0,0,0,0,0,0,0,0,0,0,0,0,0,0,0,0,0,0,0,0,0,0,0,0,0,0,0,0,0,0,0,0,0,0,0,0,0,0,0,0,0,0,0,0,0,0,0,0,0,0,0,0,0,0,0,0,0,0,0,0,0,0,0,0,0,0,0,0,0,0,0,0,0,0,0,0,0,0,0,0,0,0,0,0,0,0,0,0,0,0,0,0,0,0,0,0,0,0,0,0,0,0,0,0,0,0,0,0,0,0,0,0,0,0,0,0,0,0,0,0,0,0,0,0,0,0,0,0,0,0,0,0,0,0,0,0,0,0,0,0,0,0,0,0,0,0,0,0,0,0,0,0,0,0,0,0,0,0,0,0,0,0,0,0,0,0,0,0,0,0,0,0,0,0,0,0,0,0,0,0,0,0,0,0,0,0,0,0,0,0,0,0,0,0,0,0,0,0,0,0,0,0,0,0,0,0,0,0,0,0,0,0,0,0,0,0,0,0,0,0,0,0,0,0,0,0,0,0,0,0,0,0,0,0,0,0,0,0,0,0,0,0,0,0,0,0,0,0,0,0,0,0,0,0,0,0,0,0,0,0,0,0,0,0,0,0,0,0,0,0,0,0,0,0,0,0,0,0,0,0,0,0,0,0,0,0,0,0,0,0,0,0,0,0,0,0,0,0,0,0,0,0,0,0,0,0,0,0,0,0,0,0,0,0,0,0,0,0,0,0,0,0,0,0,0,0,0,0,0,0,0,0,0,0,0,0,0,0,0,0,0,0,0,0,0,0,0,0,0,0,0,0,0,0,0,0,0,0,0,0,0,0,0,0,0,0,0,0,0,0,0,0,0,0,0,0,0,0,0,0,0,0,0,0,0,0,0,0,0,0,0,0,0,0,0,0,0,0,0,0,0,0,0,0,0,0,0,0,0,0,0,0,0,0,0,0,0,0,0,0,0,0,0,0,0,0,0,0,0,0,0,0,0,
0,0,0,0,0,0,0,0,0,0,0,0,0,0,0,0,0,0,0,0,0,0,0,0,0,0,0,0,0,0,0,0,0,0,0,0,0,0,0,0,0,0,0,0,0,0,0,0,0,0,0,0,0,0,0,0,0,0,0,0,0,0,0,0,0,0,0,0,0,0,0,0,0,0,0,0,0,0,0,0,0,0,0,0,0,0,0,0,0,0,0,0,0,0,0,0,0,0,0,0,0,0,0,0,0,0,0,0,0,0,0,0,0,0,0,0,0,0,0,0,0,0,0,0,0,0,0,0,0,0,0,0,0,0,0,0,0,0,0,0,0,0,0,0,0,0,0,0,0,0,0,0,0,0,0,0,0,0,0,0,0,0,0,0,0,0,0,0,0,0,0,0,0,0,0,0,0,0,0,0,0,0,0,0,0,0,0,0,0,0,0,0,0,0,0,0,0,0,0,0,0,0,0,0,0,0,0,0,0,0,0,0,0,0,0,0,0,0,0,0,0,0,0,0,0,0,0,0,0,0,0,0,0,0,0,0,0,0,0,0,0,0,0,0,0,0,0,0,0,0,0,0,0,0,0,0,0,0,0,0,0,0,0,0,0,0,0,0,0,0,0,0,0,0,0,0,0,0,0,0,0,0,0,0,0,0,0,0,0,0,0,0,0,0,0,0,0,0,0,0,0,0,0,0,0,0,0,0,0,0,0,0,0,0,0,0,0,0,0,0,0,0,0,0,0,0,0,0,0,0,0,0,0,0,0,0,0,0,0,0,0,0,0,0,0,0,0,0,0,0,0,0,0,0,0,0,0,0,0,0,0,0,0,0,0,0,0,0,0,0,0,0,0,0,0,0,0,0,0,0,0,0,0,0,0,0,0,0,0,0,0,0,0,0,0,0,0,0,0,0,0,0,0,0,0,0,0,0,0,0,0,0,0,0,0,0,0,0,0,0,0,0,0,0,0,0,0,0,0,0,0,0,0,0,0,0,0,0,0,0,0,0,0,0,0,0,0,0,0,0,0,0,0,0,0,0,0,0,0,0,0,0,0,0,0,0,0,0,0,0,0,0,0,0,0,0,0,0,0,0,0,0,0,0,0,0,0,0,0,0,0,0,0,0,0,0,0,0,0,0,0,0,0,0,0,0,0,0,0,0,0,0,0,0,0,0,0,0,0,0,0,0,0,0,0,0,0,0,0,0,0,0,0,0,0,0,0,0,0,0,0,0,0,0,0,0,0,0,0,0,0,0,0,0,0,0,0,0,0,0,0,0,0,0,0,0,0,0,0,0,0,0,0,0,0,0,0,0,0,0,0,0,0,0,0,0,0,0,0,0,0,0,0,0,0,0,0,0,0,0,0,0,0,0,0,0,0,0,0,0,0,0,0,0,0,0,0,0,0,0,0,0,0,0,0,0,0,0,0,0,0,0,0,0,0,0,0,0,0,0,0,0,0,0,0,0,0,0,0,0,0,0,0,0,0,0,0,0,0,0,0,0,0,0,0,0,0,0,0,0,0,0,0,0,0,0,0,0,0,0,0,0,0,0,0,0,0,0,0,0,0,0,0,0,0,0,0,0,0,0,0,0,0,0,0,0,0,0,0,0,0,0,0,0,0,0,0,0,0,0,0,0,0,0,0,0,0,0,0,0,0,0,0,0,0,0,0,0,0,0,0,0,0,0,0,0,0,0,0,0,0,0,0,0,0,0,0,0,0,0,0,0,0,0,0,0,0,0,0,0,0,0,0,0,0,0,0,0,0,0,0,0,0,0,0,0,0,0,0,0,0,0,0,0,0,0,0,0,0,0,0,0,0,0,0,0,0,0,0,0,0,0,0,0,0,0,0,0,0,0,0,0,0,0,0,0,0,0,0,0,0,0,0,0,0,0,0,0,0,0,0,0,0,0,0,0,0,0,0,0,0,0,0,0,0,0,0,0,0,0,0,0,0,0,0,0,0,0,0,0,0,0,0,0,0,0,0,0,0,0,0,0,0,0,0,0,0,0,0,0,0,0,0,0,0,0,0,0,0,0,0,0,0,0,0,0,0,0,0,0,0,0,0,0,0,0,0,0,0,0,0,0,0,0,0,0,0,0,0,0,0,0,0,0,0,0,0,0,0,0,0,0,0,0,0,0,0,0,0,0,0,0,0,0,0,0,0,0,0,0,0,0,0,0,0,0,0,0,0,0,0,0,0,0,0,0,0,0,0,0,0,0,0,0,0,0,0,0,0,0,0,0,0,0,0,0,0,0,0,0,
0,0,0,0,0,0,0,0,0,0,0,0,0,0,0,0,0,0,0,0,0,0,0,0,0,0,0,0,0,0,0,0,0,0,0,0,0,0,0,0,0,0,0,0,0,0,0,0,0,0,0,0,0,0,0,0,0,0,0,0,0,0,0,0,0,0,0,0,0,0,0,0,0,0,0,0,0,0,0,0,0,0,0,0,0,0,0,0,0,0,0,0,0,0,0,0,0,0,0,0,0,0,0,0,0,0,0,0,0,0,0,0,0,0,0,0,0,0,0,0,0,0,0,0,0,0,0,0,0,0,0,0,0,0,0,0,0,0,0,0,0,0,0,0,0,0,0,0,0,0,0,0,0,0,0,0,0,0,0,0,0,0,0,0,0,0,0,0,0,0,0,0,0,0,0,0,0,0,0,0,0,0,0,0,0,0,0,0,0,0,0,0,0,0,0,0,0,0,0,0,0,0,0,0,0,0,0,0,0,0,0,0,0,0,0,0,0,0,0,0,0,0,0,0,0,0,0,0,0,0,0,0,0,0,0,0,0,0,0,0,0,0,0,0,0,0,0,0,0,0,0,0,0,0,0,0,0,0,0,0,0,0,0,0,0,0,0,0,0,0,0,0,0,0,0,0,0,0,0,0,0,0,0,0,0,0,0,0,0,0,0,0,0,0,0,0,0,0,0,0,0,0,0,0,0,0,0,0,0,0,0,0,0,0,0,0,0,0,0,0,0,0,0,0,0,0,0,0,0,0,0,0,0,0,0,0,0,0,0,0,0,0,0,0,0,0,0,0,0,0,0,0,0,0,0,0,0,0,0,0,0,0,0,0,0,0,0,0,0,0,0,0,0,0,0,0,0,0,0,0,0,0,0,0,0,0,0,0,0,0,0,0,0,0,0,0,0,0,0,0,0,0,0,0,0,0,0,0,0,0,0,0,0,0,0,0,0,0,0,0,0,0,0,0,0,0,0,0,0,0,0,0,0,0,0,0,0,0,0,0,0,0,0,0,0,0,0,0,0,0,0,0,0,0,0,0,0,0,0,0,0,0,0,0,0,0,0,0,0,0,0,0,0,0,0,0,0,0,0,0,0,0,0,0,0,0,0,0,0,0,0,0,0,0,0,0,0,0,0,0,0,0,0,0,0,0,0,0,0,0,0,0,0,0,0,0,0,0,0,0,0,0,0,0,0,0,0,0,0,0,0,0,0,0,0,0,0,0,0,0,0,0,0,0,0,0,0,0,0,0,0,0,0,0,0,0,0,0,0,0,0,0,0,0,0,0,0,0,0,0,0,0,0,0,0,0,0,0,0,0,0,0,0,0,0,0,0,0,0,0,0,0,0,0,0,0,0,0,0,0,0,0,0,0,0,0,0,0,0,0,0,0,0,0,0,0,0,0,0,0,0,0,0,0,0,0,0,0,0,0,0,0,0,0,0,0,0,0,0,0,0,0,0,0,0,0,0,0,0,0,0,0,0,0,0,0,0,0,0,0,0,0,0,0,0,0,0,0,0,0,0,0,0,0,0,0,0,0,0,0,0,0,0,0,0,0,0,0,0,0,0,0,0,0,0,0,0,0,0,0,0,0,0,0,0,0,0,0,0,0,0,0,0,0,0,0,0,0,0,0,0,0,0,0,0,0,0,0,0,0,0,0,0,0,0,0,0,0,0,0,0,0,0,0,0,0,0,0,0,0,0,0,0,0,0,0,0,0,0,0,0,0,0,0,0,0,0,0,0,0,0,0,0,0,0,0,0,0,0,0,0,0,0,0,0,0,0,0,0,0,0,0,0,0,0,0,0,0,0,0,0,0,0,0,0,0,0,0,0,0,0,0,0,0,0,0,0,0,0,0,0,0,0,0,0,0,0,0,0,0,0,0,0,0,0,0,0,0,0,0,0,0,0,0,0,0,0,0,0,0,0,0,0,0,0,0,0,0,0,0,0,0,0,0,0,0,0,0,0,0,0,0,0,0,0,0,0,0,0,0,0,0,0,0,0,0,0,0,0,0,0,0,0,0,0,0,0,0,0,0,0,0,0,0,0,0,0,0,0,0,0,0,0,0,0,0,0,0,0,0,0,0,0,0,0,0,0,0,0,0,0,0,0,0,0,0,0,0,0,0,0,0,0,0,0,0,0,0,0,0,0,0,0,0,0,0,0,0,0,0,0,0,0,0,0,0,0,0,0,0,0,0,0,0,0,0,0,0,0,0,0,0,0,0,0,0,0,0,0,0,0,0,0,0,0,0,0,0,0,0,
0,0,0,0,0,0,0,0,0,0,0,0,0,0,0,0,0,0,0,0,0,0,0,0,0,0,0,0,0,0,0,0,0,0,0,0,0,0,0,0,0,0,0,0,0,0,0,0,0,0,0,0,0,0,0,0,0,0,0,0,0,0,0,0,0,0,0,0,0,0,0,0,0,0,0,0,0,0,0,0,0,0,0,0,0,0,0,0,0,0,0,0,0,0,0,0,0,0,0,0,0,0,0,0,0,0,0,0,0,0,0,0,0,0,0,0,0,0,0,0,0,0,0,0,0,0,0,0,0,0,0,0,0,0,0,0,0,0,0,0,0,0,0,0,0,0,0,0,0,0,0,0,0,0,0,0,0,0,0,0,0,0,0,0,0,0,0,0,0,0,0,0,0,0,0,0,0,0,0,0,0,0,0,0,0,0,0,0,0,0,0,0,0,0,0,0,0,0,0,0,0,0,0,0,0,0,0,0,0,0,0,0,0,0,0,0,0,0,0,0,0,0,0,0,0,0,0,0,0,0,0,0,0,0,0,0,0,0,0,0,0,0,0,0,0,0,0,0,0,0,0,0,0,0,0,0,0,0,0,0,0,0,0,0,0,0,0,0,0,0,0,0,0,0,0,0,0,0,0,0,0,0,0,0,0,0,0,0,0,0,0,0,0,0,0,0,0,0,0,0,0,0,0,0,0,0,0,0,0,0,0,0,0,0,0,0,0,0,0,0,0,0,0,0,0,0,0,0,0,0,0,0,0,0,0,0,0,0,0,0,0,0,0,0,0,0,0,0,0,0,0,0,0,0,0,0,0,0,0,0,0,0,0,0,0,0,0,0,0,0,0,0,0,0,0,0,0,0,0,0,0,0,0,0,0,0,0,0,0,0,0,0,0,0,0,0,0,0,0,0,0,0,0,0,0,0,0,0,0,0,0,0,0,0,0,0,0,0,0,0,0,0,0,0,0,0,0,0,0,0,0,0,0,0,0,0,0,0,0,0,0,0,0,0,0,0,0,0,0,0,0,0,0,0,0,0,0,0,0,0,0,0,0,0,0,0,0,0,0,0,0,0,0,0,0,0,0,0,0,0,0,0,0,0,0,0,0,0,0,0,0,0,0,0,0,0,0,0,0,0,0,0,0,0,0,0,0,0,0,0,0,0,0,0,0,0,0,0,0,0,0,0,0,0,0,0,0,0,0,0,0,0,0,0,0,0,0,0,0,0,0,0,0,0,0,0,0,0,0,0,0,0,0,0,0,0,0,0,0,0,0,0,0,0,0,0,0,0,0,0,0,0,0,0,0,0,0,0,0,0,0,0,0,0,0,0,0,0,0,0,0,0,0,0,0,0,0,0,0,0,0,0,0,0,0,0,0,0,0,0,0,0,0,0,0,0,0,0,0,0,0,0,0,0,0,0,0,0,0,0,0,0,0,0,0,0,0,0,0,0,0,0,0,0,0,0,0,0,0,0,0,0,0,0,0,0,0,0,0,0,0,0,0,0,0,0,0,0,0,0,0,0,0,0,0,0,0,0,0,0,0,0,0,0,0,0,0,0,0,0,0,0,0,0,0,0,0,0,0,0,0,0,0,0,0,0,0,0,0,0,0,0,0,0,0,0,0,0,0,0,0,0,0,0,0,0,0,0,0,0,0,0,0,0,0,0,0,0,0,0,0,0,0,0,0,0,0,0,0,0,0,0,0,0,0,0,0,0,0,0,0,0,0,0,0,0,0,0,0,0,0,0,0,0,0,0,0,0,0,0,0,0,0,0,0,0,0,0,0,0,0,0,0,0,0,0,0,0,0,0,0,0,0,0,0,0,0,0,0,0,0,0,0,0,0,0,0,0,0,0,0,0,0,0,0,0,0,0,0,0,0,0,0,0,0,0,0,0,0,0,0,0,0,0,0,0,0,0,0,0,0,0,0,0,0,0,0,0,0,0,0,0,0,0,0,0,0,0,0,0,0,0,0,0,0,0,0,0,0,0,0,0,0,0,0,0,0,0,0,0,0,0,0,0,0,0,0,0,0,0,0,0,0,0,0,0,0,0,0,0,0,0,0,0,0,0,0,0,0,0,0,0,0,0,0,0,0,0,0,0,0,0,0,0,0,0,0,0,0,0,0,0,0,0,0,0,0,0,0,0,0,0,0,0,0,0,0,0,0,0,0,0,0,0,0,0,0,0,0,0,0,0,0,0,0,0,0,0,0,0,0,0,0,0,0,0,0,0,0,0,0,0,0,0,0,0,0,0,0,0,
0,0,0,0,0,0,0,0,0,0,0,0,0,0,0,0,0,0,0,0,0,0,0,0,0,0,0,0,0,0,0,0,0,0,0,0,0,0,0,0,0,0,0,0,0,0,0,0,0,0,0,0,0,0,0,0,0,0,0,0,0,0,0,0,0,0,0,0,0,0,0,0,0,0,0,0,0,0,0,0,0,0,0,0,0,0,0,0,0,0,0,0,0,0,0,0,0,0,0,0,0,0,0,0,0,0,0,0,0,0,0,0,0,0,0,0,0,0,0,0,0,0,0,0,0,0,0,0,0,0,0,0,0,0,0,0,0,0,0,0,0,0,0,0,0,0,0,0,0,0,0,0,0,0,0,0,0,0,0,0,0,0,0,0,0,0,0,0,0,0,0,0,0,0,0,0,0,0,0,0,0,0,0,0,0,0,0,0,0,0,0,0,0,0,0,0,0,0,0,0,0,0,0,0,0,0,0,0,0,0,0,0,0,0,0,0,0,0,0,0,0,0,0,0,0,0,0,0,0,0,0,0,0,0,0,0,0,0,0,0,0,0,0,0,0,0,0,0,0,0,0,0,0,0,0,0,0,0,0,0,0,0,0,0,0,0,0,0,0,0,0,0,0,0,0,0,0,0,0,0,0,0,0,0,0,0,0,0,0,0,0,0,0,0,0,0,0,0,0,0,0,0,0,0,0,0,0,0,0,0,0,0,0,0,0,0,0,0,0,0,0,0,0,0,0,0,0,0,0,0,0,0,0,0,0,0,0,0,0,0,0,0,0,0,0,0,0,0,0,0,0,0,0,0,0,0,0,0,0,0,0,0,0,0,0,0,0,0,0,0,0,0,0,0,0,0,0,0,0,0,0,0,0,0,0,0,0,0,0,0,0,0,0,0,0,0,0,0,0,0,0,0,0,0,0,0,0,0,0,0,0,0,0,0,0,0,0,0,0,0,0,0,0,0,0,0,0,0,0,0,0,0,0,0,0,0,0,0,0,0,0,0,0,0,0,0,0,0,0,0,0,0,0,0,0,0,0,0,0,0,0,0,0,0,0,0,0,0,0,0,0,0,0,0,0,0,0,0,0,0,0,0,0,0,0,0,0,0,0,0,0,0,0,0,0,0,0,0,0,0,0,0,0,0,0,0,0,0,0,0,0,0,0,0,0,0,0,0,0,0,0,0,0,0,0,0,0,0,0,0,0,0,0,0,0,0,0,0,0,0,0,0,0,0,0,0,0,0,0,0,0,0,0,0,0,0,0,0,0,0,0,0,0,0,0,0,0,0,0,0,0,0,0,0,0,0,0,0,0,0,0,0,0,0,0,0,0,0,0,0,0,0,0,0,0,0,0,0,0,0,0,0,0,0,0,0,0,0,0,0,0,0,0,0,0,0,0,0,0,0,0,0,0,0,0,0,0,0,0,0,0,0,0,0,0,0,0,0,0,0,0,0,0,0,0,0,0,0,0,0,0,0,0,0,0,0,0,0,0,0,0,0,0,0,0,0,0,0,0,0,0,0,0,0,0,0,0,0,0,0,0,0,0,0,0,0,0,0,0,0,0,0,0,0,0,0,0,0,0,0,0,0,0,0,0,0,0,0,0,0,0,0,0,0,0,0,0,0,0,0,0,0,0,0,0,0,0,0,0,0,0,0,0,0,0,0,0,0,0,0,0,0,0,0,0,0,0,0,0,0,0,0,0,0,0,0,0,0,0,0,0,0,0,0,0,0,0,0,0,0,0,0,0,0,0,0,0,0,0,0,0,0,0,0,0,0,0,0,0,0,0,0,0,0,0,0,0,0,0,0,0,0,0,0,0,0,0,0,0,0,0,0,0,0,0,0,0,0,0,0,0,0,0,0,0,0,0,0,0,0,0,0,0,0,0,0,0,0,0,0,0,0,0,0,0,0,0,0,0,0,0,0,0,0,0,0,0,0,0,0,0,0,0,0,0,0,0,0,0,0,0,0,0,0,0,0,0,0,0,0,0,0,0,0,0,0,0,0,0,0,0,0,0,0,0,0,0,0,0,0,0,0,0,0,0,0,0,0,0,0,0,0,0,0,0,0,0,0,0,0,0,0,0,0,0,0,0,0,0,0,0,0,0,0,0,0,0,0,0,0,0,0,0,0,0,0,0,0,0,0,0,0,0,0,0,0,0,0,0,0,0,0,0,0,0,0,0,0,0,0,0,0,0,0,0,0,0,0,0,0,0,0,0,0,0,0,0,0,0,0,0,0,0,0,0,0,0,0,0,0,
0,0,0,0,0,0,0,0,0,0,0,0,0,0,0,0,0,0,0,0,0,0,0,0,0,0,0,0,0,0,0,0,0,0,0,0,0,0,0,0,0,0,0,0,0,0,0,0,0,0,0,0,0,0,0,0,0,0,0,0,0,0,0,0,0,0,0,0,0,0,0,0,0,0,0,0,0,0,0,0,0,0,0,0,0,0,0,0,0,0,0,0,0,0,0,0,0,0,0,0,0,0,0,0,0,0,0,0,0,0,0,0,0,0,0,0,0,0,0,0,0,0,0,0,0,0,0,0,0,0,0,0,0,0,0,0,0,0,0,0,0,0,0,0,0,0,0,0,0,0,0,0,0,0,0,0,0,0,0,0,0,0,0,0,0,0,0,0,0,0,0,0,0,0,0,0,0,0,0,0,0,0,0,0,0,0,0,0,0,0,0,0,0,0,0,0,0,0,0,0,0,0,0,0,0,0,0,0,0,0,0,0,0,0,0,0,0,0,0,0,0,0,0,0,0,0,0,0,0,0,0,0,0,0,0,0,0,0,0,0,0,0,0,0,0,0,0,0,0,0,0,0,0,0,0,0,0,0,0,0,0,0,0,0,0,0,0,0,0,0,0,0,0,0,0,0,0,0,0,0,0,0,0,0,0,0,0,0,0,0,0,0,0,0,0,0,0,0,0,0,0,0,0,0,0,0,0,0,0,0,0,0,0,0,0,0,0,0,0,0,0,0,0,0,0,0,0,0,0,0,0,0,0,0,0,0,0,0,0,0,0,0,0,0,0,0,0,0,0,0,0,0,0,0,0,0,0,0,0,0,0,0,0,0,0,0,0,0,0,0,0,0,0,0,0,0,0,0,0,0,0,0,0,0,0,0,0,0,0,0,0,0,0,0,0,0,0,0,0,0,0,0,0,0,0,0,0,0,0,0,0,0,0,0,0,0,0,0,0,0,0,0,0,0,0,0,0,0,0,0,0,0,0,0,0,0,0,0,0,0,0,0,0,0,0,0,0,0,0,0,0,0,0,0,0,0,0,0,0,0,0,0,0,0,0,0,0,0,0,0,0,0,0,0,0,0,0,0,0,0,0,0,0,0,0,0,0,0,0,0,0,0,0,0,0,0,0,0,0,0,0,0,0,0,0,0,0,0,0,0,0,0,0,0,0,0,0,0,0,0,0,0,0,0,0,0,0,0,0,0,0,0,0,0,0,0,0,0,0,0,0,0,0,0,0,0,0,0,0,0,0,0,0,0,0,0,0,0,0,0,0,0,0,0,0,0,0,0,0,0,0,0,0,0,0,0,0,0,0,0,0,0,0,0,0,0,0,0,0,0,0,0,0,0,0,0,0,0,0,0,0,0,0,0,0,0,0,0,0,0,0,0,0,0,0,0,0,0,0,0,0,0,0,0,0,0,0,0,0,0,0,0,0,0,0,0,0,0,0,0,0,0,0,0,0,0,0,0,0,0,0,0,0,0,0,0,0,0,0,0,0,0,0,0,0,0,0,0,0,0,0,0,0,0,0,0,0,0,0,0,0,0,0,0,0,0,0,0,0,0,0,0,0,0,0,0,0,0,0,0,0,0,0,0,0,0,0,0,0,0,0,0,0,0,0,0,0,0,0,0,0,0,0,0,0,0,0,0,0,0,0,0,0,0,0,0,0,0,0,0,0,0,0,0,0,0,0,0,0,0,0,0,0,0,0,0,0,0,0,0,0,0,0,0,0,0,0,0,0,0,0,0,0,0,0,0,0,0,0,0,0,0,0,0,0,0,0,0,0,0,0,0,0,0,0,0,0,0,0,0,0,0,0,0,0,0,0,0,0,0,0,0,0,0,0,0,0,0,0,0,0,0,0,0,0,0,0,0,0,0,0,0,0,0,0,0,0,0,0,0,0,0,0,0,0,0,0,0,0,0,0,0,0,0,0,0,0,0,0,0,0,0,0,0,0,0,0,0,0,0,0,0,0,0,0,0,0,0,0,0,0,0,0,0,0,0,0,0,0,0,0,0,0,0,0,0,0,0,0,0,0,0,0,0,0,0,0,0,0,0,0,0,0,0,0,0,0,0,0,0,0,0,0,0,0,0,0,0,0,0,0,0,0,0,0,0,0,0,0,0,0,0,0,0,0,0,0,0,0,0,0,0,0,0,0,0,0,0,0,0,0,0,0,0,0,0,0,0,0,0,0,0,0,0,0,0,0,0,0,0,0,0,0,0,0,0,0,0,0,0,0,0,0,0,0,0,0,0,0,0,
0,0,0,0,0,0,0,0,0,0,0,0,0,0,0,0,0,0,0,0,0,0,0,0,0,0,0,0,0,0,0,0,0,0,0,0,0,0,0,0,0,0,0,0,0,0,0,0,0,0,0,0,0,0,0,0,0,0,0,0,0,0,0,0,0,0,0,0,0,0,0,0,0,0,0,0,0,0,0,0,0,0,0,0,0,0,0,0,0,0,0,0,0,0,0,0,0,0,0,0,0,0,0,0,0,0,0,0,0,0,0,0,0,0,0,0,0,0,0,0,0,0,0,0,0,0,0,0,0,0,0,0,0,0,0,0,0,0,0,0,0,0,0,0,0,0,0,0,0,0,0,0,0,0,0,0,0,0,0,0,0,0,0,0,0,0,0,0,0,0,0,0,0,0,0,0,0,0,0,0,0,0,0,0,0,0,0,0,0,0,0,0,0,0,0,0,0,0,0,0,0,0,0,0,0,0,0,0,0,0,0,0,0,0,0,0,0,0,0,0,0,0,0,0,0,0,0,0,0,0,0,0,0,0,0,0,0,0,0,0,0,0,0,0,0,0,0,0,0,0,0,0,0,0,0,0,0,0,0,0,0,0,0,0,0,0,0,0,0,0,0,0,0,0,0,0,0,0,0,0,0,0,0,0,0,0,0,0,0,0,0,0,0,0,0,0,0,0,0,0,0,0,0,0,0,0,0,0,0,0,0,0,0,0,0,0,0,0,0,0,0,0,0,0,0,0,0,0,0,0,0,0,0,0,0,0,0,0,0,0,0,0,0,0,0,0,0,0,0,0,0,0,0,0,0,0,0,0,0,0,0,0,0,0,0,0,0,0,0,0,0,0,0,0,0,0,0,0,0,0,0,0,0,0,0,0,0,0,0,0,0,0,0,0,0,0,0,0,0,0,0,0,0,0,0,0,0,0,0,0,0,0,0,0,0,0,0,0,0,0,0,0,0,0,0,0,0,0,0,0,0,0,0,0,0,0,0,0,0,0,0,0,0,0,0,0,0,0,0,0,0,0,0,0,0,0,0,0,0,0,0,0,0,0,0,0,0,0,0,0,0,0,0,0,0,0,0,0,0,0,0,0,0,0,0,0,0,0,0,0,0,0,0,0,0,0,0,0,0,0,0,0,0,0,0,0,0,0,0,0,0,0,0,0,0,0,0,0,0,0,0,0,0,0,0,0,0,0,0,0,0,0,0,0,0,0,0,0,0,0,0,0,0,0,0,0,0,0,0,0,0,0,0,0,0,0,0,0,0,0,0,0,0,0,0,0,0,0,0,0,0,0,0,0,0,0,0,0,0,0,0,0,0,0,0,0,0,0,0,0,0,0,0,0,0,0,0,0,0,0,0,0,0,0,0,0,0,0,0,0,0,0,0,0,0,0,0,0,0,0,0,0,0,0,0,0,0,0,0,0,0,0,0,0,0,0,0,0,0,0,0,0,0,0,0,0,0,0,0,0,0,0,0,0,0,0,0,0,0,0,0,0,0,0,0,0,0,0,0,0,0,0,0,0,0,0,0,0,0,0,0,0,0,0,0,0,0,0,0,0,0,0,0,0,0,0,0,0,0,0,0,0,0,0,0,0,0,0,0,0,0,0,0,0,0,0,0,0,0,0,0,0,0,0,0,0,0,0,0,0,0,0,0,0,0,0,0,0,0,0,0,0,0,0,0,0,0,0,0,0,0,0,0,0,0,0,0,0,0,0,0,0,0,0,0,0,0,0,0,0,0,0,0,0,0,0,0,0,0,0,0,0,0,0,0,0,0,0,0,0,0,0,0,0,0,0,0,0,0,0,0,0,0,0,0,0,0,0,0,0,0,0,0,0,0,0,0,0,0,0,0,0,0,0,0,0,0,0,0,0,0,0,0,0,0,0,0,0,0,0,0,0,0,0,0,0,0,0,0,0,0,0,0,0,0,0,0,0,0,0,0,0,0,0,0,0,0,0,0,0,0,0,0,0,0,0,0,0,0,0,0,0,0,0,0,0,0,0,0,0,0,0,0,0,0,0,0,0,0,0,0,0,0,0,0,0,0,0,0,0,0,0,0,0,0,0,0,0,0,0,0,0,0,0,0,0,0,0,0,0,0,0,0,0,0,0,0,0,0,0,0,0,0,0,0,0,0,0,0,0,0,0,0,0,0,0,0,0,0,0,0,0,0,0,0,0,0,0,0,0,0,0,0,0,0,0,0,0,0,0,0,0,0,0,0,0,0,0,0,0,0,0,0,0,0,0,0,0,0,0,
0,0,0,0,0,0,0,0,0,0,0,0,0,0,0,0,0,0,0,0,0,0,0,0,0,0,0,0,0,0,0,0,0,0,0,0,0,0,0,0,0,0,0,0,0,0,0,0,0,0,0,0,0,0,0,0,0,0,0,0,0,0,0,0,0,0,0,0,0,0,0,0,0,0,0,0,0,0,0,0,0,0,0,0,0,0,0,0,0,0,0,0,0,0,0,0,0,0,0,0,0,0,0,0,0,0,0,0,0,0,0,0,0,0,0,0,0,0,0,0,0,0,0,0,0,0,0,0,0,0,0,0,0,0,0,0,0,0,0,0,0,0,0,0,0,0,0,0,0,0,0,0,0,0,0,0,0,0,0,0,0,0,0,0,0,0,0,0,0,0,0,0,0,0,0,0,0,0,0,0,0,0,0,0,0,0,0,0,0,0,0,0,0,0,0,0,0,0,0,0,0,0,0,0,0,0,0,0,0,0,0,0,0,0,0,0,0,0,0,0,0,0,0,0,0,0,0,0,0,0,0,0,0,0,0,0,0,0,0,0,0,0,0,0,0,0,0,0,0,0,0,0,0,0,0,0,0,0,0,0,0,0,0,0,0,0,0,0,0,0,0,0,0,0,0,0,0,0,0,0,0,0,0,0,0,0,0,0,0,0,0,0,0,0,0,0,0,0,0,0,0,0,0,0,0,0,0,0,0,0,0,0,0,0,0,0,0,0,0,0,0,0,0,0,0,0,0,0,0,0,0,0,0,0,0,0,0,0,0,0,0,0,0,0,0,0,0,0,0,0,0,0,0,0,0,0,0,0,0,0,0,0,0,0,0,0,0,0,0,0,0,0,0,0,0,0,0,0,0,0,0,0,0,0,0,0,0,0,0,0,0,0,0,0,0,0,0,0,0,0,0,0,0,0,0,0,0,0,0,0,0,0,0,0,0,0,0,0,0,0,0,0,0,0,0,0,0,0,0,0,0,0,0,0,0,0,0,0,0,0,0,0,0,0,0,0,0,0,0,0,0,0,0,0,0,0,0,0,0,0,0,0,0,0,0,0,0,0,0,0,0,0,0,0,0,0,0,0,0,0,0,0,0,0,0,0,0,0,0,0,0,0,0,0,0,0,0,0,0,0,0,0,0,0,0,0,0,0,0,0,0,0,0,0,0,0,0,0,0,0,0,0,0,0,0,0,0,0,0,0,0,0,0,0,0,0,0,0,0,0,0,0,0,0,0,0,0,0,0,0,0,0,0,0,0,0,0,0,0,0,0,0,0,0,0,0,0,0,0,0,0,0,0,0,0,0,0,0,0,0,0,0,0,0,0,0,0,0,0,0,0,0,0,0,0,0,0,0,0,0,0,0,0,0,0,0,0,0,0,0,0,0,0,0,0,0,0,0,0,0,0,0,0,0,0,0,0,0,0,0,0,0,0,0,0,0,0,0,0,0,0,0,0,0,0,0,0,0,0,0,0,0,0,0,0,0,0,0,0,0,0,0,0,0,0,0,0,0,0,0,0,0,0,0,0,0,0,0,0,0,0,0,0,0,0,0,0,0,0,0,0,0,0,0,0,0,0,0,0,0,0,0,0,0,0,0,0,0,0,0,0,0,0,0,0,0,0,0,0,0,0,0,0,0,0,0,0,0,0,0,0,0,0,0,0,0,0,0,0,0,0,0,0,0,0,0,0,0,0,0,0,0,0,0,0,0,0,0,0,0,0,0,0,0,0,0,0,0,0,0,0,0,0,0,0,0,0,0,0,0,0,0,0,0,0,0,0,0,0,0,0,0,0,0,0,0,0,0,0,0,0,0,0,0,0,0,0,0,0,0,0,0,0,0,0,0,0,0,0,0,0,0,0,0,0,0,0,0,0,0,0,0,0,0,0,0,0,0,0,0,0,0,0,0,0,0,0,0,0,0,0,0,0,0,0,0,0,0,0,0,0,0,0,0,0,0,0,0,0,0,0,0,0,0,0,0,0,0,0,0,0,0,0,0,0,0,0,0,0,0,0,0,0,0,0,0,0,0,0,0,0,0,0,0,0,0,0,0,0,0,0,0,0,0,0,0,0,0,0,0,0,0,0,0,0,0,0,0,0,0,0,0,0,0,0,0,0,0,0,0,0,0,0,0,0,0,0,0,0,0,0,0,0,0,0,0,0,0,0,0,0,0,0,0,0,0,0,0,0,0,0,0,0,0,0,0,0,0,0,0,0,0,0,0,0,0,0,0,0,0,0,0,0,0,0,0,0,0,0,0,
0,0,0,0,0,0,0,0,0,0,0,0,0,0,0,0,0,0,0,0,0,0,0,0,0,0,0,0,0,0,0,0,0,0,0,0,0,0,0,0,0,0,0,0,0,0,0,0,0,0,0,0,0,0,0,0,0,0,0,0,0,0,0,0,0,0,0,0,0,0,0,0,0,0,0,0,0,0,0,0,0,0,0,0,0,0,0,0,0,0,0,0,0,0,0,0,0,0,0,0,0,0,0,0,0,0,0,0,0,0,0,0,0,0,0,0,0,0,0,0,0,0,0,0,0,0,0,0,0,0,0,0,0,0,0,0,0,0,0,0,0,0,0,0,0,0,0,0,0,0,0,0,0,0,0,0,0,0,0,0,0,0,0,0,0,0,0,0,0,0,0,0,0,0,0,0,0,0,0,0,0,0,0,0,0,0,0,0,0,0,0,0,0,0,0,0,0,0,0,0,0,0,0,0,0,0,0,0,0,0,0,0,0,0,0,0,0,0,0,0,0,0,0,0,0,0,0,0,0,0,0,0,0,0,0,0,0,0,0,0,0,0,0,0,0,0,0,0,0,0,0,0,0,0,0,0,0,0,0,0,0,0,0,0,0,0,0,0,0,0,0,0,0,0,0,0,0,0,0,0,0,0,0,0,0,0,0,0,0,0,0,0,0,0,0,0,0,0,0,0,0,0,0,0,0,0,0,0,0,0,0,0,0,0,0,0,0,0,0,0,0,0,0,0,0,0,0,0,0,0,0,0,0,0,0,0,0,0,0,0,0,0,0,0,0,0,0,0,0,0,0,0,0,0,0,0,0,0,0,0,0,0,0,0,0,0,0,0,0,0,0,0,0,0,0,0,0,0,0,0,0,0,0,0,0,0,0,0,0,0,0,0,0,0,0,0,0,0,0,0,0,0,0,0,0,0,0,0,0,0,0,0,0,0,0,0,0,0,0,0,0,0,0,0,0,0,0,0,0,0,0,0,0,0,0,0,0,0,0,0,0,0,0,0,0,0,0,0,0,0,0,0,0,0,0,0,0,0,0,0,0,0,0,0,0,0,0,0,0,0,0,0,0,0,0,0,0,0,0,0,0,0,0,0,0,0,0,0,0,0,0,0,0,0,0,0,0,0,0,0,0,0,0,0,0,0,0,0,0,0,0,0,0,0,0,0,0,0,0,0,0,0,0,0,0,0,0,0,0,0,0,0,0,0,0,0,0,0,0,0,0,0,0,0,0,0,0,0,0,0,0,0,0,0,0,0,0,0,0,0,0,0,0,0,0,0,0,0,0,0,0,0,0,0,0,0,0,0,0,0,0,0,0,0,0,0,0,0,0,0,0,0,0,0,0,0,0,0,0,0,0,0,0,0,0,0,0,0,0,0,0,0,0,0,0,0,0,0,0,0,0,0,0,0,0,0,0,0,0,0,0,0,0,0,0,0,0,0,0,0,0,0,0,0,0,0,0,0,0,0,0,0,0,0,0,0,0,0,0,0,0,0,0,0,0,0,0,0,0,0,0,0,0,0,0,0,0,0,0,0,0,0,0,0,0,0,0,0,0,0,0,0,0,0,0,0,0,0,0,0,0,0,0,0,0,0,0,0,0,0,0,0,0,0,0,0,0,0,0,0,0,0,0,0,0,0,0,0,0,0,0,0,0,0,0,0,0,0,0,0,0,0,0,0,0,0,0,0,0,0,0,0,0,0,0,0,0,0,0,0,0,0,0,0,0,0,0,0,0,0,0,0,0,0,0,0,0,0,0,0,0,0,0,0,0,0,0,0,0,0,0,0,0,0,0,0,0,0,0,0,0,0,0,0,0,0,0,0,0,0,0,0,0,0,0,0,0,0,0,0,0,0,0,0,0,0,0,0,0,0,0,0,0,0,0,0,0,0,0,0,0,0,0,0,0,0,0,0,0,0,0,0,0,0,0,0,0,0,0,0,0,0,0,0,0,0,0,0,0,0,0,0,0,0,0,0,0,0,0,0,0,0,0,0,0,0,0,0,0,0,0,0,0,0,0,0,0,0,0,0,0,0,0,0,0,0,0,0,0,0,0,0,0,0,0,0,0,0,0,0,0,0,0,0,0,0,0,0,0,0,0,0,0,0,0,0,0,0,0,0,0,0,0,0,0,0,0,0,0,0,0,0,0,0,0,0,0,0,0,0,0,0,0,0,0,0,0,0,0,0,0,0,0,0,0,0,0,0,0,0,0,0,0,0,0,0,0,0,0,0,0,0,0,0,0,0,0,0,0,0,
0,0,0,0,0,0,0,0,0,0,0,0,0,0,0,0,0,0,0,0,0,0,0,0,0,0,0,0,0,0,0,0,0,0,0,0,0,0,0,0,0,0,0,0,0,0,0,0,0,0,0,0,0,0,0,0,0,0,0,0,0,0,0,0,0,0,0,0,0,0,0,0,0,0,0,0,0,0,0,0,0,0,0,0,0,0,0,0,0,0,0,0,0,0,0,0,0,0,0,0,0,0,0,0,0,0,0,0,0,0,0,0,0,0,0,0,0,0,0,0,0,0,0,0,0,0,0,0,0,0,0,0,0,0,0,0,0,0,0,0,0,0,0,0,0,0,0,0,0,0,0,0,0,0,0,0,0,0,0,0,0,0,0,0,0,0,0,0,0,0,0,0,0,0,0,0,0,0,0,0,0,0,0,0,0,0,0,0,0,0,0,0,0,0,0,0,0,0,0,0,0,0,0,0,0,0,0,0,0,0,0,0,0,0,0,0,0,0,0,0,0,0,0,0,0,0,0,0,0,0,0,0,0,0,0,0,0,0,0,0,0,0,0,0,0,0,0,0,0,0,0,0,0,0,0,0,0,0,0,0,0,0,0,0,0,0,0,0,0,0,0,0,0,0,0,0,0,0,0,0,0,0,0,0,0,0,0,0,0,0,0,0,0,0,0,0,0,0,0,0,0,0,0,0,0,0,0,0,0,0,0,0,0,0,0,0,0,0,0,0,0,0,0,0,0,0,0,0,0,0,0,0,0,0,0,0,0,0,0,0,0,0,0,0,0,0,0,0,0,0,0,0,0,0,0,0,0,0,0,0,0,0,0,0,0,0,0,0,0,0,0,0,0,0,0,0,0,0,0,0,0,0,0,0,0,0,0,0,0,0,0,0,0,0,0,0,0,0,0,0,0,0,0,0,0,0,0,0,0,0,0,0,0,0,0,0,0,0,0,0,0,0,0,0,0,0,0,0,0,0,0,0,0,0,0,0,0,0,0,0,0,0,0,0,0,0,0,0,0,0,0,0,0,0,0,0,0,0,0,0,0,0,0,0,0,0,0,0,0,0,0,0,0,0,0,0,0,0,0,0,0,0,0,0,0,0,0,0,0,0,0,0,0,0,0,0,0,0,0,0,0,0,0,0,0,0,0,0,0,0,0,0,0,0,0,0,0,0,0,0,0,0,0,0,0,0,0,0,0,0,0,0,0,0,0,0,0,0,0,0,0,0,0,0,0,0,0,0,0,0,0,0,0,0,0,0,0,0,0,0,0,0,0,0,0,0,0,0,0,0,0,0,0,0,0,0,0,0,0,0,0,0,0,0,0,0,0,0,0,0,0,0,0,0,0,0,0,0,0,0,0,0,0,0,0,0,0,0,0,0,0,0,0,0,0,0,0,0,0,0,0,0,0,0,0,0,0,0,0,0,0,0,0,0,0,0,0,0,0,0,0,0,0,0,0,0,0,0,0,0,0,0,0,0,0,0,0,0,0,0,0,0,0,0,0,0,0,0,0,0,0,0,0,0,0,0,0,0,0,0,0,0,0,0,0,0,0,0,0,0,0,0,0,0,0,0,0,0,0,0,0,0,0,0,0,0,0,0,0,0,0,0,0,0,0,0,0,0,0,0,0,0,0,0,0,0,0,0,0,0,0,0,0,0,0,0,0,0,0,0,0,0,0,0,0,0,0,0,0,0,0,0,0,0,0,0,0,0,0,0,0,0,0,0,0,0,0,0,0,0,0,0,0,0,0,0,0,0,0,0,0,0,0,0,0,0,0,0,0,0,0,0,0,0,0,0,0,0,0,0,0,0,0,0,0,0,0,0,0,0,0,0,0,0,0,0,0,0,0,0,0,0,0,0,0,0,0,0,0,0,0,0,0,0,0,0,0,0,0,0,0,0,0,0,0,0,0,0,0,0,0,0,0,0,0,0,0,0,0,0,0,0,0,0,0,0,0,0,0,0,0,0,0,0,0,0,0,0,0,0,0,0,0,0,0,0,0,0,0,0,0,0,0,0,0,0,0,0,0,0,0,0,0,0,0,0,0,0,0,0,0,0,0,0,0,0,0,0,0,0,0,0,0,0,0,0,0,0,0,0,0,0,0,0,0,0,0,0,0,0,0,0,0,0,0,0,0,0,0,0,0,0,0,0,0,0,0,0,0,0,0,0,0,0,0,0,0,0,0,0,0,0,0,0,0,0,0,0,0,0,0,0,0,0,0,0,0,0,0,0,0,0,0,0,0,0,0,0,0,0,
0,0,0,0,0,0,0,0,0,0,0,0,0,0,0,0,0,0,0,0,0,0,0,0,0,0,0,0,0,0,0,0,0,0,0,0,0,0,0,0,0,0,0,0,0,0,0,0,0,0,0,0,0,0,0,0,0,0,0,0,0,0,0,0,0,0,0,0,0,0,0,0,0,0,0,0,0,0,0,0,0,0,0,0,0,0,0,0,0,0,0,0,0,0,0,0,0,0,0,0,0,0,0,0,0,0,0,0,0,0,0,0,0,0,0,0,0,0,0,0,0,0,0,0,0,0,0,0,0,0,0,0,0,0,0,0,0,0,0,0,0,0,0,0,0,0,0,0,0,0,0,0,0,0,0,0,0,0,0,0,0,0,0,0,0,0,0,0,0,0,0,0,0,0,0,0,0,0,0,0,0,0,0,0,0,0,0,0,0,0,0,0,0,0,0,0,0,0,0,0,0,0,0,0,0,0,0,0,0,0,0,0,0,0,0,0,0,0,0,0,0,0,0,0,0,0,0,0,0,0,0,0,0,0,0,0,0,0,0,0,0,0,0,0,0,0,0,0,0,0,0,0,0,0,0,0,0,0,0,0,0,0,0,0,0,0,0,0,0,0,0,0,0,0,0,0,0,0,0,0,0,0,0,0,0,0,0,0,0,0,0,0,0,0,0,0,0,0,0,0,0,0,0,0,0,0,0,0,0,0,0,0,0,0,0,0,0,0,0,0,0,0,0,0,0,0,0,0,0,0,0,0,0,0,0,0,0,0,0,0,0,0,0,0,0,0,0,0,0,0,0,0,0,0,0,0,0,0,0,0,0,0,0,0,0,0,0,0,0,0,0,0,0,0,0,0,0,0,0,0,0,0,0,0,0,0,0,0,0,0,0,0,0,0,0,0,0,0,0,0,0,0,0,0,0,0,0,0,0,0,0,0,0,0,0,0,0,0,0,0,0,0,0,0,0,0,0,0,0,0,0,0,0,0,0,0,0,0,0,0,0,0,0,0,0,0,0,0,0,0,0,0,0,0,0,0,0,0,0,0,0,0,0,0,0,0,0,0,0,0,0,0,0,0,0,0,0,0,0,0,0,0,0,0,0,0,0,0,0,0,0,0,0,0,0,0,0,0,0,0,0,0,0,0,0,0,0,0,0,0,0,0,0,0,0,0,0,0,0,0,0,0,0,0,0,0,0,0,0,0,0,0,0,0,0,0,0,0,0,0,0,0,0,0,0,0,0,0,0,0,0,0,0,0,0,0,0,0,0,0,0,0,0,0,0,0,0,0,0,0,0,0,0,0,0,0,0,0,0,0,0,0,0,0,0,0,0,0,0,0,0,0,0,0,0,0,0,0,0,0,0,0,0,0,0,0,0,0,0,0,0,0,0,0,0,0,0,0,0,0,0,0,0,0,0,0,0,0,0,0,0,0,0,0,0,0,0,0,0,0,0,0,0,0,0,0,0,0,0,0,0,0,0,0,0,0,0,0,0,0,0,0,0,0,0,0,0,0,0,0,0,0,0,0,0,0,0,0,0,0,0,0,0,0,0,0,0,0,0,0,0,0,0,0,0,0,0,0,0,0,0,0,0,0,0,0,0,0,0,0,0,0,0,0,0,0,0,0,0,0,0,0,0,0,0,0,0,0,0,0,0,0,0,0,0,0,0,0,0,0,0,0,0,0,0,0,0,0,0,0,0,0,0,0,0,0,0,0,0,0,0,0,0,0,0,0,0,0,0,0,0,0,0,0,0,0,0,0,0,0,0,0,0,0,0,0,0,0,0,0,0,0,0,0,0,0,0,0,0,0,0,0,0,0,0,0,0,0,0,0,0,0,0,0,0,0,0,0,0,0,0,0,0,0,0,0,0,0,0,0,0,0,0,0,0,0,0,0,0,0,0,0,0,0,0,0,0,0,0,0,0,0,0,0,0,0,0,0,0,0,0,0,0,0,0,0,0,0,0,0,0,0,0,0,0,0,0,0,0,0,0,0,0,0,0,0,0,0,0,0,0,0,0,0,0,0,0,0,0,0,0,0,0,0,0,0,0,0,0,0,0,0,0,0,0,0,0,0,0,0,0,0,0,0,0,0,0,0,0,0,0,0,0,0,0,0,0,0,0,0,0,0,0,0,0,0,0,0,0,0,0,0,0,0,0,0,0,0,0,0,0,0,0,0,0,0,0,0,0,0,0,0,0,0,0,0,0,0,0,0,0,0,0,0,0,0,0,0,0,0,0,0,0,0,0,0,0,0,0,0,
0,0,0,0,0,0,0,0,0,0,0,0,0,0,0,0,0,0,0,0,0,0,0,0,0,0,0,0,0,0,0,0,0,0,0,0,0,0,0,0,0,0,0,0,0,0,0,0,0,0,0,0,0,0,0,0,0,0,0,0,0,0,0,0,0,0,0,0,0,0,0,0,0,0,0,0,0,0,0,0,0,0,0,0,0,0,0,0,0,0,0,0,0,0,0,0,0,0,0,0,0,0,0,0,0,0,0,0,0,0,0,0,0,0,0,0,0,0,0,0,0,0,0,0,0,0,0,0,0,0,0,0,0,0,0,0,0,0,0,0,0,0,0,0,0,0,0,0,0,0,0,0,0,0,0,0,0,0,0,0,0,0,0,0,0,0,0,0,0,0,0,0,0,0,0,0,0,0,0,0,0,0,0,0,0,0,0,0,0,0,0,0,0,0,0,0,0,0,0,0,0,0,0,0,0,0,0,0,0,0,0,0,0,0,0,0,0,0,0,0,0,0,0,0,0,0,0,0,0,0,0,0,0,0,0,0,0,0,0,0,0,0,0,0,0,0,0,0,0,0,0,0,0,0,0,0,0,0,0,0,0,0,0,0,0,0,0,0,0,0,0,0,0,0,0,0,0,0,0,0,0,0,0,0,0,0,0,0,0,0,0,0,0,0,0,0,0,0,0,0,0,0,0,0,0,0,0,0,0,0,0,0,0,0,0,0,0,0,0,0,0,0,0,0,0,0,0,0,0,0,0,0,0,0,0,0,0,0,0,0,0,0,0,0,0,0,0,0,0,0,0,0,0,0,0,0,0,0,0,0,0,0,0,0,0,0,0,0,0,0,0,0,0,0,0,0,0,0,0,0,0,0,0,0,0,0,0,0,0,0,0,0,0,0,0,0,0,0,0,0,0,0,0,0,0,0,0,0,0,0,0,0,0,0,0,0,0,0,0,0,0,0,0,0,0,0,0,0,0,0,0,0,0,0,0,0,0,0,0,0,0,0,0,0,0,0,0,0,0,0,0,0,0,0,0,0,0,0,0,0,0,0,0,0,0,0,0,0,0,0,0,0,0,0,0,0,0,0,0,0,0,0,0,0,0,0,0,0,0,0,0,0,0,0,0,0,0,0,0,0,0,0,0,0,0,0,0,0,0,0,0,0,0,0,0,0,0,0,0,0,0,0,0,0,0,0,0,0,0,0,0,0,0,0,0,0,0,0,0,0,0,0,0,0,0,0,0,0,0,0,0,0,0,0,0,0,0,0,0,0,0,0,0,0,0,0,0,0,0,0,0,0,0,0,0,0,0,0,0,0,0,0,0,0,0,0,0,0,0,0,0,0,0,0,0,0,0,0,0,0,0,0,0,0,0,0,0,0,0,0,0,0,0,0,0,0,0,0,0,0,0,0,0,0,0,0,0,0,0,0,0,0,0,0,0,0,0,0,0,0,0,0,0,0,0,0,0,0,0,0,0,0,0,0,0,0,0,0,0,0,0,0,0,0,0,0,0,0,0,0,0,0,0,0,0,0,0,0,0,0,0,0,0,0,0,0,0,0,0,0,0,0,0,0,0,0,0,0,0,0,0,0,0,0,0,0,0,0,0,0,0,0,0,0,0,0,0,0,0,0,0,0,0,0,0,0,0,0,0,0,0,0,0,0,0,0,0,0,0,0,0,0,0,0,0,0,0,0,0,0,0,0,0,0,0,0,0,0,0,0,0,0,0,0,0,0,0,0,0,0,0,0,0,0,0,0,0,0,0,0,0,0,0,0,0,0,0,0,0,0,0,0,0,0,0,0,0,0,0,0,0,0,0,0,0,0,0,0,0,0,0,0,0,0,0,0,0,0,0,0,0,0,0,0,0,0,0,0,0,0,0,0,0,0,0,0,0,0,0,0,0,0,0,0,0,0,0,0,0,0,0,0,0,0,0,0,0,0,0,0,0,0,0,0,0,0,0,0,0,0,0,0,0,0,0,0,0,0,0,0,0,0,0,0,0,0,0,0,0,0,0,0,0,0,0,0,0,0,0,0,0,0,0,0,0,0,0,0,0,0,0,0,0,0,0,0,0,0,0,0,0,0,0,0,0,0,0,0,0,0,0,0,0,0,0,0,0,0,0,0,0,0,0,0,0,0,0,0,0,0,0,0,0,0,0,0,0,0,0,0,0,0,0,0,0,0,0,0,0,0,0,0,0,0,0,0,0,0,0,0,0,0,0,0,0,0,0,0,0,0,0,0,0,0,0,0,0,0,0,0,
0,0,0,0,0,0,0,0,0,0,0,0,0,0,0,0,0,0,0,0,0,0,0,0,0,0,0,0,0,0,0,0,0,0,0,0,0,0,0,0,0,0,0,0,0,0,0,0,0,0,0,0,0,0,0,0,0,0,0,0,0,0,0,0,0,0,0,0,0,0,0,0,0,0,0,0,0,0,0,0,0,0,0,0,0,0,0,0,0,0,0,0,0,0,0,0,0,0,0,0,0,0,0,0,0,0,0,0,0,0,0,0,0,0,0,0,0,0,0,0,0,0,0,0,0,0,0,0,0,0,0,0,0,0,0,0,0,0,0,0,0,0,0,0,0,0,0,0,0,0,0,0,0,0,0,0,0,0,0,0,0,0,0,0,0,0,0,0,0,0,0,0,0,0,0,0,0,0,0,0,0,0,0,0,0,0,0,0,0,0,0,0,0,0,0,0,0,0,0,0,0,0,0,0,0,0,0,0,0,0,0,0,0,0,0,0,0,0,0,0,0,0,0,0,0,0,0,0,0,0,0,0,0,0,0,0,0,0,0,0,0,0,0,0,0,0,0,0,0,0,0,0,0,0,0,0,0,0,0,0,0,0,0,0,0,0,0,0,0,0,0,0,0,0,0,0,0,0,0,0,0,0,0,0,0,0,0,0,0,0,0,0,0,0,0,0,0,0,0,0,0,0,0,0,0,0,0,0,0,0,0,0,0,0,0,0,0,0,0,0,0,0,0,0,0,0,0,0,0,0,0,0,0,0,0,0,0,0,0,0,0,0,0,0,0,0,0,0,0,0,0,0,0,0,0,0,0,0,0,0,0,0,0,0,0,0,0,0,0,0,0,0,0,0,0,0,0,0,0,0,0,0,0,0,0,0,0,0,0,0,0,0,0,0,0,0,0,0,0,0,0,0,0,0,0,0,0,0,0,0,0,0,0,0,0,0,0,0,0,0,0,0,0,0,0,0,0,0,0,0,0,0,0,0,0,0,0,0,0,0,0,0,0,0,0,0,0,0,0,0,0,0,0,0,0,0,0,0,0,0,0,0,0,0,0,0,0,0,0,0,0,0,0,0,0,0,0,0,0,0,0,0,0,0,0,0,0,0,0,0,0,0,0,0,0,0,0,0,0,0,0,0,0,2611,0,0,0,0,0,0,0,0,0,0,0,0,0,0,2611,0,0,0,0,0,0,0,0,0,0,0,0,0,0,0,0,0,0,0,0,0,0,0,0,0,0,0,0,0,0,0,0,0,0,0,0,0,0,0,0,0,0,0,0,0,0,0,0,0,0,0,0,0,0,0,0,0,0,0,0,0,0,0,0,0,0,0,0,0,0,0,0,0,0,0,0,0,0,0,0,0,0,0,0,0,0,0,0,0,0,0,0,0,0,0,0,0,0,0,0,0,0,0,0,0,0,0,0,0,0,0,0,0,0,0,0,0,0,0,0,0,0,0,0,0,0,0,0,0,0,0,0,0,0,0,0,0,0,0,0,0,0,0,0,0,0,0,0,0,0,0,0,0,0,0,0,0,0,0,0,0,0,0,0,0,0,0,0,0,0,0,0,0,0,0,0,0,0,0,0,0,0,0,0,0,0,0,0,0,0,0,0,0,0,0,0,0,0,0,0,0,0,0,0,0,0,0,0,0,0,0,0,0,0,0,0,0,0,0,0,0,0,0,0,0,0,0,0,0,0,0,0,0,0,0,0,0,0,0,0,0,0,0,0,0,0,0,0,0,0,0,0,0,0,0,0,0,0,0,0,0,0,0,0,0,0,0,0,0,0,0,0,0,0,0,0,0,0,0,0,0,0,0,0,0,0,0,0,0,0,0,0,0,0,0,0,0,0,0,0,0,0,0,0,0,0,0,0,0,0,0,0,0,0,0,0,0,0,0,0,0,0,0,0,0,0,0,0,0,0,0,0,0,0,0,0,0,0,0,0,0,0,0,0,0,0,0,0,0,0,0,0,0,0,0,0,0,0,0,0,0,0,0,0,0,0,0,0,0,0,0,0,0,0,0,0,0,0,0,0,0,0,0,0,0,0,0,0,0,0,0,0,0,0,0,0,0,0,0,0,0,0,0,0,0,0,0,0,0,0,0,0,0,0,0,0,0,0,0,0,0,0,0,0,0,0,0,0,0,0,0,0,0,0,0,0,0,0,0,0,0,0,0,0,0,0,0,0,0,0,0,0,0,0,0,0,0,0,0,0,0,0,0,0,0,0,0,0,0,0,0,0,0,0,0,0,0,0,0,0,0,
0,0,0,0,0,0,0,0,0,0,0,0,0,0,0,0,0,0,0,0,0,0,0,0,0,0,0,0,0,0,0,0,0,0,0,0,0,0,0,0,0,0,0,0,0,0,0,0,0,0,0,0,0,0,0,0,0,0,0,0,0,0,0,0,0,0,0,0,0,0,0,0,0,0,0,0,0,0,0,0,0,0,0,0,0,0,0,0,0,0,0,0,0,0,0,0,0,0,0,0,0,0,0,0,0,0,0,0,0,0,0,0,0,0,0,0,0,0,0,0,0,0,0,0,0,0,0,0,0,0,0,0,0,0,0,0,0,0,0,0,0,0,0,0,0,0,0,0,0,0,0,0,0,0,0,0,0,0,0,0,0,0,0,0,0,0,0,0,0,0,0,0,0,0,0,0,0,0,0,0,0,0,0,0,0,0,0,0,0,0,0,0,0,0,0,0,0,0,0,0,0,0,0,0,0,0,0,0,0,0,0,0,0,0,0,0,0,0,0,0,0,0,0,0,0,0,0,0,0,0,0,0,0,0,0,0,0,0,0,0,0,0,0,0,0,0,0,0,0,0,0,0,0,0,0,0,0,0,0,0,0,0,0,0,0,0,0,0,0,0,0,0,0,0,0,0,0,0,0,0,0,0,0,0,0,0,0,0,0,0,0,0,0,0,0,0,0,0,0,0,0,0,0,0,0,0,0,0,0,0,0,0,0,0,0,0,0,0,0,0,0,0,0,0,0,0,0,0,0,0,0,0,0,0,0,0,0,0,0,0,0,0,0,0,0,0,0,0,0,0,0,0,0,0,0,0,0,0,0,0,0,0,0,0,0,0,0,0,0,0,0,0,0,0,0,0,0,0,0,0,0,0,0,0,0,0,0,0,0,0,0,0,0,0,0,0,0,0,0,0,0,0,0,0,0,0,0,0,0,0,0,0,0,0,0,0,0,0,0,0,0,0,0,0,0,0,0,0,0,0,0,0,0,0,0,0,0,0,0,0,0,0,0,0,0,0,0,0,0,0,0,0,0,0,0,0,0,0,0,0,0,0,0,0,0,0,0,0,0,0,0,0,0,0,0,0,0,0,0,0,0,0,0,0,0,0,0,0,0,0,0,0,0,0,0,0,0,0,0,0,0,0,0,0,0,0,0,0,0,0,0,0,0,0,0,0,0,0,0,0,0,0,0,0,0,0,0,0,0,0,0,0,0,0,0,0,0,0,0,0,0,0,0,0,0,0,0,0,0,0,0,0,0,0,0,0,0,0,0,0,0,0,0,0,0,0,0,0,0,0,0,0,0,0,0,0,0,0,0,0,0,0,0,0,0,0,0,0,0,0,0,0,0,0,0,0,0,0,0,0,0,0,0,0,0,0,0,0,0,0,0,0,0,0,0,0,0,0,0,0,0,0,0,0,0,0,0,0,0,0,0,0,0,0,0,0,0,0,0,0,0,0,0,0,0,0,0,0,0,0,0,0,0,0,0,0,0,0,0,0,0,0,0,0,0,0,0,0,0,0,0,0,0,0,0,0,0,0,0,0,0,0,0,0,0,0,0,0,0,0,0,0,0,0,0,0,0,0,0,0,0,0,0,0,0,0,0,0,0,0,0,0,0,0,0,0,0,0,0,0,0,0,0,0,0,0,0,0,0,0,0,0,0,0,0,0,0,0,0,0,0,0,0,0,0,0,0,0,0,0,0,0,0,0,0,0,0,0,0,0,0,0,0,0,0,0,0,0,0,0,0,0,0,0,0,0,0,0,0,0,0,0,0,0,0,0,0,0,0,0,0,0,0,0,0,0,0,0,0,0,0,0,0,0,0,0,0,0,0,0,0,0,0,0,0,0,0,0,0,0,0,0,0,0,0,0,0,0,0,0,0,0,0,0,0,0,0,0,0,0,0,0,0,0,0,0,0,0,0,0,0,0,0,0,0,0,0,0,0,0,0,0,0,0,0,0,0,0,0,0,0,0,0,0,0,0,0,0,0,0,0,0,0,0,0,0,0,0,0,0,0,0,0,0,0,0,0,0,0,0,0,0,0,0,0,0,0,0,0,0,0,0,0,0,0,0,0,0,0,0,0,0,0,0,0,0,0,0,0,0,0,0,0,0,0,0,0,0,0,0,0,0,0,0,0,0,0,0,0,0,0,0,0,0,0,0,0,0,0,0,0,0,0,0,0,0,0,0,0,0,0,0,0,0,0,0,0,0,0,0,0,0,0,0,0,0,0,0,0,0,0,0,0,0,0,0,0,0,0,0,
0,0,0,0,0,0,0,0,0,0,0,0,0,0,0,0,0,0,0,0,0,0,0,0,0,0,0,0,0,0,0,0,0,0,0,0,0,0,0,0,0,0,0,0,0,0,0,0,0,0,0,0,0,0,0,0,0,0,0,0,0,0,0,0,0,0,0,0,0,0,0,0,0,0,0,0,0,0,0,0,0,0,0,0,0,0,0,0,0,0,0,0,0,0,0,0,0,0,0,0,0,0,0,0,0,0,0,0,0,0,0,0,0,0,0,0,0,0,0,0,0,0,0,0,0,0,0,0,0,0,0,0,0,0,0,0,0,0,0,0,0,0,0,0,0,0,0,0,0,0,0,0,0,0,0,0,0,0,0,0,0,0,0,0,0,0,0,0,0,0,0,0,0,0,0,0,0,0,0,0,0,0,0,0,0,0,0,0,0,0,0,0,0,0,0,0,0,0,0,0,0,0,0,0,0,0,0,0,0,0,0,0,0,0,0,0,0,0,0,0,0,0,0,0,0,0,0,0,0,0,0,0,0,0,0,0,0,0,0,0,0,0,0,0,0,0,0,0,0,0,0,0,0,0,0,0,0,0,0,0,0,0,0,0,0,0,0,0,0,0,0,0,0,0,0,0,0,0,0,0,0,0,0,0,0,0,0,0,0,0,0,0,0,0,0,0,0,0,0,0,0,0,0,0,0,0,0,0,0,0,0,0,0,0,0,0,0,0,0,0,0,0,0,0,0,0,0,0,0,0,0,0,0,0,0,0,0,0,0,0,0,0,0,0,0,0,0,0,0,0,0,0,0,0,0,0,0,0,0,0,0,0,0,0,0,0,0,0,0,0,0,0,0,0,0,0,0,0,0,0,0,0,0,0,0,0,0,0,0,0,0,0,0,0,0,0,0,0,0,0,0,0,0,0,0,0,0,0,0,0,0,0,0,0,0,0,0,0,0,0,0,0,0,0,0,0,0,0,0,0,0,0,0,0,0,0,0,0,0,0,0,0,0,0,0,0,0,0,0,0,0,0,0,0,0,0,0,0,0,0,0,0,0,0,0,0,0,0,0,0,0,0,0,0,0,0,0,0,0,0,0,0,0,0,0,0,0,0,0,0,0,0,0,0,0,0,0,0,0,0,0,0,0,0,0,0,0,0,0,0,0,0,0,0,0,0,0,0,0,0,0,0,0,0,0,0,0,0,0,0,0,0,0,0,0,0,0,0,0,0,0,0,0,0,0,0,0,0,0,0,0,0,0,0,0,0,0,0,0,0,0,0,0,0,0,0,0,0,0,0,0,0,0,0,0,0,0,0,0,0,0,0,0,0,0,0,0,0,0,0,0,0,0,0,0,0,0,0,0,0,0,0,0,0,0,0,0,0,0,0,0,0,0,0,0,0,0,0,0,0,0,0,0,0,0,0,0,0,0,0,0,0,0,0,0,0,0,0,0,0,0,0,0,0,0,0,0,0,0,0,0,0,0,0,0,0,0,0,0,0,0,0,0,0,0,0,0,0,0,0,0,0,0,0,0,0,0,0,0,0,0,0,0,0,0,0,0,0,0,0,0,0,0,0,0,0,0,0,0,0,0,0,0,0,0,0,0,0,0,0,0,0,0,0,0,0,0,0,0,0,0,0,0,0,0,0,0,0,0,0,0,0,0,0,0,0,0,0,0,0,0,0,0,0,0,0,0,0,0,0,0,0,0,0,0,0,0,0,0,0,0,0,0,0,0,0,0,0,0,0,0,0,0,0,0,0,0,0,0,0,0,0,0,0,0,0,0,0,0,0,0,0,0,0,0,0,0,0,0,0,0,0,0,0,0,0,0,0,0,0,0,0,0,0,0,0,0,0,0,0,0,0,0,0,0,0,0,0,0,0,0,0,0,0,0,0,0,0,0,0,0,0,0,0,0,0,0,0,0,0,0,0,0,0,0,0,0,0,0,0,0,0,0,0,0,0,0,0,0,0,0,0,0,0,0,0,0,0,0,0,0,0,0,0,0,0,0,0,0,0,0,0,0,0,0,0,0,0,0,0,0,0,0,0,0,0,0,0,0,0,0,0,0,0,0,0,0,0,0,0,0,0,0,0,0,0,0,0,0,0,0,0,0,0,0,0,0,0,0,0,0,0,0,0,0,0,0,0,0,0,0,0,0,0,0,0,0,0,0,0,0,0,0,0,0,0,0,0,0,0,0,0,0,0,0,0,0,0,0,0,0,0,0,0,0,0,0,0,0,0,0,0,0,0,0,0,0,0,0,0,
0,0,0,0,0,0,0,0,0,0,0,0,0,0,0,0,0,0,0,0,0,0,0,0,0,0,0,0,0,0,0,0,0,0,0,0,0,0,0,0,0,0,0,0,0,0,0,0,0,0,0,0,0,0,0,0,0,0,0,0,0,0,0,0,0,0,0,0,0,0,0,0,0,0,0,0,0,0,0,0,0,0,0,0,0,0,0,0,0,0,0,0,0,0,0,0,0,0,0,0,0,0,0,0,0,0,0,0,0,0,0,0,0,0,0,0,0,0,0,0,0,0,0,0,0,0,0,0,0,0,0,0,0,0,0,0,0,0,0,0,0,0,0,0,0,0,0,0,0,0,0,0,0,0,0,0,0,0,0,0,0,0,0,0,0,0,0,0,0,0,0,0,0,0,0,0,0,0,0,0,0,0,0,0,0,0,0,0,0,0,0,0,0,0,0,0,0,0,0,0,0,0,0,0,0,0,0,0,0,0,0,0,0,0,0,0,0,0,0,0,0,0,0,0,0,0,0,0,0,0,0,0,0,0,0,0,0,0,0,0,0,0,0,0,0,0,0,0,0,0,0,0,0,0,0,0,0,0,0,0,0,0,0,0,0,0,0,0,0,0,0,0,0,0,0,0,0,0,0,0,0,0,0,0,0,0,0,0,0,0,0,0,0,0,0,0,0,0,0,0,0,0,0,0,0,0,0,0,0,0,0,0,0,0,0,0,0,0,0,0,0,0,0,0,0,0,0,0,0,0,0,0,0,0,0,0,0,0,0,0,0,0,0,0,0,0,0,0,0,0,0,0,0,0,0,0,0,0,0,0,0,0,0,0,0,0,0,0,0,0,0,0,0,0,0,0,0,0,0,0,0,0,0,0,0,0,0,0,0,0,0,0,0,0,0,0,0,0,0,0,0,0,0,0,0,0,0,0,0,0,0,0,0,0,0,0,0,0,0,0,0,0,0,0,0,0,0,0,0,0,0,0,0,0,0,0,0,0,0,0,0,0,0,0,0,0,0,0,0,0,0,0,0,0,0,0,0,0,0,0,0,0,0,0,0,0,0,0,0,0,0,0,0,0,0,0,0,0,0,0,0,0,0,0,0,0,0,0,0,0,0,0,0,0,0,0,0,0,0,0,0,0,0,0,0,0,0,0,0,0,0,0,0,0,0,0,0,0,0,0,0,0,0,0,0,0,0,0,0,0,0,0,0,0,0,0,0,0,0,0,0,0,0,0,0,0,0,0,0,0,0,0,0,0,0,0,0,0,0,0,0,0,0,0,0,0,0,0,0,0,0,0,0,0,0,0,0,0,0,0,0,0,0,0,0,0,0,0,0,0,0,0,0,0,0,0,0,0,0,0,0,0,0,0,0,0,0,0,0,0,0,0,0,0,0,0,0,0,0,0,0,0,0,0,0,0,0,0,0,0,0,0,0,0,0,0,0,0,0,0,0,0,0,0,0,0,0,0,0,0,0,0,0,0,0,0,0,0,0,0,0,0,0,0,0,0,0,0,0,0,0,0,0,0,0,0,0,0,0,0,0,0,0,0,0,0,0,0,0,0,0,0,0,0,0,0,0,0,0,0,0,0,0,0,0,0,0,0,0,0,0,0,0,0,0,0,0,0,0,0,0,0,0,0,0,0,0,0,0,0,0,0,0,0,0,0,0,0,0,0,0,0,0,0,0,0,0,0,0,0,0,0,0,0,0,0,0,0,0,0,0,0,0,0,0,0,0,0,0,0,0,0,0,0,0,0,0,0,0,0,0,0,0,0,0,0,0,0,0,0,0,0,0,0,0,0,0,0,0,0,0,0,0,0,0,0,0,0,0,0,0,0,0,0,0,0,0,0,0,0,0,0,0,0,0,0,0,0,0,0,0,0,0,0,0,0,0,0,0,0,0,0,0,0,0,0,0,0,0,0,0,0,0,0,0,0,0,0,0,0,0,0,0,0,0,0,0,0,0,0,0,0,0,0,0,0,0,0,0,0,0,0,0,0,0,0,0,0,0,0,0,0,0,0,0,0,0,0,0,0,0,0,0,0,0,0,0,0,0,0,0,0,0,0,0,0,0,0,0,0,0,0,0,0,0,0,0,0,0,0,0,0,0,0,0,0,0,0,0,0,0,0,0,0,0,0,0,0,0,0,0,0,0,0,0,0,0,0,0,0,0,0,0,0,0,0,0,0,0,0,0,0,0,0,0,0,0,0,0,0,0,0,0,0,0,0,0,0,0,0,0,0,0,0,0,0,0,0,0,0,
0,0,0,0,0,0,0,0,0,0,0,0,0,0,0,0,0,0,0,0,0,0,0,0,0,0,0,0,0,0,0,0,0,0,0,0,0,0,0,0,0,0,0,0,0,0,0,0,0,0,0,0,0,0,0,0,0,0,0,0,0,0,0,0,0,0,0,0,0,0,0,0,0,0,0,0,0,0,0,0,0,0,0,0,0,0,0,0,0,0,0,0,0,0,0,0,0,0,0,0,0,0,0,0,0,0,0,0,0,0,0,0,0,0,0,0,0,0,0,0,0,0,0,0,0,0,0,0,0,0,0,0,0,0,0,0,0,0,0,0,0,0,0,0,0,0,0,0,0,0,0,0,0,0,0,0,0,0,0,0,0,0,0,0,0,0,0,0,0,0,0,0,0,0,0,0,0,0,0,0,0,0,0,0,0,0,0,0,0,0,0,0,0,0,0,0,0,0,0,0,0,0,0,0,0,0,0,0,0,0,0,0,0,0,0,0,0,0,0,0,0,0,0,0,0,0,0,0,0,0,0,0,0,0,0,0,0,0,0,0,0,0,0,0,0,0,0,0,0,0,0,0,0,0,0,0,0,0,0,0,0,0,0,0,0,0,0,0,0,0,0,0,0,0,0,0,0,0,0,0,0,0,0,0,0,0,0,0,0,0,0,0,0,0,0,0,0,0,0,0,0,0,0,0,0,0,0,0,0,0,0,0,0,0,0,0,0,0,0,0,0,0,0,0,0,0,0,0,0,0,0,0,0,0,0,0,0,0,0,0,0,0,0,0,0,0,0,0,0,0,0,0,0,0,0,0,0,0,0,0,0,0,0,0,0,0,0,0,0,0,0,0,0,0,0,0,0,0,0,0,0,0,0,0,0,0,0,0,0,0,0,0,0,0,0,0,0,0,0,0,0,0,0,0,0,0,0,0,0,0,0,0,0,0,0,0,0,0,0,0,0,0,0,0,0,0,0,0,0,0,0,0,0,0,0,0,0,0,0,0,0,0,0,0,0,0,0,0,0,0,0,0,0,0,0,0,0,0,0,0,0,0,0,0,0,0,0,0,0,0,0,0,0,0,0,0,0,0,0,0,0,0,0,0,0,0,0,0,0,0,0,0,0,0,0,0,0,0,0,0,0,0,0,0,0,0,0,0,0,0,0,0,0,0,0,0,0,0,0,0,0,0,0,0,0,0,0,0,0,0,0,0,0,0,0,0,0,0,0,0,0,0,0,0,0,0,0,0,0,0,0,0,0,0,0,0,0,0,0,0,0,0,0,0,0,0,0,0,0,0,0,0,0,0,0,0,0,0,0,0,0,0,0,0,0,0,0,0,0,0,0,0,0,0,0,0,0,0,0,0,0,0,0,0,0,0,0,0,0,0,0,0,0,0,0,0,0,0,0,0,0,0,0,0,0,0,0,0,0,0,0,0,0,0,0,0,0,0,0,0,0,0,0,0,0,0,0,0,0,0,0,0,0,0,0,0,0,0,0,0,0,0,0,0,0,0,0,0,0,0,0,0,0,0,0,0,0,0,0,0,0,0,0,0,0,0,0,0,0,0,0,0,0,0,0,0,0,0,0,0,0,0,0,0,0,0,0,0,0,0,0,0,0,0,0,0,0,0,0,0,0,0,0,0,0,0,0,0,0,0,0,0,0,0,0,0,0,0,0,0,0,0,0,0,0,0,0,0,0,0,0,0,0,0,0,0,0,0,0,0,0,0,0,0,0,0,0,0,0,0,0,0,0,0,0,0,0,0,0,0,0,0,0,0,0,0,0,0,0,0,0,0,0,0,0,0,0,0,0,0,0,0,0,0,0,0,0,0,0,0,0,0,0,0,0,0,0,0,0,0,0,0,0,0,0,0,0,0,0,0,0,0,0,0,0,0,0,0,0,0,0,0,0,0,0,0,0,0,0,0,0,0,0,0,0,0,0,0,0,0,0,0,0,0,0,0,0,0,0,0,0,0,0,0,0,0,0,0,0,0,0,0,0,0,0,0,0,0,0,0,0,0,0,0,0,0,0,0,0,0,0,0,0,0,0,0,0,0,0,0,0,0,0,0,0,0,0,0,0,0,0,0,0,0,0,0,0,0,0,0,0,0,0,0,0,0,0,0,0,0,0,0,0,0,0,0,0,0,0,0,0,0,0,0,0,0,0,0,0,0,0,0,0,0,0,0,0,0,0,0,0,0,0,0,0,0,0,0,0,0,0,0,0,0,0,0,0,0,0,0,0,0,0,0,0,0,0,0,0,0,
0,0,0,0,0,0,0,0,0,0,0,0,0,0,0,0,0,0,0,0,0,0,0,0,0,0,0,0,0,0,0,0,0,0,0,0,0,0,0,0,0,0,0,0,0,0,0,0,0,0,0,0,0,0,0,0,0,0,0,0,0,0,0,0,0,0,0,0,0,0,0,0,0,0,0,0,0,0,0,0,0,0,0,0,0,0,0,0,0,0,0,0,0,0,0,0,0,0,0,0,0,0,0,0,0,0,0,0,0,0,0,0,0,0,0,0,0,0,0,0,0,0,0,0,0,0,0,0,0,0,0,0,0,0,0,0,0,0,0,0,0,0,0,0,0,0,0,0,0,0,0,0,0,0,0,0,0,0,0,0,0,0,0,0,0,0,0,0,0,0,0,0,0,0,0,0,0,0,0,0,0,0,0,0,0,0,0,0,0,0,0,0,0,0,0,0,0,0,0,0,0,0,0,0,0,0,0,0,0,0,0,0,0,0,0,0,0,0,0,0,0,0,0,0,0,0,0,0,0,0,0,0,0,0,0,0,0,0,0,0,0,0,0,0,0,0,0,0,0,0,0,0,0,0,0,0,0,0,0,0,0,0,0,0,0,0,0,0,0,0,0,0,0,0,0,0,0,0,0,0,0,0,0,0,0,0,0,0,0,0,0,0,0,0,0,0,0,0,0,0,0,0,0,0,0,0,0,0,0,0,0,0,0,0,0,0,0,0,0,0,0,0,0,0,0,0,0,0,0,0,0,0,0,0,0,0,0,0,0,0,0,0,0,0,0,0,0,0,0,0,0,0,0,0,0,0,0,0,0,0,0,0,0,0,0,0,0,0,0,0,0,0,0,0,0,0,0,0,0,0,0,0,0,0,0,0,0,0,0,0,0,0,0,0,0,0,0,0,0,0,0,0,0,0,0,0,0,0,0,0,0,0,0,0,0,0,0,0,0,0,0,0,0,0,0,0,0,0,0,0,0,0,0,0,0,0,0,0,0,0,0,0,0,0,0,0,0,0,0,0,0,0,0,0,0,0,0,0,0,0,0,0,0,0,0,0,0,0,0,0,0,0,0,0,0,0,0,0,0,0,0,0,0,0,0,0,0,0,0,0,0,0,0,0,0,0,0,0,0,0,0,0,0,0,0,0,0,0,0,0,0,0,0,0,0,0,0,0,0,0,0,0,0,0,0,0,0,0,0,0,0,0,0,0,0,0,0,0,0,0,0,0,0,0,0,0,0,0,0,0,0,0,0,0,0,0,0,0,0,0,0,0,0,0,0,0,0,0,0,0,0,0,0,0,0,0,0,0,0,0,0,0,0,0,0,0,0,0,0,0,0,0,0,0,0,0,0,0,0,0,0,0,0,0,0,0,0,0,0,0,0,0,0,0,0,0,0,0,0,0,0,0,0,0,0,0,0,0,0,0,0,0,0,0,0,0,0,0,0,0,0,0,0,0,0,0,0,0,0,0,0,0,0,0,0,0,0,0,0,0,0,0,0,0,0,0,0,0,0,0,0,0,0,0,0,0,0,0,0,0,0,0,0,0,0,0,0,0,0,0,0,0,0,0,0,0,0,0,0,0,0,0,0,0,0,0,0,0,0,0,0,0,0,0,0,0,0,0,0,0,0,0,0,0,0,0,0,0,0,0,0,0,0,0,0,0,0,0,0,0,0,0,0,0,0,0,0,0,0,0,0,0,0,0,0,0,0,0,0,0,0,0,0,0,0,0,0,0,0,0,0,0,0,0,0,0,0,0,0,0,0,0,0,0,0,0,0,0,0,0,0,0,0,0,0,0,0,0,0,0,0,0,0,0,0,0,0,0,0,0,0,0,0,0,0,0,0,0,0,0,0,0,0,0,0,0,0,0,0,0,0,0,0,0,0,0,0,0,0,0,0,0,0,0,0,0,0,0,0,0,0,0,0,0,0,0,0,0,0,0,0,0,0,0,0,0,0,0,0,0,0,0,0,0,0,0,0,0,0,0,0,0,0,0,0,0,0,0,0,0,0,0,0,0,0,0,0,0,0,0,0,0,0,0,0,0,0,0,0,0,0,0,0,0,0,0,0,0,0,0,0,0,0,0,0,0,0,0,0,0,0,0,0,0,0,0,0,0,0,0,0,0,0,0,0,0,0,0,0,0,0,0,0,0,0,0,0,0,0,0,0,0,0,0,0,0,0,0,0,0,0,0,0,0,0,0,0,0,0,0,0,0,0,0,0,0,0,0,0,0,0,0,0,0,0,0,0,0,0,0,
0,0,0,0,0,0,0,0,0,0,0,0,0,0,0,0,0,0,0,0,0,0,0,0,0,0,0,0,0,0,0,0,0,0,0,0,0,0,0,0,0,0,0,0,0,0,0,0,0,0,0,0,0,0,0,0,0,0,0,0,0,0,0,0,0,0,0,0,0,0,0,0,0,0,0,0,0,0,0,0,0,0,0,0,0,0,0,0,0,0,0,0,0,0,0,0,0,0,0,0,0,0,0,0,0,0,0,0,0,0,0,0,0,0,0,0,0,0,0,0,0,0,0,0,0,0,0,0,0,0,0,0,0,0,0,0,0,0,0,0,0,0,0,0,0,0,0,0,0,0,0,0,0,0,0,0,0,0,0,0,0,0,0,0,0,0,0,0,0,0,0,0,0,0,0,0,0,0,0,0,0,0,0,0,0,0,0,0,0,0,0,0,0,0,0,0,0,0,0,0,0,0,0,0,0,0,0,0,0,0,0,0,0,0,0,0,0,0,0,0,0,0,0,0,0,0,0,0,0,0,0,0,0,0,0,0,0,0,0,0,0,0,0,0,0,0,0,0,0,0,0,0,0,0,0,0,0,0,0,0,0,0,0,0,0,0,0,0,0,0,0,0,0,0,0,0,0,0,0,0,0,0,0,0,0,0,0,0,0,0,0,0,0,0,0,0,0,0,0,0,0,0,0,0,0,0,0,0,0,0,0,0,0,0,0,0,0,0,0,0,0,0,0,0,0,0,0,0,0,0,0,0,0,0,0,0,0,0,0,0,0,0,0,0,0,0,0,0,0,0,0,0,0,0,0,0,0,0,0,0,0,0,0,0,0,0,0,0,0,0,0,0,0,0,0,0,0,0,0,0,0,0,0,0,0,0,0,0,0,0,0,0,0,0,0,0,0,0,0,0,0,0,0,0,0,0,0,0,0,0,0,0,0,0,0,0,0,0,0,0,0,0,0,0,0,0,0,0,0,0,0,0,0,0,0,0,0,0,0,0,0,0,0,0,0,0,0,0,0,0,0,0,0,0,0,0,0,0,0,0,0,0,0,0,0,0,0,0,0,0,0,0,0,0,0,0,0,0,0,0,0,0,0,0,0,0,0,0,0,0,0,0,0,0,0,0,0,0,0,0,0,0,0,0,0,0,0,0,0,0,0,0,0,0,0,0,0,0,0,0,0,0,0,0,0,0,0,0,0,0,0,0,0,0,0,0,0,0,0,0,0,0,0,0,0,0,0,0,0,0,0,0,0,0,0,0,0,0,0,0,0,0,0,0,0,0,0,0,0,0,0,0,0,0,0,0,0,0,0,0,0,0,0,0,0,0,0,0,0,0,0,0,0,0,0,0,0,0,0,0,0,0,0,0,0,0,0,0,0,0,0,0,0,0,0,0,0,0,0,0,0,0,0,0,0,0,0,0,0,0,0,0,0,0,0,0,0,0,0,0,0,0,0,0,0,0,0,0,0,0,0,0,0,0,0,0,0,0,0,0,0,0,0,0,0,0,0,0,0,0,0,0,0,0,0,0,0,0,0,0,0,0,0,0,0,0,0,0,0,0,0,0,0,0,0,0,0,0,0,0,0,0,0,0,0,0,0,0,0,0,0,0,0,0,0,0,0,0,0,0,0,0,0,0,0,0,0,0,0,0,0,0,0,0,0,0,0,0,0,0,0,0,0,0,0,0,0,0,0,0,0,0,0,0,0,0,0,0,0,0,0,0,0,0,0,0,0,0,0,0,0,0,0,0,0,0,0,0,0,0,0,0,0,0,0,0,0,0,0,0,0,0,0,0,0,0,0,0,0,0,0,0,0,0,0,0,0,0,0,0,0,0,0,0,0,0,0,0,0,0,0,0,0,0,0,0,0,0,0,0,0,0,0,0,0,0,0,0,0,0,0,0,0,0,0,0,0,0,0,0,0,0,0,0,0,0,0,0,0,0,0,0,0,0,0,0,0,0,0,0,0,0,0,0,0,0,0,0,0,0,0,0,0,0,0,0,0,0,0,0,0,0,0,0,0,0,0,0,0,0,0,0,0,0,0,0,0,0,0,0,0,0,0,0,0,0,0,0,0,0,0,0,0,0,0,0,0,0,0,0,0,0,0,0,0,0,0,0,0,0,0,0,0,0,0,0,0,0,0,0,0,0,0,0,0,0,0,0,0,0,0,0,0,0,0,0,0,0,0,0,0,0,0,0,0,0,0,0,0,0,0,0,0,0,0,0,0,0,0,0,0,0,0,0,0,0,0,0,0,0,
0,0,0,0,0,0,0,0,0,0,0,0,0,0,0,0,0,0,0,0,0,0,0,0,0,0,0,0,0,0,0,0,0,0,0,0,0,0,0,0,0,0,0,0,0,0,0,0,0,0,0,0,0,0,0,0,0,0,0,0,0,0,0,0,0,0,0,0,0,0,0,0,0,0,0,0,0,0,0,0,0,0,0,0,0,0,0,0,0,0,0,0,0,0,0,0,0,0,0,0,0,0,0,0,0,0,0,0,0,0,0,0,0,0,0,0,0,0,0,0,0,0,0,0,0,0,0,0,0,0,0,0,0,0,0,0,0,0,0,0,0,0,0,0,0,0,0,0,0,0,0,0,0,0,0,0,0,0,0,0,0,0,0,0,0,0,0,0,0,0,0,0,0,0,0,0,0,0,0,0,0,0,0,0,0,0,0,0,0,0,0,0,0,0,0,0,0,0,0,0,0,0,0,0,0,0,0,0,0,0,0,0,0,0,0,0,0,0,0,0,0,0,0,0,0,0,0,0,0,0,0,0,0,0,0,0,0,0,0,0,0,0,0,0,0,0,0,0,0,0,0,0,0,0,0,0,0,0,0,0,0,0,0,0,0,0,0,0,0,0,0,0,0,0,0,0,0,0,0,0,0,0,0,0,0,0,0,0,0,0,0,0,0,0,0,0,0,0,0,0,0,0,0,0,0,0,0,0,0,0,0,0,0,0,0,0,0,0,0,0,0,0,0,0,0,0,0,0,0,0,0,0,0,0,0,0,0,0,0,0,0,0,0,0,0,0,0,0,0,0,0,0,0,0,0,0,0,0,0,0,0,0,0,0,0,0,0,0,0,0,0,0,0,0,0,0,0,0,0,0,0,0,0,0,0,0,0,0,0,0,0,0,0,0,0,0,0,0,0,0,0,0,0,0,0,0,0,0,0,0,0,0,0,0,0,0,0,0,0,0,0,0,0,0,0,0,0,0,0,0,0,0,0,0,0,0,0,0,0,0,0,0,0,0,0,0,0,0,0,0,0,0,0,0,0,0,0,0,0,0,0,0,0,0,0,0,0,0,0,0,0,0,0,0,0,0,0,0,0,0,0,0,0,0,0,0,0,0,0,0,0,0,0,0,0,0,0,0,0,0,0,0,0,0,0,0,0,0,0,0,0,0,0,0,0,0,0,0,0,0,0,0,0,0,0,0,0,0,0,0,0,0,0,0,0,0,0,0,0,0,0,0,0,0,0,0,0,0,0,0,0,0,0,0,0,0,0,0,0,0,0,0,0,0,0,0,0,0,0,0,0,0,0,0,0,0,0,0,0,0,0,0,0,0,0,0,0,0,0,0,0,0,0,0,0,0,0,0,0,0,0,0,0,0,0,0,0,0,0,0,0,0,0,0,0,0,0,0,0,0,0,0,0,0,0,0,0,0,0,0,0,0,0,0,0,0,0,0,0,0,0,0,0,0,0,0,0,0,0,0,0,0,0,0,0,0,0,0,0,0,0,0,0,0,0,0,0,0,0,0,0,0,0,0,0,0,0,0,0,0,0,0,0,0,0,0,0,0,0,0,0,0,0,0,0,0,0,0,0,0,0,0,0,0,0,0,0,0,0,0,0,0,0,0,0,0,0,0,0,0,0,0,0,0,0,0,0,0,0,0,0,0,0,0,0,0,0,0,0,0,0,0,0,0,0,0,0,0,0,0,0,0,0,0,0,0,0,0,0,0,0,0,0,0,0,0,0,0,0,0,0,0,0,0,0,0,0,0,0,0,0,0,0,0,0,0,0,0,0,0,0,0,0,0,0,0,0,0,0,0,0,0,0,0,0,0,0,0,0,0,0,0,0,0,0,0,0,0,0,0,0,0,0,0,0,0,0,0,0,0,0,0,0,0,0,0,0,0,0,0,0,0,0,0,0,0,0,0,0,0,0,0,0,0,0,0,0,0,0,0,0,0,0,0,0,0,0,0,0,0,0,0,0,0,0,0,0,0,0,0,0,0,0,0,0,0,0,0,0,0,0,0,0,0,0,0,0,0,0,0,0,0,0,0,0,0,0,0,0,0,0,0,0,0,0,0,0,0,0,0,0,0,0,0,0,0,0,0,0,0,0,0,0,0,0,0,0,0,0,0,0,0,0,0,0,0,0,0,0,0,0,0,0,0,0,0,0,0,0,0,0,0,0,0,0,0,0,0,0,0,0,0,0,0,0,0,0,0,0,0,0,0,0,0,0,0,0,0,0,0,0,0,0,0,0,0,0,0,0,0,
0,0,0,0,0,0,0,0,0,0,0,0,0,0,0,0,0,0,0,0,0,0,0,0,0,0,0,0,0,0,0,0,0,0,0,0,0,0,0,0,0,0,0,0,0,0,0,0,0,0,0,0,0,0,0,0,0,0,0,0,0,0,0,0,0,0,0,0,0,0,0,0,0,0,0,0,0,0,0,0,0,0,0,0,0,0,0,0,0,0,0,0,0,0,0,0,0,0,0,0,0,0,0,0,0,0,0,0,0,0,0,0,0,0,0,0,0,0,0,0,0,0,0,0,0,0,0,0,0,0,0,0,0,0,0,0,0,0,0,0,0,0,0,0,0,0,0,0,0,0,0,0,0,0,0,0,0,0,0,0,0,0,0,0,0,0,0,0,0,0,0,0,0,0,0,0,0,0,0,0,0,0,0,0,0,0,0,0,0,0,0,0,0,0,0,0,0,0,0,0,0,0,0,0,0,0,0,0,0,0,0,0,0,0,0,0,0,0,0,0,0,0,0,0,0,0,0,0,0,0,0,0,0,0,0,0,0,0,0,0,0,0,0,0,0,0,0,0,0,0,0,0,0,0,0,0,0,0,0,0,0,0,0,0,0,0,0,0,0,0,0,0,0,0,0,0,0,0,0,0,0,0,0,0,0,0,0,0,0,0,0,0,0,0,0,0,0,0,0,0,0,0,0,0,0,0,0,0,0,0,0,0,0,0,0,0,0,0,0,0,0,0,0,0,0,0,0,0,0,0,0,0,0,0,0,0,0,0,0,0,0,0,0,0,0,0,0,0,0,0,0,0,0,0,0,0,0,0,0,0,0,0,0,0,0,0,0,0,0,0,0,0,0,0,0,0,0,0,0,0,0,0,0,0,0,0,0,0,0,0,0,0,0,0,0,0,0,0,0,0,0,0,0,0,0,0,0,0,0,0,0,0,0,0,0,0,0,0,0,0,0,0,0,0,0,0,0,0,0,0,0,0,0,0,0,0,0,0,0,0,0,0,0,0,0,0,0,0,0,0,0,0,0,0,0,0,0,0,0,0,0,0,0,0,0,0,0,0,0,0,0,0,0,0,0,0,0,0,0,0,0,0,0,0,0,0,0,0,0,0,0,0,0,0,0,0,0,0,0,0,0,0,0,0,0,0,0,0,0,0,0,0,0,0,0,0,0,0,0,0,0,0,0,0,0,0,0,0,0,0,0,0,0,0,0,0,0,0,0,0,0,0,0,0,0,0,0,0,0,0,0,0,0,0,0,0,0,0,0,0,0,0,0,0,0,0,0,0,0,0,0,0,0,0,0,0,0,0,0,0,0,0,0,0,0,0,0,0,0,0,0,0,0,0,0,0,0,0,0,0,0,0,0,0,0,0,0,0,0,0,0,0,0,0,0,0,0,0,0,0,0,0,0,0,0,0,0,0,0,0,0,0,0,0,0,0,0,0,0,0,0,0,0,0,0,0,0,0,0,0,0,0,0,0,0,0,0,0,0,0,0,0,0,0,0,0,0,0,0,0,0,0,0,0,0,0,0,0,0,0,0,0,0,0,0,0,0,0,0,0,0,0,0,0,0,0,0,0,0,0,0,0,0,0,0,0,0,0,0,0,0,0,0,0,0,0,0,0,0,0,0,0,0,0,0,0,0,0,0,0,0,0,0,0,0,0,0,0,0,0,0,0,0,0,0,0,0,0,0,0,0,0,0,0,0,0,0,0,0,0,0,0,0,0,0,0,0,0,0,0,0,0,0,0,0,0,0,0,0,0,0,0,0,0,0,0,0,0,0,0,0,0,0,0,0,0,0,0,0,0,0,0,0,0,0,0,0,0,0,0,0,0,0,0,0,0,0,0,0,0,0,0,0,0,0,0,0,0,0,0,0,0,0,0,0,0,0,0,0,0,0,0,0,0,0,0,0,0,0,0,0,0,0,0,0,0,0,0,0,0,0,0,0,0,0,0,0,0,0,0,0,0,0,0,0,0,0,0,0,0,0,0,0,0,0,0,0,0,0,0,0,0,0,0,0,0,0,0,0,0,0,0,0,0,0,0,0,0,0,0,0,0,0,0,0,0,0,0,0,0,0,0,0,0,0,0,0,0,0,0,0,0,0,0,0,0,0,0,0,0,0,0,0,0,0,0,0,0,0,0,0,0,0,0,0,0,0,0,0,0,0,0,0,0,0,0,0,0,0,0,0,0,0,0,0,0,0,0,0,0,0,0,0,0,0,0,0,0,0,0,0,0,0,0,0,0,0,0,0,0,
0,0,0,0,0,0,0,0,0,0,0,0,0,0,0,0,0,0,0,0,0,0,0,0,0,0,0,0,0,0,0,0,0,0,0,0,0,0,0,0,0,0,0,0,0,0,0,0,0,0,0,0,0,0,0,0,0,0,0,0,0,0,0,0,0,0,0,0,0,0,0,0,0,0,0,0,0,0,0,0,0,0,0,0,0,0,0,0,0,0,0,0,0,0,0,0,0,0,0,0,0,0,0,0,0,0,0,0,0,0,0,0,0,0,0,0,0,0,0,0,0,0,0,0,0,0,0,0,0,0,0,0,0,0,0,0,0,0,0,0,0,0,0,0,0,0,0,0,0,0,0,0,0,0,0,0,0,0,0,0,0,0,0,0,0,0,0,0,0,0,0,0,0,0,0,0,0,0,0,0,0,0,0,0,0,0,0,0,0,0,0,0,0,0,0,0,0,0,0,0,0,0,0,0,0,0,0,0,0,0,0,0,0,0,0,0,0,0,0,0,0,0,0,0,0,0,0,0,0,0,0,0,0,0,0,0,0,0,0,0,0,0,0,0,0,0,0,0,0,0,0,0,0,0,0,0,0,0,0,0,0,0,0,0,0,0,0,0,0,0,0,0,0,0,0,0,0,0,0,0,0,0,0,0,0,0,0,0,0,0,0,0,0,0,0,0,0,0,0,0,0,0,0,0,0,0,0,0,0,0,0,0,0,0,0,0,0,0,0,0,0,0,0,0,0,0,0,0,0,0,0,0,0,0,0,0,0,0,0,0,0,0,0,0,0,0,0,0,0,0,0,0,0,0,0,0,0,0,0,0,0,0,0,0,0,0,0,0,0,0,0,0,0,0,0,0,0,0,0,0,0,0,0,0,0,0,0,0,0,0,0,0,0,0,0,0,0,0,0,0,0,0,0,0,0,0,0,0,0,0,0,0,0,0,0,0,0,0,0,0,0,0,0,0,0,0,0,0,0,0,0,0,0,0,0,0,0,0,0,0,0,0,0,0,0,0,0,0,0,0,0,0,0,0,0,0,0,0,0,0,0,0,0,0,0,0,0,0,0,0,0,0,0,0,0,0,0,0,0,0,0,0,0,0,0,0,0,0,0,0,0,0,0,0,0,0,0,0,0,0,0,0,0,0,0,0,0,0,0,0,0,0,0,0,0,0,0,0,0,0,0,0,0,0,0,0,0,0,0,0,0,0,0,0,0,0,0,0,0,0,0,0,0,0,0,0,0,0,0,0,0,0,0,0,0,0,0,0,0,0,0,0,0,0,0,0,0,0,0,0,0,0,0,0,0,0,0,0,0,0,0,0,0,0,0,0,0,0,0,0,0,0,0,0,0,0,0,0,0,0,0,0,0,0,0,0,0,0,0,0,0,0,0,0,0,0,0,0,0,0,0,0,0,0,0,0,0,0,0,0,0,0,0,0,0,0,0,0,0,0,0,0,0,0,0,0,0,0,0,0,0,0,0,0,0,0,0,0,0,0,0,0,0,0,0,0,0,0,0,0,0,0,0,0,0,0,0,0,0,0,0,0,0,0,0,0,0,0,0,0,0,0,0,0,0,0,0,0,0,0,0,0,0,0,0,0,0,0,0,0,0,0,0,0,0,0,0,0,0,0,0,0,0,0,0,0,0,0,0,0,0,0,0,0,0,0,0,0,0,0,0,0,0,0,0,0,0,0,0,0,0,0,0,0,0,0,0,0,0,0,0,0,0,0,0,0,0,0,0,0,0,0,0,0,0,0,0,0,0,0,0,0,0,0,0,0,0,0,0,0,0,0,0,0,0,0,0,0,0,0,0,0,0,0,0,0,0,0,0,0,0,0,0,0,0,0,0,0,0,0,0,0,0,0,0,0,0,0,0,0,0,0,0,0,0,0,0,0,0,0,0,0,0,0,0,0,0,0,0,0,0,0,0,0,0,0,0,0,0,0,0,0,0,0,0,0,0,0,0,0,0,0,0,0,0,0,0,0,0,0,0,0,0,0,0,0,0,0,0,0,0,0,0,0,0,0,0,0,0,0,0,0,0,0,0,0,0,0,0,0,0,0,0,0,0,0,0,0,0,0,0,0,0,0,0,0,0,0,0,0,0,0,0,0,0,0,0,0,0,0,0,0,0,0,0,0,0,0,0,0,0,0,0,0,0,0,0,0,0,0,0,0,0,0,0,0,0,0,0,0,0,0,0,0,0,0,0,0,0,0,0,0,0,0,0,0,0,0,0,0,0,0,0,0,0,0,0,0,0,0,
0,0,0,0,0,0,0,0,0,0,0,0,0,0,0,0,0,0,0,0,0,0,0,0,0,0,0,0,0,0,0,0,0,0,0,0,0,0,0,0,0,0,0,0,0,0,0,0,0,0,0,0,0,0,0,0,0,0,0,0,0,0,0,0,0,0,0,0,0,0,0,0,0,0,0,0,0,0,0,0,0,0,0,0,0,0,0,0,0,0,0,0,0,0,0,0,0,0,0,0,0,0,0,0,0,0,0,0,0,0,0,0,0,0,0,0,0,0,0,0,0,0,0,0,0,0,0,0,0,0,0,0,0,0,0,0,0,0,0,0,0,0,0,0,0,0,0,0,0,0,0,0,0,0,0,0,0,0,0,0,0,0,0,0,0,0,0,0,0,0,0,0,0,0,0,0,0,0,0,0,0,0,0,0,0,0,0,0,0,0,0,0,0,0,0,0,0,0,0,0,0,0,0,0,0,0,0,0,0,0,0,0,0,0,0,0,0,0,0,0,0,0,0,0,0,0,0,0,0,0,0,0,0,0,0,0,0,0,0,0,0,0,0,0,0,0,0,0,0,0,0,0,0,0,0,0,0,0,0,0,0,0,0,0,0,0,0,0,0,0,0,0,0,0,0,0,0,0,0,0,0,0,0,0,0,0,0,0,0,0,0,0,0,0,0,0,0,0,0,0,0,0,0,0,0,0,0,0,0,0,0,0,0,0,0,0,0,0,0,0,0,0,0,0,0,0,0,0,0,0,0,0,0,0,0,0,0,0,0,0,0,0,0,0,0,0,0,0,0,0,0,0,0,0,0,0,0,0,0,0,0,0,0,0,0,0,0,0,0,0,0,0,0,0,0,0,0,0,0,0,0,0,0,0,0,0,0,0,0,0,0,0,0,0,0,0,0,0,0,0,0,0,0,0,0,0,0,0,0,0,0,0,0,0,0,0,0,0,0,0,0,0,0,0,0,0,0,0,0,0,0,0,0,0,0,0,0,0,0,0,0,0,0,0,0,0,0,0,0,0,0,0,0,0,0,0,0,0,0,0,0,0,0,0,0,0,0,0,0,0,0,0,0,0,0,0,0,0,0,0,0,0,0,0,0,0,0,0,0,0,0,0,0,0,0,0,0,0,0,0,0,0,0,0,0,0,0,0,0,0,0,0,0,0,0,0,0,0,0,0,0,0,0,0,0,0,0,0,0,0,0,0,0,0,0,0,0,0,0,0,0,0,0,0,0,0,0,0,0,0,0,0,0,0,0,0,0,0,0,0,0,0,0,0,0,0,0,0,0,0,0,0,0,0,0,0,0,0,0,0,0,0,0,0,0,0,0,0,0,0,0,0,0,0,0,0,0,0,0,0,0,0,0,0,0,0,0,0,0,0,0,0,0,0,0,0,0,0,0,0,0,0,0,0,0,0,0,0,0,0,0,0,0,0,0,0,0,0,0,0,0,0,0,0,0,0,0,0,0,0,0,0,0,0,0,0,0,0,0,0,0,0,0,0,0,0,0,0,0,0,0,0,0,0,0,0,0,0,0,0,0,0,0,0,0,0,0,0,0,0,0,0,0,0,0,0,0,0,0,0,0,0,0,0,0,0,0,0,0,0,0,0,0,0,0,0,0,0,0,0,0,0,0,0,0,0,0,0,0,0,0,0,0,0,0,0,0,0,0,0,0,0,0,0,0,0,0,0,0,0,0,0,0,0,0,0,0,0,0,0,0,0,0,0,0,0,0,0,0,0,0,0,0,0,0,0,0,0,0,0,0,0,0,0,0,0,0,0,0,0,0,0,0,0,0,0,0,0,0,0,0,0,0,0,0,0,0,0,0,0,0,0,0,0,0,0,0,0,0,0,0,0,0,0,0,0,0,0,0,0,0,0,0,0,0,0,0,0,0,0,0,0,0,0,0,0,0,0,0,0,0,0,0,0,0,0,0,0,0,0,0,0,0,0,0,0,0,0,0,0,0,0,0,0,0,0,0,0,0,0,0,0,0,0,0,0,0,0,0,0,0,0,0,0,0,0,0,0,0,0,0,0,0,0,0,0,0,0,0,0,0,0,0,0,0,0,0,0,0,0,0,0,0,0,0,0,0,0,0,0,0,0,0,0,0,0,0,0,0,0,0,0,0,0,0,0,0,0,0,0,0,0,0,0,0,0,0,0,0,0,0,0,0,0,0,0,0,0,0,0,0,0,0,0,0,0,0,0,0,0,0,0,0,0,0,0,0,0,0,0,0,0,0,0,0,0,0,0,0,0,
0,0,0,0,0,0,0,0,0,0,0,0,0,0,0,0,0,0,0,0,0,0,0,0,0,0,0,0,0,0,0,0,0,0,0,0,0,0,0,0,0,0,0,0,0,0,0,0,0,0,0,0,0,0,0,0,0,0,0,0,0,0,0,0,0,0,0,0,0,0,0,0,0,0,0,0,0,0,0,0,0,0,0,0,0,0,0,0,0,0,0,0,0,0,0,0,0,0,0,0,0,0,0,0,0,0,0,0,0,0,0,0,0,0,0,0,0,0,0,0,0,0,0,0,0,0,0,0,0,0,0,0,0,0,0,0,0,0,0,0,0,0,0,0,0,0,0,0,0,0,0,0,0,0,0,0,0,0,0,0,0,0,0,0,0,0,0,0,0,0,0,0,0,0,0,0,0,0,0,0,0,0,0,0,0,0,0,0,0,0,0,0,0,0,0,0,0,0,0,0,0,0,0,0,0,0,0,0,0,0,0,0,0,0,0,0,0,0,0,0,0,0,0,0,0,0,0,0,0,0,0,0,0,0,0,0,0,0,0,0,0,0,0,0,0,0,0,0,0,0,0,0,0,0,0,0,0,0,0,0,0,0,0,0,0,0,0,0,0,0,0,0,0,0,0,0,0,0,0,0,0,0,0,0,0,0,0,0,0,0,0,0,0,0,0,0,0,0,0,0,0,0,0,0,0,0,0,0,0,0,0,0,0,0,0,0,0,0,0,0,0,0,0,0,0,0,0,0,0,0,0,0,0,0,0,0,0,0,0,0,0,0,0,0,0,0,0,0,0,0,0,0,0,0,0,0,0,0,0,0,0,0,0,0,0,0,0,0,0,0,0,0,0,0,0,0,0,0,0,0,0,0,0,0,0,0,0,0,0,0,0,0,0,0,0,0,0,0,0,0,0,0,0,0,0,0,0,0,0,0,0,0,0,0,0,0,0,0,0,0,0,0,0,0,0,0,0,0,0,0,0,0,0,0,0,0,0,0,0,0,0,0,0,0,0,0,0,0,0,0,0,0,0,0,0,0,0,0,0,0,0,0,0,0,0,0,0,0,0,0,0,0,0,0,0,0,0,0,0,0,0,0,0,0,0,0,0,0,0,0,0,0,0,0,0,0,0,0,0,0,0,0,0,0,0,0,0,0,0,0,0,0,0,0,0,0,0,0,0,0,0,0,0,0,0,0,0,0,0,0,0,0,0,0,0,0,0,0,0,0,0,0,0,0,0,0,0,0,0,0,0,0,0,0,0,0,0,0,0,0,0,0,0,0,0,0,0,0,0,0,0,0,0,0,0,0,0,0,0,0,0,0,0,0,0,0,0,0,0,0,0,0,0,0,0,0,0,0,0,0,0,0,0,0,0,0,0,0,0,0,0,0,0,0,0,0,0,0,0,0,0,0,0,0,0,0,0,0,0,0,0,0,0,0,0,0,0,0,0,0,0,0,0,0,0,0,0,0,0,0,0,0,0,0,0,0,0,0,0,0,0,0,0,0,0,0,0,0,0,0,0,0,0,0,0,0,0,0,0,0,0,0,0,0,0,0,0,0,0,0,0,0,0,0,0,0,0,0,0,0,0,0,0,0,0,0,0,0,0,0,0,0,0,0,0,0,0,0,0,0,0,0,0,0,0,0,0,0,0,0,0,0,0,0,0,0,0,0,0,0,0,0,0,0,0,0,0,0,0,0,0,0,0,0,0,0,0,0,0,0,0,0,0,0,0,0,0,0,0,0,0,0,0,0,0,0,0,0,0,0,0,0,0,0,0,0,0,0,0,0,0,0,0,0,0,0,0,0,0,0,0,0,0,0,0,0,0,0,0,0,0,0,0,0,0,0,0,0,0,0,0,0,0,0,0,0,0,0,0,0,0,0,0,0,0,0,0,0,0,0,0,0,0,0,0,0,0,0,0,0,0,0,0,0,0,0,0,0,0,0,0,0,0,0,0,0,0,0,0,0,0,0,0,0,0,0,0,0,0,0,0,0,0,0,0,0,0,0,0,0,0,0,0,0,0,0,0,0,0,0,0,0,0,0,0,0,0,0,0,0,0,0,0,0,0,0,0,0,0,0,0,0,0,0,0,0,0,0,0,0,0,0,0,0,0,0,0,0,0,0,0,0,0,0,0,0,0,0,0,0,0,0,0,0,0,0,0,0,0,0,0,0,0,0,0,0,0,0,0,0,0,0,0,0,0,0,0,0,0,0,0,0,0,0,0,0,0,0,0,0,0,0,0,0,0,0,0,0,0,0,
0,0,0,0,0,0,0,0,0,0,0,0,0,0,0,0,0,0,0,0,0,0,0,0,0,0,0,0,0,0,0,0,0,0,0,0,0,0,0,0,0,0,0,0,0,0,0,0,0,0,0,0,0,0,0,0,0,0,0,0,0,0,0,0,0,0,0,0,0,0,0,0,0,0,0,0,0,0,0,0,0,0,0,0,0,0,0,0,0,0,0,0,0,0,0,0,0,0,0,0,0,0,0,0,0,0,0,0,0,0,0,0,0,0,0,0,0,0,0,0,0,0,0,0,0,0,0,0,0,0,0,0,0,0,0,0,0,0,0,0,0,0,0,0,0,0,0,0,0,0,0,0,0,0,0,0,0,0,0,0,0,0,0,0,0,0,0,0,0,0,0,0,0,0,0,0,0,0,0,0,0,0,0,0,0,0,0,0,0,0,0,0,0,0,0,0,0,0,0,0,0,0,0,0,0,0,0,0,0,0,0,0,0,0,0,0,0,0,0,0,0,0,0,0,0,0,0,0,0,0,0,0,0,0,0,0,0,0,0,0,0,0,0,0,0,0,0,0,0,0,0,0,0,0,0,0,0,0,0,0,0,0,0,0,0,0,0,0,0,0,0,0,0,0,0,0,0,0,0,0,0,0,0,0,0,0,0,0,0,0,0,0,0,0,0,0,0,0,0,0,0,0,0,0,0,0,0,0,0,0,0,0,0,0,0,0,0,0,0,0,0,0,0,0,0,0,0,0,0,0,0,0,0,0,0,0,0,0,0,0,0,0,0,0,0,0,0,0,0,0,0,0,0,0,0,0,0,0,0,0,0,0,0,0,0,0,0,0,0,0,0,0,0,0,0,0,0,0,0,0,0,0,0,0,0,0,0,0,0,0,0,0,0,0,0,0,0,0,0,0,0,0,0,0,0,0,0,0,0,0,0,0,0,0,0,0,0,0,0,0,0,0,0,0,0,0,0,0,0,0,0,0,0,0,0,0,0,0,0,0,0,0,0,0,0,0,0,0,0,0,0,0,0,0,0,0,0,0,0,0,0,0,0,0,0,0,0,0,0,0,0,0,0,0,0,0,0,0,0,0,0,0,0,0,0,0,0,0,0,0,0,0,0,0,0,0,0,0,0,0,0,0,0,0,0,0,0,0,0,0,0,0,0,0,0,0,0,0,0,0,0,0,0,0,0,0,0,0,0,0,0,0,0,0,0,0,0,0,0,0,0,0,0,0,0,0,0,0,0,0,0,0,0,0,0,0,0,0,0,0,0,0,0,0,0,0,0,0,0,0,0,0,0,0,0,0,0,0,0,0,0,0,0,0,0,0,0,0,0,0,0,0,0,0,0,0,0,0,0,0,0,0,0,0,0,0,0,0,0,0,0,0,0,0,0,0,0,0,0,0,0,0,0,0,0,0,0,0,0,0,0,0,0,0,0,0,0,0,0,0,0,0,0,0,0,0,0,0,0,0,0,0,0,0,0,0,0,0,0,0,0,0,0,0,0,0,0,0,0,0,0,0,0,0,0,0,0,0,0,0,0,0,0,0,0,0,0,0,0,0,0,0,0,0,0,0,0,0,0,0,0,0,0,0,0,0,0,0,0,0,0,0,0,0,0,0,0,0,0,0,0,0,0,0,0,0,0,0,0,0,0,0,0,0,0,0,0,0,0,0,0,0,0,0,0,0,0,0,0,0,0,0,0,0,0,0,0,0,0,0,0,0,0,0,0,0,0,0,0,0,0,0,0,0,0,0,0,0,0,0,0,0,0,0,0,0,0,0,0,0,0,0,0,0,0,0,0,0,0,0,0,0,0,0,0,0,0,0,0,0,0,0,0,0,0,0,0,0,0,0,0,0,0,0,0,0,0,0,0,0,0,0,0,0,0,0,0,0,0,0,0,0,0,0,0,0,0,0,0,0,0,0,0,0,0,0,0,0,0,0,0,0,0,0,0,0,0,0,0,0,0,0,0,0,0,0,0,0,0,0,0,0,0,0,0,0,0,0,0,0,0,0,0,0,0,0,0,0,0,0,0,0,0,0,0,0,0,0,0,0,0,0,0,0,0,0,0,0,0,0,0,0,0,0,0,0,0,0,0,0,0,0,0,0,0,0,0,0,0,0,0,0,0,0,0,0,0,0,0,0,0,0,0,0,0,0,0,0,0,0,0,0,0,0,0,0,0,0,0,0,0,0,0,0,0,0,0,0,0,0,0,0,0,0,0,0,0,0,0,0,0,0,0,0,0,0,0,0,0,0,
0,0,0,0,0,0,0,0,0,0,0,0,0,0,0,0,0,0,0,0,0,0,0,0,0,0,0,0,0,0,0,0,0,0,0,0,0,0,0,0,0,0,0,0,0,0,0,0,0,0,0,0,0,0,0,0,0,0,0,0,0,0,0,0,0,0,0,0,0,0,0,0,0,0,0,0,0,0,0,0,0,0,0,0,0,0,0,0,0,0,0,0,0,0,0,0,0,0,0,0,0,0,0,0,0,0,0,0,0,0,0,0,0,0,0,0,0,0,0,0,0,0,0,0,0,0,0,0,0,0,0,0,0,0,0,0,0,0,0,0,0,0,0,0,0,0,0,0,0,0,0,0,0,0,0,0,0,0,0,0,0,0,0,0,0,0,0,0,0,0,0,0,0,0,0,0,0,0,0,0,0,0,0,0,0,0,0,0,0,0,0,0,0,0,0,0,0,0,0,0,0,0,0,0,0,0,0,0,0,0,0,0,0,0,0,0,0,0,0,0,0,0,0,0,0,0,0,0,0,0,0,0,0,0,0,0,0,0,0,0,0,0,0,0,0,0,0,0,0,0,0,0,0,0,0,0,0,0,0,0,0,0,0,0,0,0,0,0,0,0,0,0,0,0,0,0,0,0,0,0,0,0,0,0,0,0,0,0,0,0,0,0,0,0,0,0,0,0,0,0,0,0,0,0,0,0,0,0,0,0,0,0,0,0,0,0,0,0,0,0,0,0,0,0,0,0,0,0,0,0,0,0,0,0,0,0,0,0,0,0,0,0,0,0,0,0,0,0,0,0,0,0,0,0,0,0,0,0,0,0,0,0,0,0,0,0,0,0,0,0,0,0,0,0,0,0,0,0,0,0,0,0,0,0,0,0,0,0,0,0,0,0,0,0,0,0,0,0,0,0,0,0,0,0,0,0,0,0,0,0,0,0,0,0,0,0,0,0,0,0,0,0,0,0,0,0,0,0,0,0,0,0,0,0,0,0,0,0,0,0,0,0,0,0,0,0,0,0,0,0,0,0,0,0,0,0,0,0,0,0,0,0,0,0,0,0,0,0,0,0,0,0,0,0,0,0,0,0,0,0,0,0,0,0,0,0,0,0,0,0,0,0,0,0,0,0,0,0,0,0,0,0,0,0,0,0,0,0,0,0,0,0,0,0,0,0,0,0,0,0,0,0,0,0,0,0,0,0,0,0,0,0,0,0,0,0,0,0,0,0,0,0,0,0,0,0,0,0,0,0,0,0,0,0,0,0,0,0,0,0,0,0,0,0,0,0,0,0,0,0,0,0,0,0,0,0,0,0,0,0,0,0,0,0,0,0,0,0,0,0,0,0,0,0,0,0,0,0,0,0,0,0,0,0,0,0,0,0,0,0,0,0,0,0,0,0,0,0,0,0,0,0,0,0,0,0,0,0,0,0,0,0,0,0,0,0,0,0,0,0,0,0,0,0,0,0,0,0,0,0,0,0,0,0,0,0,0,0,0,0,0,0,0,0,0,0,0,0,0,0,0,0,0,0,0,0,0,0,0,0,0,0,0,0,0,0,0,0,0,0,0,0,0,0,0,0,0,0,0,0,0,0,0,0,0,0,0,0,0,0,0,0,0,0,0,0,0,0,0,0,0,0,0,0,0,0,0,0,0,0,0,0,0,0,0,0,0,0,0,0,0,0,0,0,0,0,0,0,0,0,0,0,0,0,0,0,0,0,0,0,0,0,0,0,0,0,0,0,0,0,0,0,0,0,0,0,0,0,0,0,0,0,0,0,0,0,0,0,0,0,0,0,0,0,0,0,0,0,0,0,0,0,0,0,0,0,0,0,0,0,0,0,0,0,0,0,0,0,0,0,0,0,0,0,0,0,0,0,0,0,0,0,0,0,0,0,0,0,0,0,0,0,0,0,0,0,0,0,0,0,0,0,0,0,0,0,0,0,0,0,0,0,0,0,0,0,0,0,0,0,0,0,0,0,0,0,0,0,0,0,0,0,0,0,0,0,0,0,0,0,0,0,0,0,0,0,0,0,0,0,0,0,0,0,0,0,0,0,0,0,0,0,0,0,0,0,0,0,0,0,0,0,0,0,0,0,0,0,0,0,0,0,0,0,0,0,0,0,0,0,0,0,0,0,0,0,0,0,0,0,0,0,0,0,0,0,0,0,0,0,0,0,0,0,0,0,0,0,0,0,0,0,0,0,0,0,0,0,0,0,0,0,0,0,0,0,0,0,0,0,0,0,0,0,0,0,0,0,0,0,
0,0,0,0,0,0,0,0,0,0,0,0,0,0,0,0,0,0,0,0,0,0,0,0,0,0,0,0,0,0,0,0,0,0,0,0,0,0,0,0,0,0,0,0,0,0,0,0,0,0,0,0,0,0,0,0,0,0,0,0,0,0,0,0,0,0,0,0,0,0,0,0,0,0,0,0,0,0,0,0,0,0,0,0,0,0,0,0,0,0,0,0,0,0,0,0,0,0,0,0,0,0,0,0,0,0,0,0,0,0,0,0,0,0,0,0,0,0,0,0,0,0,0,0,0,0,0,0,0,0,0,0,0,0,0,0,0,0,0,0,0,0,0,0,0,0,0,0,0,0,0,0,0,0,0,0,0,0,0,0,0,0,0,0,0,0,0,0,0,0,0,0,0,0,0,0,0,0,0,0,0,0,0,0,0,0,0,0,0,0,0,0,0,0,0,0,0,0,0,0,0,0,0,0,0,0,0,0,0,0,0,0,0,0,0,0,0,0,0,0,0,0,0,0,0,0,0,0,0,0,0,0,0,0,0,0,0,0,0,0,0,0,0,0,0,0,0,0,0,0,0,0,0,0,0,0,0,0,0,0,0,0,0,0,0,0,0,0,0,0,0,0,0,0,0,0,0,0,0,0,0,0,0,0,0,0,0,0,0,0,0,0,0,0,0,0,0,0,0,0,0,0,0,0,0,0,0,0,0,0,0,0,0,0,0,0,0,0,0,0,0,0,0,0,0,0,0,0,0,0,0,0,0,0,0,0,0,0,0,0,0,0,0,0,0,0,0,0,0,0,0,0,0,0,0,0,0,0,0,0,0,0,0,0,0,0,0,0,0,0,0,0,0,0,0,0,0,0,0,0,0,0,0,0,0,0,0,0,0,0,0,0,0,0,0,0,0,0,0,0,0,0,0,0,0,0,0,0,0,0,0,0,0,0,0,0,0,0,0,0,0,0,0,0,0,0,0,0,0,0,0,0,0,0,0,0,0,0,0,0,0,0,0,0,0,0,0,0,0,0,0,0,0,0,0,0,0,0,0,0,0,0,0,0,0,0,0,0,0,0,0,0,0,0,0,0,0,0,0,0,0,0,0,0,0,0,0,0,0,0,0,0,0,0,0,0,0,0,0,0,0,0,0,0,0,0,0,0,0,0,0,0,0,0,0,0,0,0,0,0,0,0,0,0,0,0,0,0,0,0,0,0,0,0,0,0,0,0,0,0,0,0,0,0,0,0,0,0,0,0,0,0,0,0,0,0,0,0,0,0,0,0,0,0,0,0,0,0,0,0,0,0,0,0,0,0,0,0,0,0,0,0,0,0,0,0,0,0,0,0,0,0,0,0,0,0,0,0,0,0,0,0,0,0,0,0,0,0,0,0,0,0,0,0,0,0,0,0,0,0,0,0,0,0,0,0,0,0,0,0,0,0,0,0,0,0,0,0,0,0,0,0,0,0,0,0,0,0,0,0,0,0,0,0,0,0,0,0,0,0,0,0,0,0,0,0,0,0,0,0,0,0,0,0,0,0,0,0,0,0,0,0,0,0,0,0,0,0,0,0,0,0,0,0,0,0,0,0,0,0,0,0,0,0,0,0,0,0,0,0,0,0,0,0,0,0,0,0,0,0,0,0,0,0,0,0,0,0,0,0,0,0,0,0,0,0,0,0,0,0,0,0,0,0,0,0,0,0,0,0,0,0,0,0,0,0,0,0,0,0,0,0,0,0,0,0,0,0,0,0,0,0,0,0,0,0,0,0,0,0,0,0,0,0,0,0,0,0,0,0,0,0,0,0,0,0,0,0,0,0,0,0,0,0,0,0,0,0,0,0,0,0,0,0,0,0,0,0,0,0,0,0,0,0,0,0,0,0,0,0,0,0,0,0,0,0,0,0,0,0,0,0,0,0,0,0,0,0,0,0,0,0,0,0,0,0,0,0,0,0,0,0,0,0,0,0,0,0,0,0,0,0,0,0,0,0,0,0,0,0,0,0,0,0,0,0,0,0,0,0,0,0,0,0,0,0,0,0,0,0,0,0,0,0,0,0,0,0,0,0,0,0,0,0,0,0,0,0,0,0,0,0,0,0,0,0,0,0,0,0,0,0,0,0,0,0,0,0,0,0,0,0,0,0,0,0,0,0,0,0,0,0,0,0,0,0,0,0,0,0,0,0,0,0,0,0,0,0,0,0,0,0,0,0,0,0,0,0,0,0,0,0,0,0,0,0,0,0,0,0,0,0,0,0,0,0,0,0,0,0,
0,0,0,0,0,0,0,0,0,0,0,0,0,0,0,0,0,0,0,0,0,0,0,0,0,0,0,0,0,0,0,0,0,0,0,0,0,0,0,0,0,0,0,0,0,0,0,0,0,0,0,0,0,0,0,0,0,0,0,0,0,0,0,0,0,0,0,0,0,0,0,0,0,0,0,0,0,0,0,0,0,0,0,0,0,0,0,0,0,0,0,0,0,0,0,0,0,0,0,0,0,0,0,0,0,0,0,0,0,0,0,0,0,0,0,0,0,0,0,0,0,0,0,0,0,0,0,0,0,0,0,0,0,0,0,0,0,0,0,0,0,0,0,0,0,0,0,0,0,0,0,0,0,0,0,0,0,0,0,0,0,0,0,0,0,0,0,0,0,0,0,0,0,0,0,0,0,0,0,0,0,0,0,0,0,0,0,0,0,0,0,0,0,0,0,0,0,0,0,0,0,0,0,0,0,0,0,0,0,0,0,0,0,0,0,0,0,0,0,0,0,0,0,0,0,0,0,0,0,0,0,0,0,0,0,0,0,0,0,0,0,0,0,0,0,0,0,0,0,0,0,0,0,0,0,0,0,0,0,0,0,0,0,0,0,0,0,0,0,0,0,0,0,0,0,0,0,0,0,0,0,0,0,0,0,0,0,0,0,0,0,0,0,0,0,0,0,0,0,0,0,0,0,0,0,0,0,0,0,0,0,0,0,0,0,0,0,0,0,0,0,0,0,0,0,0,0,0,0,0,0,0,0,0,0,0,0,0,0,0,0,0,0,0,0,0,0,0,0,0,0,0,0,0,0,0,0,0,0,0,0,0,0,0,0,0,0,0,0,0,0,0,0,0,0,0,0,0,0,0,0,0,0,0,0,0,0,0,0,0,0,0,0,0,0,0,0,0,0,0,0,0,0,0,0,0,0,0,0,0,0,0,0,0,0,0,0,0,0,0,0,0,0,0,0,0,0,0,0,0,0,0,0,0,0,0,0,0,0,0,0,0,0,0,0,0,0,0,0,0,0,0,0,0,0,0,0,0,0,0,0,0,0,0,0,0,0,0,0,0,0,0,0,0,0,0,0,0,0,0,0,0,0,0,0,0,0,0,0,0,0,0,0,0,0,0,0,0,0,0,0,0,0,0,0,0,0,0,0,0,0,0,0,0,0,0,0,0,0,0,0,0,0,0,0,0,0,0,0,0,0,0,0,0,0,0,0,0,0,0,0,0,0,0,0,0,0,0,0,0,0,0,0,0,0,0,0,0,0,0,0,0,0,0,0,0,0,0,0,0,0,0,0,0,0,0,0,0,0,0,0,0,0,0,0,0,0,0,0,0,0,0,0,0,0,0,0,0,0,0,0,0,0,0,0,0,0,0,0,0,0,0,0,0,0,0,0,0,0,0,0,0,0,0,0,0,0,0,0,0,0,0,0,0,0,0,0,0,0,0,0,0,0,0,0,0,0,0,0,0,0,0,0,0,0,0,0,0,0,0,0,0,0,0,0,0,0,0,0,0,0,0,0,0,0,0,0,0,0,0,0,0,0,0,0,0,0,0,0,0,0,0,0,0,0,0,0,0,0,0,0,0,0,0,0,0,0,0,0,0,0,0,0,0,0,0,0,0,0,0,0,0,0,0,0,0,0,0,0,0,0,0,0,0,0,0,0,0,0,0,0,0,0,0,0,0,0,0,0,0,0,0,0,0,0,0,0,0,0,0,0,0,0,0,0,0,0,0,0,0,0,0,0,0,0,0,0,0,0,0,0,0,0,0,0,0,0,0,0,0,0,0,0,0,0,0,0,0,0,0,0,0,0,0,0,0,0,0,0,0,0,0,0,0,0,0,0,0,0,0,0,0,0,0,0,0,0,0,0,0,0,0,0,0,0,0,0,0,0,0,0,0,0,0,0,0,0,0,0,0,0,0,0,0,0,0,0,0,0,0,0,0,0,0,0,0,0,0,0,0,0,0,0,0,0,0,0,0,0,0,0,0,0,0,0,0,0,0,0,0,0,0,0,0,0,0,0,0,0,0,0,0,0,0,0,0,0,0,0,0,0,0,0,0,0,0,0,0,0,0,0,0,0,0,0,0,0,0,0,0,0,0,0,0,0,0,0,0,0,0,0,0,0,0,0,0,0,0,0,0,0,0,0,0,0,0,0,0,0,0,0,0,0,0,0,0,0,0,0,0,0,0,0,0,0,0,0,0,0,0,0,0,0,0,0,0,0,0,0,0,0,0,0,0,0,0,0,0,0,0,
0,0,0,0,0,0,0,0,0,0,0,0,0,0,0,0,0,0,0,0,0,0,0,0,0,0,0,0,0,0,0,0,0,0,0,0,0,0,0,0,0,0,0,0,0,0,0,0,0,0,0,0,0,0,0,0,0,0,0,0,0,0,0,0,0,0,0,0,0,0,0,0,0,0,0,0,0,0,0,0,0,0,0,0,0,0,0,0,0,0,0,0,0,0,0,0,0,0,0,0,0,0,0,0,0,0,0,0,0,0,0,0,0,0,0,0,0,0,0,0,0,0,0,0,0,0,0,0,0,0,0,0,0,0,0,0,0,0,0,0,0,0,0,0,0,0,0,0,0,0,0,0,0,0,0,0,0,0,0,0,0,0,0,0,0,0,0,0,0,0,0,0,0,0,0,0,0,0,0,0,0,0,0,0,0,0,0,0,0,0,0,0,0,0,0,0,0,0,0,0,0,0,0,0,0,0,0,0,0,0,0,0,0,0,0,0,0,0,0,0,0,0,0,0,0,0,0,0,0,0,0,0,0,0,0,0,0,0,0,0,0,0,0,0,0,0,0,0,0,0,0,0,0,0,0,0,0,0,0,0,0,0,0,0,0,0,0,0,0,0,0,0,0,0,0,0,0,0,0,0,0,0,0,0,0,0,0,0,0,0,0,0,0,0,0,0,0,0,0,0,0,0,0,0,0,0,0,0,0,0,0,0,0,0,0,0,0,0,0,0,0,0,0,0,0,0,0,0,0,0,0,0,0,0,0,0,0,0,0,0,0,0,0,0,0,0,0,0,0,0,0,0,0,0,0,0,0,0,0,0,0,0,0,0,0,0,0,0,0,0,0,0,0,0,0,0,0,0,0,0,0,0,0,0,0,0,0,0,0,0,0,0,0,0,0,0,0,0,0,0,0,0,0,0,0,0,0,0,0,0,0,0,0,0,0,0,0,0,0,0,0,0,0,0,0,0,0,0,0,0,0,0,0,0,0,0,0,0,0,0,0,0,0,0,0,0,0,0,0,0,0,0,0,0,0,0,0,0,0,0,0,0,0,0,0,0,0,0,0,0,0,0,0,0,0,0,0,0,0,0,0,0,0,0,0,0,0,0,0,0,0,0,0,0,0,0,0,0,0,0,0,0,0,0,0,0,0,0,0,0,0,0,0,0,0,0,0,0,0,0,0,0,0,0,0,0,0,0,0,0,0,0,0,0,0,0,0,0,0,0,0,0,0,0,0,0,0,0,0,0,0,0,0,0,0,0,0,0,0,0,0,0,0,0,0,0,0,0,0,0,0,0,0,0,0,0,0,0,0,0,0,0,0,0,0,0,0,0,0,0,0,0,0,0,0,0,0,0,0,0,0,0,0,0,0,0,0,0,0,0,0,0,0,0,0,0,0,0,0,0,0,0,0,0,0,0,0,0,0,0,0,0,0,0,0,0,0,0,0,0,0,0,0,0,0,0,0,0,0,0,0,0,0,0,0,0,0,0,0,0,0,0,0,0,0,0,0,0,0,0,0,0,0,0,0,0,0,0,0,0,0,0,0,0,0,0,0,0,0,0,0,0,0,0,0,0,0,0,0,0,0,0,0,0,0,0,0,0,0,0,0,0,0,0,0,0,0,0,0,0,0,0,0,0,0,0,0,0,0,0,0,0,0,0,0,0,0,0,0,0,0,0,0,0,0,0,0,0,0,0,0,0,0,0,0,0,0,0,0,0,0,0,0,0,0,0,0,0,0,0,0,0,0,0,0,0,0,0,0,0,0,0,0,0,0,0,0,0,0,0,0,0,0,0,0,0,0,0,0,0,0,0,0,0,0,0,0,0,0,0,0,0,0,0,0,0,0,0,0,0,0,0,0,0,0,0,0,0,0,0,0,0,0,0,0,0,0,0,0,0,0,0,0,0,0,0,0,0,0,0,0,0,0,0,0,0,0,0,0,0,0,0,0,0,0,0,0,0,0,0,0,0,0,0,0,0,0,0,0,0,0,0,0,0,0,0,0,0,0,0,0,0,0,0,0,0,0,0,0,0,0,0,0,0,0,0,0,0,0,0,0,0,0,0,0,0,0,0,0,0,0,0,0,0,0,0,0,0,0,0,0,0,0,0,0,0,0,0,0,0,0,0,0,0,0,0,0,0,0,0,0,0,0,0,0,0,0,0,0,0,0,0,0,0,0,0,0,0,0,0,0,0,0,0,0,0,0,0,0,0,0,0,0,0,0,0,0,0,0,0,0,0,0,0,0,0,0,0,0,0,
0,0,0,0,0,0,0,0,0,0,0,0,0,0,0,0,0,0,0,0,0,0,0,0,0,0,0,0,0,0,0,0,0,0,0,0,0,0,0,0,0,0,0,0,0,0,0,0,0,0,0,0,0,0,0,0,0,0,0,0,0,0,0,0,0,0,0,0,0,0,0,0,0,0,0,0,0,0,0,0,0,0,0,0,0,0,0,0,0,0,0,0,0,0,0,0,0,0,0,0,0,0,0,0,0,0,0,0,0,0,0,0,0,0,0,0,0,0,0,0,0,0,0,0,0,0,0,0,0,0,0,0,0,0,0,0,0,0,0,0,0,0,0,0,0,0,0,0,0,0,0,0,0,0,0,0,0,0,0,0,0,0,0,0,0,0,0,0,0,0,0,0,0,0,0,0,0,0,0,0,0,0,0,0,0,0,0,0,0,0,0,0,0,0,0,0,0,0,0,0,0,0,0,0,0,0,0,0,0,0,0,0,0,0,0,0,0,0,0,0,0,0,0,0,0,0,0,0,0,0,0,0,0,0,0,0,0,0,0,0,0,0,0,0,0,0,0,0,0,0,0,0,0,0,0,0,0,0,0,0,0,0,0,0,0,0,0,0,0,0,0,0,0,0,0,0,0,0,0,0,0,0,0,0,0,0,0,0,0,0,0,0,0,0,0,0,0,0,0,0,0,0,0,0,0,0,0,0,0,0,0,0,0,0,0,0,0,0,0,0,0,0,0,0,0,0,0,0,0,0,0,0,0,0,0,0,0,0,0,0,0,0,0,0,0,0,0,0,0,0,0,0,0,0,0,0,0,0,0,0,0,0,0,0,0,0,0,0,0,0,0,0,0,0,0,0,0,0,0,0,0,0,0,0,0,0,0,0,0,0,0,0,0,0,0,0,0,0,0,0,0,0,0,0,0,0,0,0,0,0,0,0,0,0,0,0,0,0,0,0,0,0,0,0,0,0,0,0,0,0,0,0,0,0,0,0,0,0,0,0,0,0,0,0,0,0,0,0,0,0,0,0,0,0,0,0,0,0,0,0,0,0,0,0,0,0,0,0,0,0,0,0,0,0,0,0,0,0,0,0,0,0,0,0,0,0,0,0,0,0,0,0,0,0,0,0,0,0,0,0,0,0,0,0,0,0,0,0,0,0,0,0,0,0,0,0,0,0,0,0,0,0,0,0,0,0,0,0,0,0,0,0,0,0,0,0,0,0,0,0,0,0,0,0,0,0,0,0,0,0,0,0,0,0,0,0,0,0,0,0,0,0,0,0,0,0,0,0,0,0,0,0,0,0,0,0,0,0,0,0,0,0,0,0,0,0,0,0,0,0,0,0,0,0,0,0,0,0,0,0,0,0,0,0,0,0,0,0,0,0,0,0,0,0,0,0,0,0,0,0,0,0,0,0,0,0,0,0,0,0,0,0,0,0,0,0,0,0,0,0,0,0,0,0,0,0,0,0,0,0,0,0,0,0,0,0,0,0,0,0,0,0,0,0,0,0,0,0,0,0,0,0,0,0,0,0,0,0,0,0,0,0,0,0,0,0,0,0,0,0,0,0,0,0,0,0,0,0,0,0,0,0,0,0,0,0,0,0,0,0,0,0,0,0,0,0,0,0,0,0,0,0,0,0,0,0,0,0,0,0,0,0,0,0,0,0,0,0,0,0,0,0,0,0,0,0,0,0,0,0,0,0,0,0,0,0,0,0,0,0,0,0,0,0,0,0,0,0,0,0,0,0,0,0,0,0,0,0,0,0,0,0,0,0,0,0,0,0,0,0,0,0,0,0,0,0,0,0,0,0,0,0,0,0,0,0,0,0,0,0,0,0,0,0,0,0,0,0,0,0,0,0,0,0,0,0,0,0,0,0,0,0,0,0,0,0,0,0,0,0,0,0,0,0,0,0,0,0,0,0,0,0,0,0,0,0,0,0,0,0,0,0,0,0,0,0,0,0,0,0,0,0,0,0,0,0,0,0,0,0,0,0,0,0,0,0,0,0,0,0,0,0,0,0,0,0,0,0,0,0,0,0,0,0,0,0,0,0,0,0,0,0,0,0,0,0,0,0,0,0,0,0,0,0,0,0,0,0,0,0,0,0,0,0,0,0,0,0,0,0,0,0,0,0,0,0,0,0,0,0,0,0,0,0,0,0,0,0,0,0,0,0,0,0,0,0,0,0,0,0,0,0,0,0,0,0,0,0,0,0,0,0,0,0,0,0,0,0,0,0,0,0,0,0,0,0,0,0,0,0,
0,0,0,0,0,0,0,0,0,0,0,0,0,0,0,0,0,0,0,0,0,0,0,0,0,0,0,0,0,0,0,0,0,0,0,0,0,0,0,0,0,0,0,0,0,0,0,0,0,0,0,0,0,0,0,0,0,0,0,0,0,0,0,0,0,0,0,0,0,0,0,0,0,0,0,0,0,0,0,0,0,0,0,0,0,0,0,0,0,0,0,0,0,0,0,0,0,0,0,0,0,0,0,0,0,0,0,0,0,0,0,0,0,0,0,0,0,0,0,0,0,0,0,0,0,0,0,0,0,0,0,0,0,0,0,0,0,0,0,0,0,0,0,0,0,0,0,0,0,0,0,0,0,0,0,0,0,0,0,0,0,0,0,0,0,0,0,0,0,0,0,0,0,0,0,0,0,0,0,0,0,0,0,0,0,0,0,0,0,0,0,0,0,0,0,0,0,0,0,0,0,0,0,0,0,0,0,0,0,0,0,0,0,0,0,0,0,0,0,0,0,0,0,0,0,0,0,0,0,0,0,0,0,0,0,0,0,0,0,0,0,0,0,0,0,0,0,0,0,0,0,0,0,0,0,0,0,0,0,0,0,0,0,0,0,0,0,0,0,0,0,0,0,0,0,0,0,0,0,0,0,0,0,0,0,0,0,0,0,0,0,0,0,0,0,0,0,0,0,0,0,0,0,0,0,0,0,0,0,0,0,0,0,0,0,0,0,0,0,0,0,0,0,0,0,0,0,0,0,0,0,0,0,0,0,0,0,0,0,0,0,0,0,0,0,0,0,0,0,0,0,0,0,0,0,0,0,0,0,0,0,0,0,0,0,0,0,0,0,0,0,0,0,0,0,0,0,0,0,0,0,0,0,0,0,0,0,0,0,0,0,0,0,0,0,0,0,0,0,0,0,0,0,0,0,0,0,0,0,0,0,0,0,0,0,0,0,0,0,0,0,0,0,0,0,0,0,0,0,0,0,0,0,0,0,0,0,0,0,0,0,0,0,0,0,0,0,0,0,0,0,0,0,0,0,0,0,0,0,0,0,0,0,0,0,0,0,0,0,0,0,0,0,0,0,0,0,0,0,0,0,0,0,0,0,0,0,0,0,0,0,0,0,0,0,0,0,0,0,0,0,0,0,0,0,0,0,0,0,0,0,0,0,0,0,0,0,0,0,0,0,0,0,0,0,0,0,0,0,0,0,0,0,0,0,0,0,0,0,0,0,0,0,0,0,0,0,0,0,0,0,0,0,0,0,0,0,0,0,0,0,0,0,0,0,0,0,0,0,0,0,0,0,0,0,0,0,0,0,0,0,0,0,0,0,0,0,0,0,0,0,0,0,0,0,0,0,0,0,0,0,0,0,0,0,0,0,0,0,0,0,0,0,0,0,0,0,0,0,0,0,0,0,0,0,0,0,0,0,0,0,0,0,0,0,0,0,0,0,0,0,0,0,0,0,0,0,0,0,0,0,0,0,0,0,0,0,0,0,0,0,0,0,0,0,0,0,0,0,0,0,0,0,0,0,0,0,0,0,0,0,0,0,0,0,0,0,0,0,0,0,0,0,0,0,0,0,0,0,0,0,0,0,0,0,0,0,0,0,0,0,0,0,0,0,0,0,0,0,0,0,0,0,0,0,0,0,0,0,0,0,0,0,0,0,0,0,0,0,0,0,0,0,0,0,0,0,0,0,0,0,0,0,0,0,0,0,0,0,0,0,0,0,0,0,0,0,0,0,0,0,0,0,0,0,0,0,0,0,0,0,0,0,0,0,0,0,0,0,0,0,0,0,0,0,0,0,0,0,0,0,0,0,0,0,0,0,0,0,0,0,0,0,0,0,0,0,0,0,0,0,0,0,0,0,0,0,0,0,0,0,0,0,0,0,0,0,0,0,0,0,0,0,0,0,0,0,0,0,0,0,0,0,0,0,0,0,0,0,0,0,0,0,0,0,0,0,0,0,0,0,0,0,0,0,0,0,0,0,0,0,0,0,0,0,0,0,0,0,0,0,0,0,0,0,0,0,0,0,0,0,0,0,0,0,0,0,0,0,0,0,0,0,0,0,0,0,0,0,0,0,0,0,0,0,0,0,0,0,0,0,0,0,0,0,0,0,0,0,0,0,0,0,0,0,0,0,0,0,0,0,0,0,0,0,0,0,0,0,0,0,0,0,0,0,0,0,0,0,0,0,0,0,0,0,0,0,0,0,0,0,0,0,0,0,0,0,0,0,0,0,0,0,0,0,0,0,0,0,0,
0,0,0,0,0,0,0,0,0,0,0,0,0,0,0,0,0,0,0,0,0,0,0,0,0,0,0,0,0,0,0,0,0,0,0,0,0,0,0,0,0,0,0,0,0,0,0,0,0,0,0,0,0,0,0,0,0,0,0,0,0,0,0,0,0,0,0,0,0,0,0,0,0,0,0,0,0,0,0,0,0,0,0,0,0,0,0,0,0,0,0,0,0,0,0,0,0,0,0,0,0,0,0,0,0,0,0,0,0,0,0,0,0,0,0,0,0,0,0,0,0,0,0,0,0,0,0,0,0,0,0,0,0,0,0,0,0,0,0,0,0,0,0,0,0,0,0,0,0,0,0,0,0,0,0,0,0,0,0,0,0,0,0,0,0,0,0,0,0,0,0,0,0,0,0,0,0,0,0,0,0,0,0,0,0,0,0,0,0,0,0,0,0,0,0,0,0,0,0,0,0,0,0,0,0,0,0,0,0,0,0,0,0,0,0,0,0,0,0,0,0,0,0,0,0,0,0,0,0,0,0,0,0,0,0,0,0,0,0,0,0,0,0,0,0,0,0,0,0,0,0,0,0,0,0,0,0,0,0,0,0,0,0,0,0,0,0,0,0,0,0,0,0,0,0,0,0,0,0,0,0,0,0,0,0,0,0,0,0,0,0,0,0,0,0,0,0,0,0,0,0,0,0,0,0,0,0,0,0,0,0,0,0,0,0,0,0,0,0,0,0,0,0,0,0,0,0,0,0,0,0,0,0,0,0,0,0,0,0,0,0,0,0,0,0,0,0,0,0,0,0,0,0,0,0,0,0,0,0,0,0,0,0,0,0,0,0,0,0,0,0,0,0,0,0,0,0,0,0,0,0,0,0,0,0,0,0,0,0,0,0,0,0,0,0,0,0,0,0,0,0,0,0,0,0,0,0,0,0,0,0,0,0,0,0,0,0,0,0,0,0,0,0,0,0,0,0,0,0,0,0,0,0,0,0,0,0,0,0,0,0,0,0,0,0,0,0,0,0,0,0,0,0,0,0,0,0,0,0,0,0,0,0,0,0,0,0,0,0,0,0,0,0,0,0,0,0,0,0,0,0,0,0,0,0,0,0,0,0,0,0,0,0,0,0,0,0,0,0,0,0,0,0,0,0,0,0,0,0,0,0,0,0,0,0,0,0,0,0,0,0,0,0,0,0,0,0,0,0,0,0,0,0,0,0,0,0,0,0,0,0,0,0,0,0,0,0,0,0,0,0,0,0,0,0,0,0,0,0,0,0,0,0,0,0,0,0,0,0,0,0,0,0,0,0,0,0,0,0,0,0,0,0,0,0,0,0,0,0,0,0,0,0,0,0,0,0,0,0,0,0,0,0,0,0,0,0,0,0,0,0,0,0,0,0,0,0,0,0,0,0,0,0,0,0,0,0,0,0,0,0,0,0,0,0,0,0,0,0,0,0,0,0,0,0,0,0,0,0,0,0,0,0,0,0,0,0,0,0,0,0,0,0,0,0,0,0,0,0,0,0,0,0,0,0,0,0,0,0,0,0,0,0,0,0,0,0,0,0,0,0,0,0,0,0,0,0,0,0,0,0,0,0,0,0,0,0,0,0,0,0,0,0,0,0,0,0,0,0,0,0,0,0,0,0,0,0,0,0,0,0,0,0,0,0,0,0,0,0,0,0,0,0,0,0,0,0,0,0,0,0,0,0,0,0,0,0,0,0,0,0,0,0,0,0,0,0,0,0,0,0,0,0,0,0,0,0,0,0,0,0,0,0,0,0,0,0,0,0,0,0,0,0,0,0,0,0,0,0,0,0,0,0,0,0,0,0,0,0,0,0,0,0,0,0,0,0,0,0,0,0,0,0,0,0,0,0,0,0,0,0,0,0,0,0,0,0,0,0,0,0,0,0,0,0,0,0,0,0,0,0,0,0,0,0,0,0,0,0,0,0,0,0,0,0,0,0,0,0,0,0,0,0,0,0,0,0,0,0,0,0,0,0,0,0,0,0,0,0,0,0,0,0,0,0,0,0,0,0,0,0,0,0,0,0,0,0,0,0,0,0,0,0,0,0,0,0,0,0,0,0,0,0,0,0,0,0,0,0,0,0,0,0,0,0,0,0,0,0,0,0,0,0,0,0,0,0,0,0,0,0,0,0,0,0,0,0,0,0,0,0,0,0,0,0,0,0,0,0,0,0,0,0,0,0,0,0,0,0,0,0,0,0,0,0,0,0,0,0,0,0,0,0,0,0,0,0,0,0,0,
0,0,0,0,0,0,0,0,0,0,0,0,0,0,0,0,0,0,0,0,0,0,0,0,0,0,0,0,0,0,0,0,0,0,0,0,0,0,0,0,0,0,0,0,0,0,0,0,0,0,0,0,0,0,0,0,0,0,0,0,0,0,0,0,0,0,0,0,0,0,0,0,0,0,0,0,0,0,0,0,0,0,0,0,0,0,0,0,0,0,0,0,0,0,0,0,0,0,0,0,0,0,0,0,0,0,0,0,0,0,0,0,0,0,0,0,0,0,0,0,0,0,0,0,0,0,0,0,0,0,0,0,0,0,0,0,0,0,0,0,0,0,0,0,0,0,0,0,0,0,0,0,0,0,0,0,0,0,0,0,0,0,0,0,0,0,0,0,0,0,0,0,0,0,0,0,0,0,0,0,0,0,0,0,0,0,0,0,0,0,0,0,0,0,0,0,0,0,0,0,0,0,0,0,0,0,0,0,0,0,0,0,0,0,0,0,0,0,0,0,0,0,0,0,0,0,0,0,0,0,0,0,0,0,0,0,0,0,0,0,0,0,0,0,0,0,0,0,0,0,0,0,0,0,0,0,0,0,0,0,0,0,0,0,0,0,0,0,0,0,0,0,0,0,0,0,0,0,0,0,0,0,0,0,0,0,0,0,0,0,0,0,0,0,0,0,0,0,0,0,0,0,0,0,0,0,0,0,0,0,0,0,0,0,0,0,0,0,0,0,0,0,0,0,0,0,0,0,0,0,0,0,0,0,0,0,0,0,0,0,0,0,0,0,0,0,0,0,0,0,0,0,0,0,0,0,0,0,0,0,0,0,0,0,0,0,0,0,0,0,0,0,0,0,0,0,0,0,0,0,0,0,0,0,0,0,0,0,0,0,0,0,0,0,0,0,0,0,0,0,0,0,0,0,0,0,0,0,0,0,0,0,0,0,0,0,0,0,0,0,0,0,0,0,0,0,0,0,0,0,0,0,0,0,0,0,0,0,0,0,0,0,0,0,0,0,0,0,0,0,0,0,0,0,0,0,0,0,0,0,0,0,0,0,0,0,0,0,0,0,0,0,0,0,0,0,0,0,0,0,0,0,0,0,0,0,0,0,0,0,0,0,0,0,0,0,0,0,0,0,0,0,0,0,0,0,0,0,0,0,0,0,0,0,0,0,0,0,0,0,0,0,0,0,0,0,0,0,0,0,0,0,0,0,0,0,0,0,0,0,0,0,0,0,0,0,0,0,0,0,0,0,0,0,0,0,0,0,0,0,0,0,0,0,0,0,0,0,0,0,0,0,0,0,0,0,0,0,0,0,0,0,0,0,0,0,0,0,0,0,0,0,0,0,0,0,0,0,0,0,0,0,0,0,0,0,0,0,0,0,0,0,0,0,0,0,0,0,0,0,0,0,0,0,0,0,0,0,0,0,0,0,0,0,0,0,0,0,0,0,0,0,0,0,0,0,0,0,0,0,0,0,0,0,0,0,0,0,0,0,0,0,0,0,0,0,0,0,0,0,0,0,0,0,0,0,0,0,0,0,0,0,0,0,0,0,0,0,0,0,0,0,0,0,0,0,0,0,0,0,0,0,0,0,0,0,0,0,0,0,0,0,0,0,0,0,0,0,0,0,0,0,0,0,0,0,0,0,0,0,0,0,0,0,0,0,0,0,0,0,0,0,0,0,0,0,0,0,0,0,0,0,0,0,0,0,0,0,0,0,0,0,0,0,0,0,0,0,0,0,0,0,0,0,0,0,0,0,0,0,0,0,0,0,0,0,0,0,0,0,0,0,0,0,0,0,0,0,0,0,0,0,0,0,0,0,0,0,0,0,0,0,0,0,0,0,0,0,0,0,0,0,0,0,0,0,0,0,0,0,0,0,0,0,0,0,0,0,0,0,0,0,0,0,0,0,0,0,0,0,0,0,0,0,0,0,0,0,0,0,0,0,0,0,0,0,0,0,0,0,0,0,0,0,0,0,0,0,0,0,0,0,0,0,0,0,0,0,0,0,0,0,0,0,0,0,0,0,0,0,0,0,0,0,0,0,0,0,0,0,0,0,0,0,0,0,0,0,0,0,0,0,0,0,0,0,0,0,0,0,0,0,0,0,0,0,0,0,0,0,0,0,0,0,0,0,0,0,0,0,0,0,0,0,0,0,0,0,0,0,0,0,0,0,0,0,0,0,0,0,0,0,0,0,0,0,0,0,0,0,0,0,0,0,0,0,0,0,0,0,0,0,0,0,0,0,0,0,0,0,
0,0,0,0,0,0,0,0,0,0,0,0,0,0,0,0,0,0,0,0,0,0,0,0,0,0,0,0,0,0,0,0,0,0,0,0,0,0,0,0,0,0,0,0,0,0,0,0,0,0,0,0,0,0,0,0,0,0,0,0,0,0,0,0,0,0,0,0,0,0,0,0,0,0,0,0,0,0,0,0,0,0,0,0,0,0,0,0,0,0,0,0,0,0,0,0,0,0,0,0,0,0,0,0,0,0,0,0,0,0,0,0,0,0,0,0,0,0,0,0,0,0,0,0,0,0,0,0,0,0,0,0,0,0,0,0,0,0,0,0,0,0,0,0,0,0,0,0,0,0,0,0,0,0,0,0,0,0,0,0,0,0,0,0,0,0,0,0,0,0,0,0,0,0,0,0,0,0,0,0,0,0,0,0,0,0,0,0,0,0,0,0,0,0,0,0,0,0,0,0,0,0,0,0,0,0,0,0,0,0,0,0,0,0,0,0,0,0,0,0,0,0,0,0,0,0,0,0,0,0,0,0,0,0,0,0,0,0,0,0,0,0,0,0,0,0,0,0,0,0,0,0,0,0,0,0,0,0,0,0,0,0,0,0,0,0,0,0,0,0,0,0,0,0,0,0,0,0,0,0,0,0,0,0,0,0,0,0,0,0,0,0,0,0,0,0,0,0,0,0,0,0,0,0,0,0,0,0,0,0,0,0,0,0,0,0,0,0,0,0,0,0,0,0,0,0,0,0,0,0,0,0,0,0,0,0,0,0,0,0,0,0,0,0,0,0,0,0,0,0,0,0,0,0,0,0,0,0,0,0,0,0,0,0,0,0,0,0,0,0,0,0,0,0,0,0,0,0,0,0,0,0,0,0,0,0,0,0,0,0,0,0,0,0,0,0,0,0,0,0,0,0,0,0,0,0,0,0,0,0,0,0,0,0,0,0,0,0,0,0,0,0,0,0,0,0,0,0,0,0,0,0,0,0,0,0,0,0,0,0,0,0,0,0,0,0,0,0,0,0,0,0,0,0,0,0,0,0,0,0,0,0,0,0,0,0,0,0,0,0,0,0,0,0,0,0,0,0,0,0,0,0,0,0,0,0,0,0,0,0,0,0,0,0,0,0,0,0,0,0,0,0,0,0,0,0,0,0,0,0,0,0,0,0,0,0,0,0,0,0,0,0,0,0,0,0,0,0,0,0,0,0,0,0,0,0,0,0,0,0,0,0,0,0,0,0,0,0,0,0,0,0,0,0,0,0,0,0,0,0,0,0,0,0,0,0,0,0,0,0,0,0,0,0,0,0,0,0,0,0,0,0,0,0,0,0,0,0,0,0,0,0,0,0,0,0,0,0,0,0,0,0,0,0,0,0,0,0,0,0,0,0,0,0,0,0,0,0,0,0,0,0,0,0,0,0,0,0,0,0,0,0,0,0,0,0,0,0,0,0,0,0,0,0,0,0,0,0,0,0,0,0,0,0,0,0,0,0,0,0,0,0,0,0,0,0,0,0,0,0,0,0,0,0,0,0,0,0,0,0,0,0,0,0,0,0,0,0,0,0,0,0,0,0,0,0,0,0,0,0,0,0,0,0,0,0,0,0,0,0,0,0,0,0,0,0,0,0,0,0,0,0,0,0,0,0,0,0,0,0,0,0,0,0,0,0,0,0,0,0,0,0,0,0,0,0,0,0,0,0,0,0,0,0,0,0,0,0,0,0,0,0,0,0,0,0,0,0,0,0,0,0,0,0,0,0,0,0,0,0,0,0,0,0,0,0,0,0,0,0,0,0,0,0,0,0,0,0,0,0,0,0,0,0,0,0,0,0,0,0,0,0,0,0,0,0,0,0,0,0,0,0,0,0,0,0,0,0,0,0,0,0,0,0,0,0,0,0,0,0,0,0,0,0,0,0,0,0,0,0,0,0,0,0,0,0,0,0,0,0,0,0,0,0,0,0,0,0,0,0,0,0,0,0,0,0,0,0,0,0,0,0,0,0,0,0,0,0,0,0,0,0,0,0,0,0,0,0,0,0,0,0,0,0,0,0,0,0,0,0,0,0,0,0,0,0,0,0,0,0,0,0,0,0,0,0,0,0,0,0,0,0,0,0,0,0,0,0,0,0,0,0,0,0,0,0,0,0,0,0,0,0,0,0,0,0,0,0,0,0,0,0,0,0,0,0,0,0,0,0,0,0,0,0,0,0,0,0,0,0,0,0,0,0,0,0,0,0,0,0,0,0,0,0,0,0,0,0,0,0,
0,0,0,0,0,0,0,0,0,0,0,0,0,0,0,0,0,0,0,0,0,0,0,0,0,0,0,0,0,0,0,0,0,0,0,0,0,0,0,0,0,0,0,0,0,0,0,0,0,0,0,0,0,0,0,0,0,0,0,0,0,0,0,0,0,0,0,0,0,0,0,0,0,0,0,0,0,0,0,0,0,0,0,0,0,0,0,0,0,0,0,0,0,0,0,0,0,0,0,0,0,0,0,0,0,0,0,0,0,0,0,0,0,0,0,0,0,0,0,0,0,0,0,0,0,0,0,0,0,0,0,0,0,0,0,0,0,0,0,0,0,0,0,0,0,0,0,0,0,0,0,0,0,0,0,0,0,0,0,0,0,0,0,0,0,0,0,0,0,0,0,0,0,0,0,0,0,0,0,0,0,0,0,0,0,0,0,0,0,0,0,0,0,0,0,0,0,0,0,0,0,0,0,0,0,0,0,0,0,0,0,0,0,0,0,0,0,0,0,0,0,0,0,0,0,0,0,0,0,0,0,0,0,0,0,0,0,0,0,0,0,0,0,0,0,0,0,0,0,0,0,0,0,0,0,0,0,0,0,0,0,0,0,0,0,0,0,0,0,0,0,0,0,0,0,0,0,0,0,0,0,0,0,0,0,0,0,0,0,0,0,0,0,0,0,0,0,0,0,0,0,0,0,0,0,0,0,0,0,0,0,0,0,0,0,0,0,0,0,0,0,0,0,0,0,0,0,0,0,0,0,0,0,0,0,0,0,0,0,0,0,0,0,0,0,0,0,0,0,0,0,0,0,0,0,0,0,0,0,0,0,0,0,0,0,0,0,0,0,0,0,0,0,0,0,0,0,0,0,0,0,0,0,0,0,0,0,0,0,0,0,0,0,0,0,0,0,0,0,0,0,0,0,0,0,0,0,0,0,0,0,0,0,0,0,0,0,0,0,0,0,0,0,0,0,0,0,0,0,0,0,0,0,0,0,0,0,0,0,0,0,0,0,0,0,0,0,0,0,0,0,0,0,0,0,0,0,0,0,0,0,0,0,0,0,0,0,0,0,0,0,0,0,0,0,0,0,0,0,0,0,0,0,0,0,0,0,0,0,0,0,0,0,0,0,0,0,0,0,0,0,0,0,0,0,0,0,0,0,0,0,0,0,0,0,0,0,0,0,0,0,0,0,0,0,0,0,0,0,0,0,0,0,0,0,0,0,0,0,0,0,0,0,0,0,0,0,0,0,0,0,0,0,0,0,0,0,0,0,0,0,0,0,0,0,0,0,0,0,0,0,0,0,0,0,0,0,0,0,0,0,0,0,0,0,0,0,0,0,0,0,0,0,0,0,0,0,0,0,0,0,0,0,0,0,0,0,0,0,0,0,0,0,0,0,0,0,0,0,0,0,0,0,0,0,0,0,0,0,0,0,0,0,0,0,0,0,0,0,0,0,0,0,0,0,0,0,0,0,0,0,0,0,0,0,0,0,0,0,0,0,0,0,0,0,0,0,0,0,0,0,0,0,0,0,0,0,0,0,0,0,0,0,0,0,0,0,0,0,0,0,0,0,0,0,0,0,0,0,0,0,0,0,0,0,0,0,0,0,0,0,0,0,0,0,0,0,0,0,0,0,0,0,0,0,0,0,0,0,0,0,0,0,0,0,0,0,0,0,0,0,0,0,0,0,0,0,0,0,0,0,0,0,0,0,0,0,0,0,0,0,0,0,0,0,0,0,0,0,0,0,0,0,0,0,0,0,0,0,0,0,0,0,0,0,0,0,0,0,0,0,0,0,0,0,0,0,0,0,0,0,0,0,0,0,0,0,0,0,0,0,0,0,0,0,0,0,0,0,0,0,0,0,0,0,0,0,0,0,0,0,0,0,0,0,0,0,0,0,0,0,0,0,0,0,0,0,0,0,0,0,0,0,0,0,0,0,0,0,0,0,0,0,0,0,0,0,0,0,0,0,0,0,0,0,0,0,0,0,0,0,0,0,0,0,0,0,0,0,0,0,0,0,0,0,0,0,0,0,0,0,0,0,0,0,0,0,0,0,0,0,0,0,0,0,0,0,0,0,0,0,0,0,0,0,0,0,0,0,0,0,0,0,0,0,0,0,0,0,0,0,0,0,0,0,0,0,0,0,0,0,0,0,0,0,0,0,0,0,0,0,0,0,0,0,0,0,0,0,0,0,0,0,0,0,0,0,0,0,0,0,0,0,0,0,0,0,0,0,0,0,0,0,0,0,0,0,0,0,0,
0,0,0,0,0,0,0,0,0,0,0,0,0,0,0,0,0,0,0,0,0,0,0,0,0,0,0,0,0,0,0,0,0,0,0,0,0,0,0,0,0,0,0,0,0,0,0,0,0,0,0,0,0,0,0,0,0,0,0,0,0,0,0,0,0,0,0,0,0,0,0,0,0,0,0,0,0,0,0,0,0,0,0,0,0,0,0,0,0,0,0,0,0,0,0,0,0,0,0,0,0,0,0,0,0,0,0,0,0,0,0,0,0,0,0,0,0,0,0,0,0,0,0,0,0,0,0,0,0,0,0,0,0,0,0,0,0,0,0,0,0,0,0,0,0,0,0,0,0,0,0,0,0,0,0,0,0,0,0,0,0,0,0,0,0,0,0,0,0,0,0,0,0,0,0,0,0,0,0,0,0,0,0,0,0,0,0,0,0,0,0,0,0,0,0,0,0,0,0,0,0,0,0,0,0,0,0,0,0,0,0,0,0,0,0,0,0,0,0,0,0,0,0,0,0,0,0,0,0,0,0,0,0,0,0,0,0,0,0,0,0,0,0,0,0,0,0,0,0,0,0,0,0,0,0,0,0,0,0,0,0,0,0,0,0,0,0,0,0,0,0,0,0,0,0,0,0,0,0,0,0,0,0,0,0,0,0,0,0,0,0,0,0,0,0,0,0,0,0,0,0,0,0,0,0,0,0,0,0,0,0,0,0,0,0,0,0,0,0,0,0,0,0,0,0,0,0,0,0,0,0,0,0,0,0,0,0,0,0,0,0,0,0,0,0,0,0,0,0,0,0,0,0,0,0,0,0,0,0,0,0,0,0,0,0,0,0,0,0,0,0,0,0,0,0,0,0,0,0,0,0,0,0,0,0,0,0,0,0,0,0,0,0,0,0,0,0,0,0,0,0,0,0,0,0,0,0,0,0,0,0,0,0,0,0,0,0,0,0,0,0,0,0,0,0,0,0,0,0,0,0,0,0,0,0,0,0,0,0,0,0,0,0,0,0,0,0,0,0,0,0,0,0,0,0,0,0,0,0,0,0,0,0,0,0,0,0,0,0,0,0,0,0,0,0,0,0,0,0,0,0,0,0,0,0,0,0,0,0,0,0,0,0,0,0,0,0,0,0,0,0,0,0,0,0,0,0,0,0,0,0,0,0,0,0,0,0,0,0,0,0,0,0,0,0,0,0,0,0,0,0,0,0,0,0,0,0,0,0,0,0,0,0,0,0,0,0,0,0,0,0,0,0,0,0,0,0,0,0,0,0,0,0,0,0,0,0,0,0,0,0,0,0,0,0,0,0,0,0,0,0,0,0,0,0,0,0,0,0,0,0,0,0,0,0,0,0,0,0,0,0,0,0,0,0,0,0,0,0,0,0,0,0,0,0,0,0,0,0,0,0,0,0,0,0,0,0,0,0,0,0,0,0,0,0,0,0,0,0,0,0,0,0,0,0,0,0,0,0,0,0,0,0,0,0,0,0,0,0,0,0,0,0,0,0,0,0,0,0,0,0,0,0,0,0,0,0,0,0,0,0,0,0,0,0,0,0,0,0,0,0,0,0,0,0,0,0,0,0,0,0,0,0,0,0,0,0,0,0,0,0,0,0,0,0,0,0,0,0,0,0,0,0,0,0,0,0,0,0,0,0,0,0,0,0,0,0,0,0,0,0,0,0,0,0,0,0,0,0,0,0,0,0,0,0,0,0,0,0,0,0,0,0,0,0,0,0,0,0,0,0,0,0,0,0,0,0,0,0,0,0,0,0,0,0,0,0,0,0,0,0,0,0,0,0,0,0,0,0,0,0,0,0,0,0,0,0,0,0,0,0,0,0,0,0,0,0,0,0,0,0,0,0,0,0,0,0,0,0,0,0,0,0,0,0,0,0,0,0,0,0,0,0,0,0,0,0,0,0,0,0,0,0,0,0,0,0,0,0,0,0,0,0,0,0,0,0,0,0,0,0,0,0,0,0,0,0,0,0,0,0,0,0,0,0,0,0,0,0,0,0,0,0,0,0,0,0,0,0,0,0,0,0,0,0,0,0,0,0,0,0,0,0,0,0,0,0,0,0,0,0,0,0,0,0,0,0,0,0,0,0,0,0,0,0,0,0,0,0,0,0,0,0,0,0,0,0,0,0,0,0,0,0,0,0,0,0,0,0,0,0,0,0,0,0,0,0,0,0,0,0,0,0,0,0,0,0,0,0,0,0,0,0,0,0,0,0,0,0,0,0,0,0,0,0,0,0,0,0,0,
0,0,0,0,0,0,0,0,0,0,0,0,0,0,0,0,0,0,0,0,0,0,0,0,0,0,0,0,0,0,0,0,0,0,0,0,0,0,0,0,0,0,0,0,0,0,0,0,0,0,0,0,0,0,0,0,0,0,0,0,0,0,0,0,0,0,0,0,0,0,0,0,0,0,0,0,0,0,0,0,0,0,0,0,0,0,0,0,0,0,0,0,0,0,0,0,0,0,0,0,0,0,0,0,0,0,0,0,0,0,0,0,0,0,0,0,0,0,0,0,0,0,0,0,0,0,0,0,0,0,0,0,0,0,0,0,0,0,0,0,0,0,0,0,0,0,0,0,0,0,0,0,0,0,0,0,0,0,0,0,0,0,0,0,0,0,0,0,0,0,0,0,0,0,0,0,0,0,0,0,0,0,0,0,0,0,0,0,0,0,0,0,0,0,0,0,0,0,0,0,0,0,0,0,0,0,0,0,0,0,0,0,0,0,0,0,0,0,0,0,0,0,0,0,0,0,0,0,0,0,0,0,0,0,0,0,0,0,0,0,0,0,0,0,0,0,0,0,0,0,0,0,0,0,0,0,0,0,0,0,0,0,0,0,0,0,0,0,0,0,0,0,0,0,0,0,0,0,0,0,0,0,0,0,0,0,0,0,0,0,0,0,0,0,0,0,0,0,0,0,0,0,0,0,0,0,0,0,0,0,0,0,0,0,0,0,0,0,0,0,0,0,0,0,0,0,0,0,0,0,0,0,0,0,0,0,0,0,0,0,0,0,0,0,0,0,0,0,0,0,0,0,0,0,0,0,0,0,0,0,0,0,0,0,0,0,0,0,0,0,0,0,0,0,0,0,0,0,0,0,0,0,0,0,0,0,0,0,0,0,0,0,0,0,0,0,0,0,0,0,0,0,0,0,0,0,0,0,0,0,0,0,0,0,0,0,0,0,0,0,0,0,0,0,0,0,0,0,0,0,0,0,0,0,0,0,0,0,0,0,0,0,0,0,0,0,0,0,0,0,0,0,0,0,0,0,0,0,0,0,0,0,0,0,0,0,0,0,0,0,0,0,0,0,0,0,0,0,0,0,0,0,0,0,0,0,0,0,0,0,0,0,0,0,0,0,0,0,0,0,0,0,0,0,0,0,0,0,0,0,0,0,0,0,0,0,0,0,0,0,0,0,0,0,0,0,0,0,0,0,0,0,0,0,0,0,0,0,0,0,0,0,0,0,0,0,0,0,0,0,0,0,0,0,0,0,0,0,0,0,0,0,0,0,0,0,0,0,0,0,0,0,0,0,0,0,0,0,0,0,0,0,0,0,0,0,0,0,0,0,0,0,0,0,0,0,0,0,0,0,0,0,0,0,0,0,0,0,0,0,0,0,0,0,0,0,0,0,0,0,0,0,0,0,0,0,0,0,0,0,0,0,0,0,0,0,0,0,0,0,0,0,0,0,0,0,0,0,0,0,0,0,0,0,0,0,0,0,0,0,0,0,0,0,0,0,0,0,0,0,0,0,0,0,0,0,0,0,0,0,0,0,0,0,0,0,0,0,0,0,0,0,0,0,0,0,0,0,0,0,0,0,0,0,0,0,0,0,0,0,0,0,0,0,0,0,0,0,0,0,0,0,0,0,0,0,0,0,0,0,0,0,0,0,0,0,0,0,0,0,0,0,0,0,0,0,0,0,0,0,0,0,0,0,0,0,0,0,0,0,0,0,0,0,0,0,0,0,0,0,0,0,0,0,0,0,0,0,0,0,0,0,0,0,0,0,0,0,0,0,0,0,0,0,0,0,0,0,0,0,0,0,0,0,0,0,0,0,0,0,0,0,0,0,0,0,0,0,0,0,0,0,0,0,0,0,0,0,0,0,0,0,0,0,0,0,0,0,0,0,0,0,0,0,0,0,0,0,0,0,0,0,0,0,0,0,0,0,0,0,0,0,0,0,0,0,0,0,0,0,0,0,0,0,0,0,0,0,0,0,0,0,0,0,0,0,0,0,0,0,0,0,0,0,0,0,0,0,0,0,0,0,0,0,0,0,0,0,0,0,0,0,0,0,0,0,0,0,0,0,0,0,0,0,0,0,0,0,0,0,0,0,0,0,0,0,0,0,0,0,0,0,0,0,0,0,0,0,0,0,0,0,0,0,0,0,0,0,0,0,0,0,0,0,0,0,0,0,0,0,0,0,0,0,0,0,0,0,0,0,0,0,0,0,0,0,0,0,0,0,0,0,0,0,0,0,0,0,0,0,
0,0,0,0,0,0,0,0,0,0,0,0,0,0,0,0,0,0,0,0,0,0,0,0,0,0,0,0,0,0,0,0,0,0,0,0,0,0,0,0,0,0,0,0,0,0,0,0,0,0,0,0,0,0,0,0,0,0,0,0,0,0,0,0,0,0,0,0,0,0,0,0,0,0,0,0,0,0,0,0,0,0,0,0,0,0,0,0,0,0,0,0,0,0,0,0,0,0,0,0,0,0,0,0,0,0,0,0,0,0,0,0,0,0,0,0,0,0,0,0,0,0,0,0,0,0,0,0,0,0,0,0,0,0,0,0,0,0,0,0,0,0,0,0,0,0,0,0,0,0,0,0,0,0,0,0,0,0,0,0,0,0,0,0,0,0,0,0,0,0,0,0,0,0,0,0,0,0,0,0,0,0,0,0,0,0,0,0,0,0,0,0,0,0,0,0,0,0,0,0,0,0,0,0,0,0,0,0,0,0,0,0,0,0,0,0,0,0,0,0,0,0,0,0,0,0,0,0,0,0,0,0,0,0,0,0,0,0,0,0,0,0,0,0,0,0,0,0,0,0,0,0,0,0,0,0,0,0,0,0,0,0,0,0,0,0,0,0,0,0,0,0,0,0,0,0,0,0,0,0,0,0,0,0,0,0,0,0,0,0,0,0,0,0,0,0,0,0,0,0,0,0,0,0,0,0,0,0,0,0,0,0,0,0,0,0,0,0,0,0,0,0,0,0,0,0,0,0,0,0,0,0,0,0,0,0,0,0,0,0,0,0,0,0,0,0,0,0,0,0,0,0,0,0,0,0,0,0,0,0,0,0,0,0,0,0,0,0,0,0,0,0,0,0,0,0,0,0,0,0,0,0,0,0,0,0,0,0,0,0,0,0,0,0,0,0,0,0,0,0,0,0,0,0,0,0,0,0,0,0,0,0,0,0,0,0,0,0,0,0,0,0,0,0,0,0,0,0,0,0,0,0,0,0,0,0,0,0,0,0,0,0,0,0,0,0,0,0,0,0,0,0,0,0,0,0,0,0,0,0,0,0,0,0,0,0,0,0,0,0,0,0,0,0,0,0,0,0,0,0,0,0,0,0,0,0,0,0,0,0,0,0,0,0,0,0,0,0,0,0,0,0,0,0,0,0,0,0,0,0,0,0,0,0,0,0,0,0,0,0,0,0,0,0,0,0,0,0,0,0,0,0,0,0,0,0,0,0,0,0,0,0,0,0,0,0,0,0,0,0,0,0,0,0,0,0,0,0,0,0,0,0,0,0,0,0,0,0,0,0,0,0,0,0,0,0,0,0,0,0,0,0,0,0,0,0,0,0,0,0,0,0,0,0,0,0,0,0,0,0,0,0,0,0,0,0,0,0,0,0,0,0,0,0,0,0,0,0,0,0,0,0,0,0,0,0,0,0,0,0,0,0,0,0,0,0,0,0,0,0,0,0,0,0,0,0,0,0,0,0,0,0,0,0,0,0,0,0,0,0,0,0,0,0,0,0,0,0,0,0,0,0,0,0,0,0,0,0,0,0,0,0,0,0,0,0,0,0,0,0,0,0,0,0,0,0,0,0,0,0,0,0,0,0,0,0,0,0,0,0,0,0,0,0,0,0,0,0,0,0,0,0,0,0,0,0,0,0,0,0,0,0,0,0,0,0,0,0,0,0,0,0,0,0,0,0,0,0,0,0,0,0,0,0,0,0,0,0,0,0,0,0,0,0,0,0,0,0,0,0,0,0,0,0,0,0,0,0,0,0,0,0,0,0,0,0,0,0,0,0,0,0,0,0,0,0,0,0,0,0,0,0,0,0,0,0,0,0,0,0,0,0,0,0,0,0,0,0,0,0,0,0,0,0,0,0,0,0,0,0,0,0,0,0,0,0,0,0,0,0,0,0,0,0,0,0,0,0,0,0,0,0,0,0,0,0,0,0,0,0,0,0,0,0,0,0,0,0,0,0,0,0,0,0,0,0,0,0,0,0,0,0,0,0,0,0,0,0,0,0,0,0,0,0,0,0,0,0,0,0,0,0,0,0,0,0,0,0,0,0,0,0,0,0,0,0,0,0,0,0,0,0,0,0,0,0,0,0,0,0,0,0,0,0,0,0,0,0,0,0,0,0,0,0,0,0,0,0,0,0,0,0,0,0,0,0,0,0,0,0,0,0,0,0,0,0,0,0,0,0,0,0,0,0,0,0,0,0,0,0,0,0,0,0,0,0,0,0,0,0,0,0,0,0,0,0,0,0,0,0,
0,0,0,0,0,0,0,0,0,0,0,0,0,0,0,0,0,0,0,0,0,0,0,0,0,0,0,0,0,0,0,0,0,0,0,0,0,0,0,0,0,0,0,0,0,0,0,0,0,0,0,0,0,0,0,0,0,0,0,0,0,0,0,0,0,0,0,0,0,0,0,0,0,0,0,0,0,0,0,0,0,0,0,0,0,0,0,0,0,0,0,0,0,0,0,0,0,0,0,0,0,0,0,0,0,0,0,0,0,0,0,0,0,0,0,0,0,0,0,0,0,0,0,0,0,0,0,0,0,0,0,0,0,0,0,0,0,0,0,0,0,0,0,0,0,0,0,0,0,0,0,0,0,0,0,0,0,0,0,0,0,0,0,0,0,0,0,0,0,0,0,0,0,0,0,0,0,0,0,0,0,0,0,0,0,0,0,0,0,0,0,0,0,0,0,0,0,0,0,0,0,0,0,0,0,0,0,0,0,0,0,0,0,0,0,0,0,0,0,0,0,0,0,0,0,0,0,0,0,0,0,0,0,0,0,0,0,0,0,0,0,0,0,0,0,0,0,0,0,0,0,0,0,0,0,0,0,0,0,0,0,0,0,0,0,0,0,0,0,0,0,0,0,0,0,0,0,0,0,0,0,0,0,0,0,0,0,0,0,0,0,0,0,0,0,0,0,0,0,0,0,0,0,0,0,0,0,0,0,0,0,0,0,0,0,0,0,0,0,0,0,0,0,0,0,0,0,0,0,0,0,0,0,0,0,0,0,0,0,0,0,0,0,0,0,0,0,0,0,0,0,0,0,0,0,0,0,0,0,0,0,0,0,0,0,0,0,0,0,0,0,0,0,0,0,0,0,0,0,0,0,0,0,0,0,0,0,0,0,0,0,0,0,0,0,0,0,0,0,0,0,0,0,0,0,0,0,0,0,0,0,0,0,0,0,0,0,0,0,0,0,0,0,0,0,0,0,0,0,0,0,0,0,0,0,0,0,0,0,0,0,0,0,0,0,0,0,0,0,0,0,0,0,0,0,0,0,0,0,0,0,0,0,0,0,0,0,0,0,0,0,0,0,0,0,0,0,0,0,0,0,0,0,0,0,0,0,0,0,0,0,0,0,0,0,0,0,0,0,0,0,0,0,0,0,0,0,0,0,0,0,0,0,0,0,0,0,0,0,0,0,0,0,0,0,0,0,0,0,0,0,0,0,0,0,0,0,0,0,0,0,0,0,0,0,0,0,0,0,0,0,0,0,0,0,0,0,0,0,0,0,0,0,0,0,0,0,0,0,0,0,0,0,0,0,0,0,0,0,0,0,0,0,0,0,0,0,0,0,0,0,0,0,0,0,0,0,0,0,0,0,0,0,0,0,0,0,0,0,0,0,0,0,0,0,0,0,0,0,0,0,0,0,0,0,0,0,0,0,0,0,0,0,0,0,0,0,0,0,0,0,0,0,0,0,0,0,0,0,0,0,0,0,0,0,0,0,0,0,0,0,0,0,0,0,0,0,0,0,0,0,0,0,0,0,0,0,0,0,0,0,0,0,0,0,0,0,0,0,0,0,0,0,0,0,0,0,0,0,0,0,0,0,0,0,0,0,0,0,0,0,0,0,0,0,0,0,0,0,0,0,0,0,0,0,0,0,0,0,0,0,0,0,0,0,0,0,0,0,0,0,0,0,0,0,0,0,0,0,0,0,0,0,0,0,0,0,0,0,0,0,0,0,0,0,0,0,0,0,0,0,0,0,0,0,0,0,0,0,0,0,0,0,0,0,0,0,0,0,0,0,0,0,0,0,0,0,0,0,0,0,0,0,0,0,0,0,0,0,0,0,0,0,0,0,0,0,0,0,0,0,0,0,0,0,0,0,0,0,0,0,0,0,0,0,0,0,0,0,0,0,0,0,0,0,0,0,0,0,0,0,0,0,0,0,0,0,0,0,0,0,0,0,0,0,0,0,0,0,0,0,0,0,0,0,0,0,0,0,0,0,0,0,0,0,0,0,0,0,0,0,0,0,0,0,0,0,0,0,0,0,0,0,0,0,0,0,0,0,0,0,0,0,0,0,0,0,0,0,0,0,0,0,0,0,0,0,0,0,0,0,0,0,0,0,0,0,0,0,0,0,0,0,0,0,0,0,0,0,0,0,0,0,0,0,0,0,0,0,0,0,0,0,0,0,0,0,0,0,0,0,0,0,0,0,0,0,0,0,0,0,0,0,0,0,0,0,0,0,0,0,0,0,0,0,0,0,0,0,0,
0,0,0,0,0,0,0,0,0,0,0,0,0,0,0,0,0,0,0,0,0,0,0,0,0,0,0,0,0,0,0,0,0,0,0,0,0,0,0,0,0,0,0,0,0,0,0,0,0,0,0,0,0,0,0,0,0,0,0,0,0,0,0,0,0,0,0,0,0,0,0,0,0,0,0,0,0,0,0,0,0,0,0,0,0,0,0,0,0,0,0,0,0,0,0,0,0,0,0,0,0,0,0,0,0,0,0,0,0,0,0,0,0,0,0,0,0,0,0,0,0,0,0,0,0,0,0,0,0,0,0,0,0,0,0,0,0,0,0,0,0,0,0,0,0,0,0,0,0,0,0,0,0,0,0,0,0,0,0,0,0,0,0,0,0,0,0,0,0,0,0,0,0,0,0,0,0,0,0,0,0,0,0,0,0,0,0,0,0,0,0,0,0,0,0,0,0,0,0,0,0,0,0,0,0,0,0,0,0,0,0,0,0,0,0,0,0,0,0,0,0,0,0,0,0,0,0,0,0,0,0,0,0,0,0,0,0,0,0,0,0,0,0,0,0,0,0,0,0,0,0,0,0,0,0,0,0,0,0,0,0,0,0,0,0,0,0,0,0,0,0,0,0,0,0,0,0,0,0,0,0,0,0,0,0,0,0,0,0,0,0,0,0,0,0,0,0,0,0,0,0,0,0,0,0,0,0,0,0,0,0,0,0,0,0,0,0,0,0,0,0,0,0,0,0,0,0,0,0,0,0,0,0,0,0,0,0,0,0,0,0,0,0,0,0,0,0,0,0,0,0,0,0,0,0,0,0,0,0,0,0,0,0,0,0,0,0,0,0,0,0,0,0,0,0,0,0,0,0,0,0,0,0,0,0,0,0,0,0,0,0,0,0,0,0,0,0,0,0,0,0,0,0,0,0,0,0,0,0,0,0,0,0,0,0,0,0,0,0,0,0,0,0,0,0,0,0,0,0,0,0,0,0,0,0,0,0,0,0,0,0,0,0,0,0,0,0,0,0,0,0,0,0,0,0,0,0,0,0,0,0,0,0,0,0,0,0,0,0,0,0,0,0,0,0,0,0,0,0,0,0,0,0,0,0,0,0,0,0,0,0,0,0,0,0,0,0,0,0,0,0,0,0,0,0,0,0,0,0,0,0,0,0,0,0,0,0,0,0,0,0,0,0,0,0,0,0,0,0,0,0,0,0,0,0,0,0,0,0,0,0,0,0,0,0,0,0,0,0,0,0,0,0,0,0,0,0,0,0,0,0,0,0,0,0,0,0,0,0,0,0,0,0,0,0,0,0,0,0,0,0,0,0,0,0,0,0,0,0,0,0,0,0,0,0,0,0,0,0,0,0,0,0,0,0,0,0,0,0,0,0,0,0,0,0,0,0,0,0,0,0,0,0,0,0,0,0,0,0,0,0,0,0,0,0,0,0,0,0,0,0,0,0,0,0,0,0,0,0,0,0,0,0,0,0,0,0,0,0,0,0,0,0,0,0,0,0,0,0,0,0,0,0,0,0,0,0,0,0,0,0,0,0,0,0,0,0,0,0,0,0,0,0,0,0,0,0,0,0,0,0,0,0,0,0,0,0,0,0,0,0,0,0,0,0,0,0,0,0,0,0,0,0,0,0,0,0,0,0,0,0,0,0,0,0,0,0,0,0,0,0,0,0,0,0,0,0,0,0,0,0,0,0,0,0,0,0,0,0,0,0,0,0,0,0,0,0,0,0,0,0,0,0,0,0,0,0,0,0,0,0,0,0,0,0,0,0,0,0,0,0,0,0,0,0,0,0,0,0,0,0,0,0,0,0,0,0,0,0,0,0,0,0,0,0,0,0,0,0,0,0,0,0,0,0,0,0,0,0,0,0,0,0,0,0,0,0,0,0,0,0,0,0,0,0,0,0,0,0,0,0,0,0,0,0,0,0,0,0,0,0,0,0,0,0,0,0,0,0,0,0,0,0,0,0,0,0,0,0,0,0,0,0,0,0,0,0,0,0,0,0,0,0,0,0,0,0,0,0,0,0,0,0,0,0,0,0,0,0,0,0,0,0,0,0,0,0,0,0,0,0,0,0,0,0,0,0,0,0,0,0,0,0,0,0,0,0,0,0,0,0,0,0,0,0,0,0,0,0,0,0,0,0,0,0,0,0,0,0,0,0,0,0,0,0,0,0,0,0,0,0,0,0,0,0,0,0,0,0,0,0,0,0,0,0,0,0,0,0,0,0,0,0,0,0,0,0,0,0,0,
0,0,0,0,0,0,0,0,0,0,0,0,0,0,0,0,0,0,0,0,0,0,0,0,0,0,0,0,0,0,0,0,0,0,0,0,0,0,0,0,0,0,0,0,0,0,0,0,0,0,0,0,0,0,0,0,0,0,0,0,0,0,0,0,0,0,0,0,0,0,0,0,0,0,0,0,0,0,0,0,0,0,0,0,0,0,0,0,0,0,0,0,0,0,0,0,0,0,0,0,0,0,0,0,0,0,0,0,0,0,0,0,0,0,0,0,0,0,0,0,0,0,0,0,0,0,0,0,0,0,0,0,0,0,0,0,0,0,0,0,0,0,0,0,0,0,0,0,0,0,0,0,0,0,0,0,0,0,0,0,0,0,0,0,0,0,0,0,0,0,0,0,0,0,0,0,0,0,0,0,0,0,0,0,0,0,0,0,0,0,0,0,0,0,0,0,0,0,0,0,0,0,0,0,0,0,0,0,0,0,0,0,0,0,0,0,0,0,0,0,0,0,0,0,0,0,0,0,0,0,0,0,0,0,0,0,0,0,0,0,0,0,0,0,0,0,0,0,0,0,0,0,0,0,0,0,0,0,0,0,0,0,0,0,0,0,0,0,0,0,0,0,0,0,0,0,0,0,0,0,0,0,0,0,0,0,0,0,0,0,0,0,0,0,0,0,0,0,0,0,0,0,0,0,0,0,0,0,0,0,0,0,0,0,0,0,0,0,0,0,0,0,0,0,0,0,0,0,0,0,0,0,0,0,0,0,0,0,0,0,0,0,0,0,0,0,0,0,0,0,0,0,0,0,0,0,0,0,0,0,0,0,0,0,0,0,0,0,0,0,0,0,0,0,0,0,0,0,0,0,0,0,0,0,0,0,0,0,0,0,0,0,0,0,0,0,0,0,0,0,0,0,0,0,0,0,0,0,0,0,0,0,0,0,0,0,0,0,0,0,0,0,0,0,0,0,0,0,0,0,0,0,0,0,0,0,0,0,0,0,0,0,0,0,0,0,0,0,0,0,0,0,0,0,0,0,0,0,0,0,0,0,0,0,0,0,0,0,0,0,0,0,0,0,0,0,0,0,0,0,0,0,0,0,0,0,0,0,0,0,0,0,0,0,0,0,0,0,0,0,0,0,0,0,0,0,0,0,0,0,0,0,0,0,0,0,0,0,0,0,0,0,0,0,0,0,0,0,0,0,0,0,0,0,0,0,0,0,0,0,0,0,0,0,0,0,0,0,0,0,0,0,0,0,0,0,0,0,0,0,0,0,0,0,0,0,0,0,0,0,0,0,0,0,0,0,0,0,0,0,0,0,0,0,0,0,0,0,0,0,0,0,0,0,0,0,0,0,0,0,0,0,0,0,0,0,0,0,0,0,0,0,0,0,0,0,0,0,0,0,0,0,0,0,0,0,0,0,0,0,0,0,0,0,0,0,0,0,0,0,0,0,0,0,0,0,0,0,0,0,0,0,0,0,0,0,0,0,0,0,0,0,0,0,0,0,0,0,0,0,0,0,0,0,0,0,0,0,0,0,0,0,0,0,0,0,0,0,0,0,0,0,0,0,0,0,0,0,0,0,0,0,0,0,0,0,0,0,0,0,0,0,0,0,0,0,0,0,0,0,0,0,0,0,0,0,0,0,0,0,0,0,0,0,0,0,0,0,0,0,0,0,0,0,0,0,0,0,0,0,0,0,0,0,0,0,0,0,0,0,0,0,0,0,0,0,0,0,0,0,0,0,0,0,0,0,0,0,0,0,0,0,0,0,0,0,0,0,0,0,0,0,0,0,0,0,0,0,0,0,0,0,0,0,0,0,0,0,0,0,0,0,0,0,0,0,0,0,0,0,0,0,0,0,0,0,0,0,0,0,0,0,0,0,0,0,0,0,0,0,0,0,0,0,0,0,0,0,0,0,0,0,0,0,0,0,0,0,0,0,0,0,0,0,0,0,0,0,0,0,0,0,0,0,0,0,0,0,0,0,0,0,0,0,0,0,0,0,0,0,0,0,0,0,0,0,0,0,0,0,0,0,0,0,0,0,0,0,0,0,0,0,0,0,0,0,0,0,0,0,0,0,0,0,0,0,0,0,0,0,0,0,0,0,0,0,0,0,0,0,0,0,0,0,0,0,0,0,0,0,0,0,0,0,0,0,0,0,0,0,0,0,0,0,0,0,0,0,0,0,0,0,0,0,0,0,0,0,0,0,0,0,0,0,0,0,0,0,0,0,0,0,0,0,0,0,0,0,0,0,
0,0,0,0,0,0,0,0,0,0,0,0,0,0,0,0,0,0,0,0,0,0,0,0,0,0,0,0,0,0,0,0,0,0,0,0,0,0,0,0,0,0,0,0,0,0,0,0,0,0,0,0,0,0,0,0,0,0,0,0,0,0,0,0,0,0,0,0,0,0,0,0,0,0,0,0,0,0,0,0,0,0,0,0,0,0,0,0,0,0,0,0,0,0,0,0,0,0,0,0,0,0,0,0,0,0,0,0,0,0,0,0,0,0,0,0,0,0,0,0,0,0,0,0,0,0,0,0,0,0,0,0,0,0,0,0,0,0,0,0,0,0,0,0,0,0,0,0,0,0,0,0,0,0,0,0,0,0,0,0,0,0,0,0,0,0,0,0,0,0,0,0,0,0,0,0,0,0,0,0,0,0,0,0,0,0,0,0,0,0,0,0,0,0,0,0,0,0,0,0,0,0,0,0,0,0,0,0,0,0,0,0,0,0,0,0,0,0,0,0,0,0,0,0,0,0,0,0,0,0,0,0,0,0,0,0,0,0,0,0,0,0,0,0,0,0,0,0,0,0,0,0,0,0,0,0,0,0,0,0,0,0,0,0,0,0,0,0,0,0,0,0,0,0,0,0,0,0,0,0,0,0,0,0,0,0,0,0,0,0,0,0,0,0,0,0,0,0,0,0,0,0,0,0,0,0,0,0,0,0,0,0,0,0,0,0,0,0,0,0,0,0,0,0,0,0,0,0,0,0,0,0,0,0,0,0,0,0,0,0,0,0,0,0,0,0,0,0,0,0,0,0,0,0,0,0,0,0,0,0,0,0,0,0,0,0,0,0,0,0,0,0,0,0,0,0,0,0,0,0,0,0,0,0,0,0,0,0,0,0,0,0,0,0,0,0,0,0,0,0,0,0,0,0,0,0,0,0,0,0,0,0,0,0,0,0,0,0,0,0,0,0,0,0,0,0,0,0,0,0,0,0,0,0,0,0,0,0,0,0,0,0,0,0,0,0,0,0,0,0,0,0,0,0,0,0,0,0,0,0,0,0,0,0,0,0,0,0,0,0,0,0,0,0,0,0,0,0,0,0,0,0,0,0,0,0,0,0,0,0,0,0,0,0,0,0,0,0,0,0,0,0,0,0,0,0,0,0,0,0,0,0,0,0,0,0,0,0,0,0,0,0,0,0,0,0,0,0,0,0,0,0,0,0,0,0,0,0,0,0,0,0,0,0,0,0,0,0,0,0,0,0,0,0,0,0,0,0,0,0,0,0,0,0,0,0,0,0,0,0,0,0,0,0,0,0,0,0,0,0,0,0,0,0,0,0,0,0,0,0,0,0,0,0,0,0,0,0,0,0,0,0,0,0,0,0,0,0,0,0,0,0,0,0,0,0,0,0,0,0,0,0,0,0,0,0,0,0,0,0,0,0,0,0,0,0,0,0,0,0,0,0,0,0,0,0,0,0,0,0,0,0,0,0,0,0,0,0,0,0,0,0,0,0,0,0,0,0,0,0,0,0,0,0,0,0,0,0,0,0,0,0,0,0,0,0,0,0,0,0,0,0,0,0,0,0,0,0,0,0,0,0,0,0,0,0,0,0,0,0,0,0,0,0,0,0,0,0,0,0,0,0,0,0,0,0,0,0,0,0,0,0,0,0,0,0,0,0,0,0,0,0,0,0,0,0,0,0,0,0,0,0,0,0,0,0,0,0,0,0,0,0,0,0,0,0,0,0,0,0,0,0,0,0,0,0,0,0,0,0,0,0,0,0,0,0,0,0,0,0,0,0,0,0,0,0,0,0,0,0,0,0,0,0,0,0,0,0,0,0,0,0,0,0,0,0,0,0,0,0,0,0,0,0,0,0,0,0,0,0,0,0,0,0,0,0,0,0,0,0,0,0,0,0,0,0,0,0,0,0,0,0,0,0,0,0,0,0,0,0,0,0,0,0,0,0,0,0,0,0,0,0,0,0,0,0,0,0,0,0,0,0,0,0,0,0,0,0,0,0,0,0,0,0,0,0,0,0,0,0,0,0,0,0,0,0,0,0,0,0,0,0,0,0,0,0,0,0,0,0,0,0,0,0,0,0,0,0,0,0,0,0,0,0,0,0,0,0,0,0,0,0,0,0,0,0,0,0,0,0,0,0,0,0,0,0,0,0,0,0,0,0,0,0,0,0,0,0,0,0,0,0,0,0,0,0,0,0,0,0,0,0,0,0,0,0,0,0,0,0,0,0,0,0,0,0,0,0,0,0,
0,0,0,0,0,0,0,0,0,0,0,0,0,0,0,0,0,0,0,0,0,0,0,0,0,0,0,0,0,0,0,0,0,0,0,0,0,0,0,0,0,0,0,0,0,0,0,0,0,0,0,0,0,0,0,0,0,0,0,0,0,0,0,0,0,0,0,0,0,0,0,0,0,0,0,0,0,0,0,0,0,0,0,0,0,0,0,0,0,0,0,0,0,0,0,0,0,0,0,0,0,0,0,0,0,0,0,0,0,0,0,0,0,0,0,0,0,0,0,0,0,0,0,0,0,0,0,0,0,0,0,0,0,0,0,0,0,0,0,0,0,0,0,0,0,0,0,0,0,0,0,0,0,0,0,0,0,0,0,0,0,0,0,0,0,0,0,0,0,0,0,0,0,0,0,0,0,0,0,0,0,0,0,0,0,0,0,0,0,0,0,0,0,0,0,0,0,0,0,0,0,0,0,0,0,0,0,0,0,0,0,0,0,0,0,0,0,0,0,0,0,0,0,0,0,0,0,0,0,0,0,0,0,0,0,0,0,0,0,0,0,0,0,0,0,0,0,0,0,0,0,0,0,0,0,0,0,0,0,0,0,0,0,0,0,0,0,0,0,0,0,0,0,0,0,0,0,0,0,0,0,0,0,0,0,0,0,0,0,0,0,0,0,0,0,0,0,0,0,0,0,0,0,0,0,0,0,0,0,0,0,0,0,0,0,0,0,0,0,0,0,0,0,0,0,0,0,0,0,0,0,0,0,0,0,0,0,0,0,0,0,0,0,0,0,0,0,0,0,0,0,0,0,0,0,0,0,0,0,0,0,0,0,0,0,0,0,0,0,0,0,0,0,0,0,0,0,0,0,0,0,0,0,0,0,0,0,0,0,0,0,0,0,0,0,0,0,0,0,0,0,0,0,0,0,0,0,0,0,0,0,0,0,0,0,0,0,0,0,0,0,0,0,0,0,0,0,0,0,0,0,0,0,0,0,0,0,0,0,0,0,0,0,0,0,0,0,0,0,0,0,0,0,0,0,0,0,0,0,0,0,0,0,0,0,0,0,0,0,0,0,0,0,0,0,0,0,0,0,0,0,0,0,0,0,0,0,0,0,0,0,0,0,0,0,0,0,0,0,0,0,0,0,0,0,0,0,0,0,0,0,0,0,0,0,0,0,0,0,0,0,0,0,0,0,0,0,0,0,0,0,0,0,0,0,0,0,0,0,0,0,0,0,0,0,0,0,0,0,0,0,0,0,0,0,0,0,0,0,0,0,0,0,0,0,0,0,0,0,0,0,0,0,0,0,0,0,0,0,0,0,0,0,0,0,0,0,0,0,0,0,0,0,0,0,0,0,0,0,0,0,0,0,0,0,0,0,0,0,0,0,0,0,0,0,0,0,0,0,0,0,0,0,0,0,0,0,0,0,0,0,0,0,0,0,0,0,0,0,0,0,0,0,0,0,0,0,0,0,0,0,0,0,0,0,0,0,0,0,0,0,0,0,0,0,0,0,0,0,0,0,0,0,0,0,0,0,0,0,0,0,0,0,0,0,0,0,0,0,0,0,0,0,0,0,0,0,0,0,0,0,0,0,0,0,0,0,0,0,0,0,0,0,0,0,0,0,0,0,0,0,0,0,0,0,0,0,0,0,0,0,0,0,0,0,0,0,0,0,0,0,0,0,0,0,0,0,0,0,0,0,0,0,0,0,0,0,0,0,0,0,0,0,0,0,0,0,0,0,0,0,0,0,0,0,0,0,0,0,0,0,0,0,0,0,0,0,0,0,0,0,0,0,0,0,0,0,0,0,0,0,0,0,0,0,0,0,0,0,0,0,0,0,0,0,0,0,0,0,0,0,0,0,0,0,0,0,0,0,0,0,0,0,0,0,0,0,0,0,0,0,0,0,0,0,0,0,0,0,0,0,0,0,0,0,0,0,0,0,0,0,0,0,0,0,0,0,0,0,0,0,0,0,0,0,0,0,0,0,0,0,0,0,0,0,0,0,0,0,0,0,0,0,0,0,0,0,0,0,0,0,0,0,0,0,0,0,0,0,0,0,0,0,0,0,0,0,0,0,0,0,0,0,0,0,0,0,0,0,0,0,0,0,0,0,0,0,0,0,0,0,0,0,0,0,0,0,0,0,0,0,0,0,0,0,0,0,0,0,0,0,0,0,0,0,0,0,0,0,0,0,0,0,0,0,0,0,0,0,0,0,0,0,0,0,0,0,0,0,0,0,0,0,0,0,0,0,0,0,0
</data>
 </layer>
 <layer id="6" name="bombo" width="1000" height="50" visible="0">
  <data encoding="csv">
0,0,0,0,0,0,0,0,0,0,0,0,0,0,0,0,0,0,0,0,0,0,0,0,0,0,0,0,0,0,0,0,0,0,0,0,0,0,0,0,0,0,0,0,0,0,0,0,0,0,0,0,0,0,0,0,0,0,0,0,0,0,0,0,0,0,0,0,0,0,0,0,0,0,0,0,0,0,0,0,0,0,0,0,0,0,0,0,0,0,0,0,0,0,0,0,0,0,0,0,0,0,0,0,0,0,0,0,0,0,0,0,0,0,0,0,0,0,0,0,0,0,0,0,0,0,0,0,0,0,0,0,0,0,0,0,0,0,0,0,0,0,0,0,0,0,0,0,0,0,0,0,0,0,0,0,0,0,0,0,0,0,0,0,0,0,0,0,0,0,0,0,0,0,0,0,0,0,0,0,0,0,0,0,0,0,0,0,0,0,0,0,0,0,0,0,0,0,0,0,0,0,0,0,0,0,0,0,0,0,0,0,0,0,0,0,0,0,0,0,0,0,0,0,0,0,0,0,0,0,0,0,0,0,0,0,0,0,0,0,0,0,0,0,0,0,0,0,0,0,0,0,0,0,0,0,0,0,0,0,0,0,0,0,0,0,0,0,0,0,0,0,0,0,0,0,0,0,0,0,0,0,0,0,0,0,0,0,0,0,0,0,0,0,0,0,0,0,0,0,0,0,0,0,0,0,0,0,0,0,0,0,0,0,0,0,0,0,0,0,0,0,0,0,0,0,0,0,0,0,0,0,0,0,0,0,0,0,0,0,0,0,0,0,0,0,0,0,0,0,0,0,0,0,0,0,0,0,0,0,0,0,0,0,0,0,0,0,0,0,0,0,0,0,0,0,0,0,0,0,0,0,0,0,0,0,0,0,0,0,0,0,0,0,0,0,0,0,0,0,0,0,0,0,0,0,0,0,0,0,0,0,0,0,0,0,0,0,0,0,0,0,0,0,0,0,0,0,0,0,0,0,0,0,0,0,0,0,0,0,0,0,0,0,0,0,0,0,0,0,0,0,0,0,0,0,0,0,0,0,0,0,0,0,0,0,0,0,0,0,0,0,0,0,0,0,0,0,0,0,0,0,0,0,0,0,0,0,0,0,0,0,0,0,0,0,0,0,0,0,0,0,0,0,0,0,0,0,0,0,0,0,0,0,0,0,0,0,0,0,0,0,0,0,0,0,0,0,0,0,0,0,0,0,0,0,0,0,0,0,0,0,0,0,0,0,0,0,0,0,0,0,0,0,0,0,0,0,0,0,0,0,0,0,0,0,0,0,0,0,0,0,0,0,0,0,0,0,0,0,0,0,0,0,0,0,0,0,0,0,0,0,0,0,0,0,0,0,0,0,0,0,0,0,0,0,0,0,0,0,0,0,0,0,0,0,0,0,0,0,0,0,0,0,0,0,0,0,0,0,0,0,0,0,0,0,0,0,0,0,0,0,0,0,0,0,0,0,0,0,0,0,0,0,0,0,0,0,0,0,0,0,0,0,0,0,0,0,0,0,0,0,0,0,0,0,0,0,0,0,0,0,0,0,0,0,0,0,0,0,0,0,0,0,0,0,0,0,0,0,0,0,0,0,0,0,0,0,0,0,0,0,0,0,0,0,0,0,0,0,0,0,0,0,0,0,0,0,0,0,0,0,0,0,0,0,0,0,0,0,0,0,0,0,0,0,0,0,0,0,0,0,0,0,0,0,0,0,0,0,0,0,0,0,0,0,0,0,0,0,0,0,0,0,0,0,0,0,0,0,0,0,0,0,0,0,0,0,0,0,0,0,0,0,0,0,0,0,0,0,0,0,0,0,0,0,0,0,0,0,0,0,0,0,0,0,0,0,0,0,0,0,0,0,0,0,0,0,0,0,0,0,0,0,0,0,0,0,0,0,0,0,0,0,0,0,0,0,0,0,0,0,0,0,0,0,0,0,0,0,0,0,0,0,0,0,0,0,0,0,0,0,0,0,0,0,0,0,0,0,0,0,0,0,0,0,0,0,0,0,0,0,0,0,0,0,0,0,0,0,0,0,0,0,0,0,0,0,0,0,0,0,0,0,0,0,0,0,0,0,0,0,0,0,0,0,0,0,0,0,0,0,0,0,0,0,0,0,0,0,0,0,0,0,0,0,0,0,0,0,0,0,0,0,0,0,0,0,0,0,0,0,0,0,0,0,0,0,0,0,0,0,0,0,0,0,0,0,0,0,0,0,0,0,0,0,0,0,0,0,0,0,0,0,0,0,0,0,0,0,
0,0,0,0,0,0,0,0,0,0,0,0,0,0,0,0,0,0,0,0,0,0,0,0,0,0,0,0,0,0,0,0,0,0,0,0,0,0,0,0,0,0,0,0,0,0,0,0,0,0,0,0,0,0,0,0,0,0,0,0,0,0,0,0,0,0,0,0,0,0,0,0,0,0,0,0,0,0,0,0,0,0,0,0,0,0,0,0,0,0,0,0,0,0,0,0,0,0,0,0,0,0,0,0,0,0,0,0,0,0,0,0,0,0,0,0,0,0,0,0,0,0,0,0,0,0,0,0,0,0,0,0,0,0,0,0,0,0,0,0,0,0,0,0,0,0,0,0,0,0,0,0,0,0,0,0,0,0,0,0,0,0,0,0,0,0,0,0,0,0,0,0,0,0,0,0,0,0,0,0,0,0,0,0,0,0,0,0,0,0,0,0,0,0,0,0,0,0,0,0,0,0,0,0,0,0,0,0,0,0,0,0,0,0,0,0,0,0,0,0,0,0,0,0,0,0,0,0,0,0,0,0,0,0,0,0,0,0,0,0,0,0,0,0,0,0,0,0,0,0,0,0,0,0,0,0,0,0,0,0,0,0,0,0,0,0,0,0,0,0,0,0,0,0,0,0,0,0,0,0,0,0,0,0,0,0,0,0,0,0,0,0,0,0,0,0,0,0,0,0,0,0,0,0,0,0,0,0,0,0,0,0,0,0,0,0,0,0,0,0,0,0,0,0,0,0,0,0,0,0,0,0,0,0,0,0,0,0,0,0,0,0,0,0,0,0,0,0,0,0,0,0,0,0,0,0,0,0,0,0,0,0,0,0,0,0,0,0,0,0,0,0,0,0,0,0,0,0,0,0,0,0,0,0,0,0,0,0,0,0,0,0,0,0,0,0,0,0,0,0,0,0,0,0,0,0,0,0,0,0,0,0,0,0,0,0,0,0,0,0,0,0,0,0,0,0,0,0,0,0,0,0,0,0,0,0,0,0,0,0,0,0,0,0,0,0,0,0,0,0,0,0,0,0,0,0,0,0,0,0,0,0,0,0,0,0,0,0,0,0,0,0,0,0,0,0,0,0,0,0,0,0,0,0,0,0,0,0,0,0,0,0,0,0,0,0,0,0,0,0,0,0,0,0,0,0,0,0,0,0,0,0,0,0,0,0,0,0,0,0,0,0,0,0,0,0,0,0,0,0,0,0,0,0,0,0,0,0,0,0,0,0,0,0,0,0,0,0,0,0,0,0,0,0,0,0,0,0,0,0,0,0,0,0,0,0,0,0,0,0,0,0,0,0,0,0,0,0,0,0,0,0,0,0,0,0,0,0,0,0,0,0,0,0,0,0,0,0,0,0,0,0,0,0,0,0,0,0,0,0,0,0,0,0,0,0,0,0,0,0,0,0,0,0,0,0,0,0,0,0,0,0,0,0,0,0,0,0,0,0,0,0,0,0,0,0,0,0,0,0,0,0,0,0,0,0,0,0,0,0,0,0,0,0,0,0,0,0,0,0,0,0,0,0,0,0,0,0,0,0,0,0,0,0,0,0,0,0,0,0,0,0,0,0,0,0,0,0,0,0,0,0,0,0,0,0,0,0,0,0,0,0,0,0,0,0,0,0,0,0,0,0,0,0,0,0,0,0,0,0,0,0,0,0,0,0,0,0,0,0,0,0,0,0,0,0,0,0,0,0,0,0,0,0,0,0,0,0,0,0,0,0,0,0,0,0,0,0,0,0,0,0,0,0,0,0,0,0,0,0,0,0,0,0,0,0,0,0,0,0,0,0,0,0,0,0,0,0,0,0,0,0,0,0,0,0,0,0,0,0,0,0,0,0,0,0,0,0,0,0,0,0,0,0,0,0,0,0,0,0,0,0,0,0,0,0,0,0,0,0,0,0,0,0,0,0,0,0,0,0,0,0,0,0,0,0,0,0,0,0,0,0,0,0,0,0,0,0,0,0,0,0,0,0,0,0,0,0,0,0,0,0,0,0,0,0,0,0,0,0,0,0,0,0,0,0,0,0,0,0,0,0,0,0,0,0,0,0,0,0,0,0,0,0,0,0,0,0,0,0,0,0,0,0,0,0,0,0,0,0,0,0,0,0,0,0,0,0,0,0,0,0,0,0,0,0,0,0,0,0,0,0,0,0,0,0,0,0,0,0,0,0,0,0,0,0,0,0,0,0,0,0,0,0,0,0,0,0,0,0,0,0,0,0,0,0,0,0,0,0,0,0,0,0,0,0,0,0,0,0,
0,0,0,0,0,0,0,0,0,0,0,0,0,0,0,0,0,0,0,0,0,0,0,0,0,0,0,0,0,0,0,0,0,0,0,0,0,0,0,0,0,0,0,0,0,0,0,0,0,0,0,0,0,0,0,0,0,0,0,0,0,0,0,0,0,0,0,0,0,0,0,0,0,0,0,0,0,0,0,0,0,0,0,0,0,0,0,0,0,0,0,0,0,0,0,0,0,0,0,0,0,0,0,0,0,0,0,0,0,0,0,0,0,0,0,0,0,0,0,0,0,0,0,0,0,0,0,0,0,0,0,0,0,0,0,0,0,0,0,0,0,0,0,0,0,0,0,0,0,0,0,0,0,0,0,0,0,0,0,0,0,0,0,0,0,0,0,0,0,0,0,0,0,0,0,0,0,0,0,0,0,0,0,0,0,0,0,0,0,0,0,0,0,0,0,0,0,0,0,0,0,0,0,0,0,0,0,0,0,0,0,0,0,0,0,0,0,0,0,0,0,0,0,0,0,0,0,0,0,0,0,0,0,0,0,0,0,0,0,0,0,0,0,0,0,0,0,0,0,0,0,0,0,0,0,0,0,0,0,0,0,0,0,0,0,0,0,0,0,0,0,0,0,0,0,0,0,0,0,0,0,0,0,0,0,0,0,0,0,0,0,0,0,0,0,0,0,0,0,0,0,0,0,0,0,0,0,0,0,0,0,0,0,0,0,0,0,0,0,0,0,0,0,0,0,0,0,0,0,0,0,0,0,0,0,0,0,0,0,0,0,0,0,0,0,0,0,0,0,0,0,0,0,0,0,0,0,0,0,0,0,0,0,0,0,0,0,0,0,0,0,0,0,0,0,0,0,0,0,0,0,0,0,0,0,0,0,0,0,0,0,0,0,0,0,0,0,0,0,0,0,0,0,0,0,0,0,0,0,0,0,0,0,0,0,0,0,0,0,0,0,0,0,0,0,0,0,0,0,0,0,0,0,0,0,0,0,0,0,0,0,0,0,0,0,0,0,0,0,0,0,0,0,0,0,0,0,0,0,0,0,0,0,0,0,0,0,0,0,0,0,0,0,0,0,0,0,0,0,0,0,0,0,0,0,0,0,0,0,0,0,0,0,0,0,0,0,0,0,0,0,0,0,0,0,0,0,0,0,0,0,0,0,0,0,0,0,0,0,0,0,0,0,0,0,0,0,0,0,0,0,0,0,0,0,0,0,0,0,0,0,0,0,0,0,0,0,0,0,0,0,0,0,0,0,0,0,0,0,0,0,0,0,0,0,0,0,0,0,0,0,0,0,0,0,0,0,0,0,0,0,0,0,0,0,0,0,0,0,0,0,0,0,0,0,0,0,0,0,0,0,0,0,0,0,0,0,0,0,0,0,0,0,0,0,0,0,0,0,0,0,0,0,0,0,0,0,0,0,0,0,0,0,0,0,0,0,0,0,0,0,0,0,0,0,0,0,0,0,0,0,0,0,0,0,0,0,0,0,0,0,0,0,0,0,0,0,0,0,0,0,0,0,0,0,0,0,0,0,0,0,0,0,0,0,0,0,0,0,0,0,0,0,0,0,0,0,0,0,0,0,0,0,0,0,0,0,0,0,0,0,0,0,0,0,0,0,0,0,0,0,0,0,0,0,0,0,0,0,0,0,0,0,0,0,0,0,0,0,0,0,0,0,0,0,0,0,0,0,0,0,0,0,0,0,0,0,0,0,0,0,0,0,0,0,0,0,0,0,0,0,0,0,0,0,0,0,0,0,0,0,0,0,0,0,0,0,0,0,0,0,0,0,0,0,0,0,0,0,0,0,0,0,0,0,0,0,0,0,0,0,0,0,0,0,0,0,0,0,0,0,0,0,0,0,0,0,0,0,0,0,0,0,0,0,0,0,0,0,0,0,0,0,0,0,0,0,0,0,0,0,0,0,0,0,0,0,0,0,0,0,0,0,0,0,0,0,0,0,0,0,0,0,0,0,0,0,0,0,0,0,0,0,0,0,0,0,0,0,0,0,0,0,0,0,0,0,0,0,0,0,0,0,0,0,0,0,0,0,0,0,0,0,0,0,0,0,0,0,0,0,0,0,0,0,0,0,0,0,0,0,0,0,0,0,0,0,0,0,0,0,0,0,0,0,0,0,0,0,0,0,0,0,0,0,0,0,0,0,0,0,0,0,0,0,0,0,0,0,0,0,0,0,0,0,0,0,0,0,0,0,0,0,0,0,0,0,0,0,0,0,0,0,0,0,0,0,0,0,0,
0,0,0,0,0,0,0,0,0,0,0,0,0,0,0,0,0,0,0,0,0,0,0,0,0,0,0,0,0,0,0,0,0,0,0,0,0,0,0,0,0,0,0,0,0,0,0,0,0,0,0,0,0,0,0,0,0,0,0,0,0,0,0,0,0,0,0,0,0,0,0,0,0,0,0,0,0,0,0,0,0,0,0,0,0,0,0,0,0,0,0,0,0,0,0,0,0,0,0,0,0,0,0,0,0,0,0,0,0,0,0,0,0,0,0,0,0,0,0,0,0,0,0,0,0,0,0,0,0,0,0,0,0,0,0,0,0,0,0,0,0,0,0,0,0,0,0,0,0,0,0,0,0,0,0,0,0,0,0,0,0,0,0,0,0,0,0,0,0,0,0,0,0,0,0,0,0,0,0,0,0,0,0,0,0,0,0,0,0,0,0,0,0,0,0,0,0,0,0,0,0,0,0,0,0,0,0,0,0,0,0,0,0,0,0,0,0,0,0,0,0,0,0,0,0,0,0,0,0,0,0,0,0,0,0,0,0,0,0,0,0,0,0,0,0,0,0,0,0,0,0,0,0,0,0,0,0,0,0,0,0,0,0,0,0,0,0,0,0,0,0,0,0,0,0,0,0,0,0,0,0,0,0,0,0,0,0,0,0,0,0,0,0,0,0,0,0,0,0,0,0,0,0,0,0,0,0,0,0,0,0,0,0,0,0,0,0,0,0,0,0,0,0,0,0,0,0,0,0,0,0,0,0,0,0,0,0,0,0,0,0,0,0,0,0,0,0,0,0,0,0,0,0,0,0,0,0,0,0,0,0,0,0,0,0,0,0,0,0,0,0,0,0,0,0,0,0,0,0,0,0,0,0,0,0,0,0,0,0,0,0,0,0,0,0,0,0,0,0,0,0,0,0,0,0,0,0,0,0,0,0,0,0,0,0,0,0,0,0,0,0,0,0,0,0,0,0,0,0,0,0,0,0,0,0,0,0,0,0,0,0,0,0,0,0,0,0,0,0,0,0,0,0,0,0,0,0,0,0,0,0,0,0,0,0,0,0,0,0,0,0,0,0,0,0,0,0,0,0,0,0,0,0,0,0,0,0,0,0,0,0,0,0,0,0,0,0,0,0,0,0,0,0,0,0,0,0,0,0,0,0,0,0,0,0,0,0,0,0,0,0,0,0,0,0,0,0,0,0,0,0,0,0,0,0,0,0,0,0,0,0,0,0,0,0,0,0,0,0,0,0,0,0,0,0,0,0,0,0,0,0,0,0,0,0,0,0,0,0,0,0,0,0,0,0,0,0,0,0,0,0,0,0,0,0,0,0,0,0,0,0,0,0,0,0,0,0,0,0,0,0,0,0,0,0,0,0,0,0,0,0,0,0,0,0,0,0,0,0,0,0,0,0,0,0,0,0,0,0,0,0,0,0,0,0,0,0,0,0,0,0,0,0,0,0,0,0,0,0,0,0,0,0,0,0,0,0,0,0,0,0,0,0,0,0,0,0,0,0,0,0,0,0,0,0,0,0,0,0,0,0,0,0,0,0,0,0,0,0,0,0,0,0,0,0,0,0,0,0,0,0,0,0,0,0,0,0,0,0,0,0,0,0,0,0,0,0,0,0,0,0,0,0,0,0,0,0,0,0,0,0,0,0,0,0,0,0,0,0,0,0,0,0,0,0,0,0,0,0,0,0,0,0,0,0,0,0,0,0,0,0,0,0,0,0,0,0,0,0,0,0,0,0,0,0,0,0,0,0,0,0,0,0,0,0,0,0,0,0,0,0,0,0,0,0,0,0,0,0,0,0,0,0,0,0,0,0,0,0,0,0,0,0,0,0,0,0,0,0,0,0,0,0,0,0,0,0,0,0,0,0,0,0,0,0,0,0,0,0,0,0,0,0,0,0,0,0,0,0,0,0,0,0,0,0,0,0,0,0,0,0,0,0,0,0,0,0,0,0,0,0,0,0,0,0,0,0,0,0,0,0,0,0,0,0,0,0,0,0,0,0,0,0,0,0,0,0,0,0,0,0,0,0,0,0,0,0,0,0,0,0,0,0,0,0,0,0,0,0,0,0,0,0,0,0,0,0,0,0,0,0,0,0,0,0,0,0,0,0,0,0,0,0,0,0,0,0,0,0,0,0,0,0,0,0,0,0,0,0,0,0,0,0,0,0,0,0,0,0,0,0,0,0,0,0,0,0,0,0,0,0,0,0,0,0,0,0,0,0,0,0,0,0,0,0,0,0,0,0,0,
0,0,0,0,0,0,0,0,0,0,0,0,0,0,0,0,0,0,0,0,0,0,0,0,0,0,0,0,0,0,0,0,0,0,0,0,0,0,0,0,0,0,0,0,0,0,0,0,0,0,0,0,0,0,0,0,0,0,0,0,0,0,0,0,0,0,0,0,0,0,0,0,0,0,0,0,0,0,0,0,0,0,0,0,0,0,0,0,0,0,0,0,0,0,0,0,0,0,0,0,0,0,0,0,0,0,0,0,0,0,0,0,0,0,0,0,0,0,0,0,0,0,0,0,0,0,0,0,0,0,0,0,0,0,0,0,0,0,0,0,0,0,0,0,0,0,0,0,0,0,0,0,0,0,0,0,0,0,0,0,0,0,0,0,0,0,0,0,0,0,0,0,0,0,0,0,0,0,0,0,0,0,0,0,0,0,0,0,0,0,0,0,0,0,0,0,0,0,0,0,0,0,0,0,0,0,0,0,0,0,0,0,0,0,0,0,0,0,0,0,0,0,0,0,0,0,0,0,0,0,0,0,0,0,0,0,0,0,0,0,0,0,0,0,0,0,0,0,0,0,0,0,0,0,0,0,0,0,0,0,0,0,0,0,0,0,0,0,0,0,0,0,0,0,0,0,0,0,0,0,0,0,0,0,0,0,0,0,0,0,0,0,0,0,0,0,0,0,0,0,0,0,0,0,0,0,0,0,0,0,0,0,0,0,0,0,0,0,0,0,0,0,0,0,0,0,0,0,0,0,0,0,0,0,0,0,0,0,0,0,0,0,0,0,0,0,0,0,0,0,0,0,0,0,0,0,0,0,0,0,0,0,0,0,0,0,0,0,0,0,0,0,0,0,0,0,0,0,0,0,0,0,0,0,0,0,0,0,0,0,0,0,0,0,0,0,0,0,0,0,0,0,0,0,0,0,0,0,0,0,0,0,0,0,0,0,0,0,0,0,0,0,0,0,0,0,0,0,0,0,0,0,0,0,0,0,0,0,0,0,0,0,0,0,0,0,0,0,0,0,0,0,0,0,0,0,0,0,0,0,0,0,0,0,0,0,0,0,0,0,0,0,0,0,0,0,0,0,0,0,0,0,0,0,0,0,0,0,0,0,0,0,0,0,0,0,0,0,0,0,0,0,0,0,0,0,0,0,0,0,0,0,0,0,0,0,0,0,0,0,0,0,0,0,0,0,0,0,0,0,0,0,0,0,0,0,0,0,0,0,0,0,0,0,0,0,0,0,0,0,0,0,0,0,0,0,0,0,0,0,0,0,0,0,0,0,0,0,0,0,0,0,0,0,0,0,0,0,0,0,0,0,0,0,0,0,0,0,0,0,0,0,0,0,0,0,0,0,0,0,0,0,0,0,0,0,0,0,0,0,0,0,0,0,0,0,0,0,0,0,0,0,0,0,0,0,0,0,0,0,0,0,0,0,0,0,0,0,0,0,0,0,0,0,0,0,0,0,0,0,0,0,0,0,0,0,0,0,0,0,0,0,0,0,0,0,0,0,0,0,0,0,0,0,0,0,0,0,0,0,0,0,0,0,0,0,0,0,0,0,0,0,0,0,0,0,0,0,0,0,0,0,0,0,0,0,0,0,0,0,0,0,0,0,0,0,0,0,0,0,0,0,0,0,0,0,0,0,0,0,0,0,0,0,0,0,0,0,0,0,0,0,0,0,0,0,0,0,0,0,0,0,0,0,0,0,0,0,0,0,0,0,0,0,0,0,0,0,0,0,0,0,0,0,0,0,0,0,0,0,0,0,0,0,0,0,0,0,0,0,0,0,0,0,0,0,0,0,0,0,0,0,0,0,0,0,0,0,0,0,0,0,0,0,0,0,0,0,0,0,0,0,0,0,0,0,0,0,0,0,0,0,0,0,0,0,0,0,0,0,0,0,0,0,0,0,0,0,0,0,0,0,0,0,0,0,0,0,0,0,0,0,0,0,0,0,0,0,0,0,0,0,0,0,0,0,0,0,0,0,0,0,0,0,0,0,0,0,0,0,0,0,0,0,0,0,0,0,0,0,0,0,0,0,0,0,0,0,0,0,0,0,0,0,0,0,0,0,0,0,0,0,0,0,0,0,0,0,0,0,0,0,0,0,0,0,0,0,0,0,0,0,0,0,0,0,0,0,0,0,0,0,0,0,0,0,0,0,0,0,0,0,0,0,0,0,0,0,0,0,0,0,0,0,0,0,0,0,0,0,0,0,0,0,0,0,0,0,0,0,0,0,0,0,0,0,0,0,0,0,
0,0,0,0,0,0,0,0,0,0,0,0,0,0,0,0,0,0,0,0,0,0,0,0,0,0,0,0,0,0,0,0,0,0,0,0,0,0,0,0,0,0,0,0,0,0,0,0,0,0,0,0,0,0,0,0,0,0,0,0,0,0,0,0,0,0,0,0,0,0,0,0,0,0,0,0,0,0,0,0,0,0,0,0,0,0,0,0,0,0,0,0,0,0,0,0,0,0,0,0,0,0,0,0,0,0,0,0,0,0,0,0,0,0,0,0,0,0,0,0,0,0,0,0,0,0,0,0,0,0,0,0,0,0,0,0,0,0,0,0,0,0,0,0,0,0,0,0,0,0,0,0,0,0,0,0,0,0,0,0,0,0,0,0,0,0,0,0,0,0,0,0,0,0,0,0,0,0,0,0,0,0,0,0,0,0,0,0,0,0,0,0,0,0,0,0,0,0,0,0,0,0,0,0,0,0,0,0,0,0,0,0,0,0,0,0,0,0,0,0,0,0,0,0,0,0,0,0,0,0,0,0,0,0,0,0,0,0,0,0,0,0,0,0,0,0,0,0,0,0,0,0,0,0,0,0,0,0,0,0,0,0,0,0,0,0,0,0,0,0,0,0,0,0,0,0,0,0,0,0,0,0,0,0,0,0,0,0,0,0,0,0,0,0,0,0,0,0,0,0,0,0,0,0,0,0,0,0,0,0,0,0,0,0,0,0,0,0,0,0,0,0,0,0,0,0,0,0,0,0,0,0,0,0,0,0,0,0,0,0,0,0,0,0,0,0,0,0,0,0,0,0,0,0,0,0,0,0,0,0,0,0,0,0,0,0,0,0,0,0,0,0,0,0,0,0,0,0,0,0,0,0,0,0,0,0,0,0,0,0,0,0,0,0,0,0,0,0,0,0,0,0,0,0,0,0,0,0,0,0,0,0,0,0,0,0,0,0,0,0,0,0,0,0,0,0,0,0,0,0,0,0,0,0,0,0,0,0,0,0,0,0,0,0,0,0,0,0,0,0,0,0,0,0,0,0,0,0,0,0,0,0,0,0,0,0,0,0,0,0,0,0,0,0,0,0,0,0,0,0,0,0,0,0,0,0,0,0,0,0,0,0,0,0,0,0,0,0,0,0,0,0,0,0,0,0,0,0,0,0,0,0,0,0,0,0,0,0,0,0,0,0,0,0,0,0,0,0,0,0,0,0,0,0,0,0,0,0,0,0,0,0,0,0,0,0,0,0,0,0,0,0,0,0,0,0,0,0,0,0,0,0,0,0,0,0,0,0,0,0,0,0,0,0,0,0,0,0,0,0,0,0,0,0,0,0,0,0,0,0,0,0,0,0,0,0,0,0,0,0,0,0,0,0,0,0,0,0,0,0,0,0,0,0,0,0,0,0,0,0,0,0,0,0,0,0,0,0,0,0,0,0,0,0,0,0,0,0,0,0,0,0,0,0,0,0,0,0,0,0,0,0,0,0,0,0,0,0,0,0,0,0,0,0,0,0,0,0,0,0,0,0,0,0,0,0,0,0,0,0,0,0,0,0,0,0,0,0,0,0,0,0,0,0,0,0,0,0,0,0,0,0,0,0,0,0,0,0,0,0,0,0,0,0,0,0,0,0,0,0,0,0,0,0,0,0,0,0,0,0,0,0,0,0,0,0,0,0,0,0,0,0,0,0,0,0,0,0,0,0,0,0,0,0,0,0,0,0,0,0,0,0,0,0,0,0,0,0,0,0,0,0,0,0,0,0,0,0,0,0,0,0,0,0,0,0,0,0,0,0,0,0,0,0,0,0,0,0,0,0,0,0,0,0,0,0,0,0,0,0,0,0,0,0,0,0,0,0,0,0,0,0,0,0,0,0,0,0,0,0,0,0,0,0,0,0,0,0,0,0,0,0,0,0,0,0,0,0,0,0,0,0,0,0,0,0,0,0,0,0,0,0,0,0,0,0,0,0,0,0,0,0,0,0,0,0,0,0,0,0,0,0,0,0,0,0,0,0,0,0,0,0,0,0,0,0,0,0,0,0,0,0,0,0,0,0,0,0,0,0,0,0,0,0,0,0,0,0,0,0,0,0,0,0,0,0,0,0,0,0,0,0,0,0,0,0,0,0,0,0,0,0,0,0,0,0,0,0,0,0,0,0,0,0,0,0,0,0,0,0,0,0,0,0,0,0,0,0,0,0,0,0,0,0,0,0,0,0,0,0,0,0,0,0,0,0,0,0,0,0,0,0,0,0,0,0,0,0,0,0,
0,0,0,0,0,0,0,0,0,0,0,0,0,0,0,0,0,0,0,0,0,0,0,0,0,0,0,0,0,0,0,0,0,0,0,0,0,0,0,0,0,0,0,0,0,0,0,0,0,0,0,0,0,0,0,0,0,0,0,0,0,0,0,0,0,0,0,0,0,0,0,0,0,0,0,0,0,0,0,0,0,0,0,0,0,0,0,0,0,0,0,0,0,0,0,0,0,0,0,0,0,0,0,0,0,0,0,0,0,0,0,0,0,0,0,0,0,0,0,0,0,0,0,0,0,0,0,0,0,0,0,0,0,0,0,0,0,0,0,0,0,0,0,0,0,0,0,0,0,0,0,0,0,0,0,0,0,0,0,0,0,0,0,0,0,0,0,0,0,0,0,0,0,0,0,0,0,0,0,0,0,0,0,0,0,0,0,0,0,0,0,0,0,0,0,0,0,0,0,0,0,0,0,0,0,0,0,0,0,0,0,0,0,0,0,0,0,0,0,0,0,0,0,0,0,0,0,0,0,0,0,0,0,0,0,0,0,0,0,0,0,0,0,0,0,0,0,0,0,0,0,0,0,0,0,0,0,0,0,0,0,0,0,0,0,0,0,0,0,0,0,0,0,0,0,0,0,0,0,0,0,0,0,0,0,0,0,0,0,0,0,0,0,0,0,0,0,0,0,0,0,0,0,0,0,0,0,0,0,0,0,0,0,0,0,0,0,0,0,0,0,0,0,0,0,0,0,0,0,0,0,0,0,0,0,0,0,0,0,0,0,0,0,0,0,0,0,0,0,0,0,0,0,0,0,0,0,0,0,0,0,0,0,0,0,0,0,0,0,0,0,0,0,0,0,0,0,0,0,0,0,0,0,0,0,0,0,0,0,0,0,0,0,0,0,0,0,0,0,0,0,0,0,0,0,0,0,0,0,0,0,0,0,0,0,0,0,0,0,0,0,0,0,0,0,0,0,0,0,0,0,0,0,0,0,0,0,0,0,0,0,0,0,0,0,0,0,0,0,0,0,0,0,0,0,0,0,0,0,0,0,0,0,0,0,0,0,0,0,0,0,0,0,0,0,0,0,0,0,0,0,0,0,0,0,0,0,0,0,0,0,0,0,0,0,0,0,0,0,0,0,0,0,0,0,0,0,0,0,0,0,0,0,0,0,0,0,0,0,0,0,0,0,0,0,0,0,0,0,0,0,0,0,0,0,0,0,0,0,0,0,0,0,0,0,0,0,0,0,0,0,0,0,0,0,0,0,0,0,0,0,0,0,0,0,0,0,0,0,0,0,0,0,0,0,0,0,0,0,0,0,0,0,0,0,0,0,0,0,0,0,0,0,0,0,0,0,0,0,0,0,0,0,0,0,0,0,0,0,0,0,0,0,0,0,0,0,0,0,0,0,0,0,0,0,0,0,0,0,0,0,0,0,0,0,0,0,0,0,0,0,0,0,0,0,0,0,0,0,0,0,0,0,0,0,0,0,0,0,0,0,0,0,0,0,0,0,0,0,0,0,0,0,0,0,0,0,0,0,0,0,0,0,0,0,0,0,0,0,0,0,0,0,0,0,0,0,0,0,0,0,0,0,0,0,0,0,0,0,0,0,0,0,0,0,0,0,0,0,0,0,0,0,0,0,0,0,0,0,0,0,0,0,0,0,0,0,0,0,0,0,0,0,0,0,0,0,0,0,0,0,0,0,0,0,0,0,0,0,0,0,0,0,0,0,0,0,0,0,0,0,0,0,0,0,0,0,0,0,0,0,0,0,0,0,0,0,0,0,0,0,0,0,0,0,0,0,0,0,0,0,0,0,0,0,0,0,0,0,0,0,0,0,0,0,0,0,0,0,0,0,0,0,0,0,0,0,0,0,0,0,0,0,0,0,0,0,0,0,0,0,0,0,0,0,0,0,0,0,0,0,0,0,0,0,0,0,0,0,0,0,0,0,0,0,0,0,0,0,0,0,0,0,0,0,0,0,0,0,0,0,0,0,0,0,0,0,0,0,0,0,0,0,0,0,0,0,0,0,0,0,0,0,0,0,0,0,0,0,0,0,0,0,0,0,0,0,0,0,0,0,0,0,0,0,0,0,0,0,0,0,0,0,0,0,0,0,0,0,0,0,0,0,0,0,0,0,0,0,0,0,0,0,0,0,0,0,0,0,0,0,0,0,0,0,0,0,0,0,0,0,0,0,0,0,0,0,0,0,0,0,0,0,0,0,0,0,0,0,0,0,0,0,0,0,0,0,0,0,0,
0,0,0,0,0,0,0,0,0,0,0,0,0,0,0,0,0,0,0,0,0,0,0,0,0,0,0,0,0,0,0,0,0,0,0,0,0,0,0,0,0,0,0,0,0,0,0,0,0,0,0,0,0,0,0,0,0,0,0,0,0,0,0,0,0,0,0,0,0,0,0,0,0,0,0,0,0,0,0,0,0,0,0,0,0,0,0,0,0,0,0,0,0,0,0,0,0,0,0,0,0,0,0,0,0,0,0,0,0,0,0,0,0,0,0,0,0,0,0,0,0,0,0,0,0,0,0,0,0,0,0,0,0,0,0,0,0,0,0,0,0,0,0,0,0,0,0,0,0,0,0,0,0,0,0,0,0,0,0,0,0,0,0,0,0,0,0,0,0,0,0,0,0,0,0,0,0,0,0,0,0,0,0,0,0,0,0,0,0,0,0,0,0,0,0,0,0,0,0,0,0,0,0,0,0,0,0,0,0,0,0,0,0,0,0,0,0,0,0,0,0,0,0,0,0,0,0,0,0,0,0,0,0,0,0,0,0,0,0,0,0,0,0,0,0,0,0,0,0,0,0,0,0,0,0,0,0,0,0,0,0,0,0,0,0,0,0,0,0,0,0,0,0,0,0,0,0,0,0,0,0,0,0,0,0,0,0,0,0,0,0,0,0,0,0,0,0,0,0,0,0,0,0,0,0,0,0,0,0,0,0,0,0,0,0,0,0,0,0,0,0,0,0,0,0,0,0,0,0,0,0,0,0,0,0,0,0,0,0,0,0,0,0,0,0,0,0,0,0,0,0,0,0,0,0,0,0,0,0,0,0,0,0,0,0,0,0,0,0,0,0,0,0,0,0,0,0,0,0,0,0,0,0,0,0,0,0,0,0,0,0,0,0,0,0,0,0,0,0,0,0,0,0,0,0,0,0,0,0,0,0,0,0,0,0,0,0,0,0,0,0,0,0,0,0,0,0,0,0,0,0,0,0,0,0,0,0,0,0,0,0,0,0,0,0,0,0,0,0,0,0,0,0,0,0,0,0,0,0,0,0,0,0,0,0,0,0,0,0,0,0,0,0,0,0,0,0,0,0,0,0,0,0,0,0,0,0,0,0,0,0,0,0,0,0,0,0,0,0,0,0,0,0,0,0,0,0,0,0,0,0,0,0,0,0,0,0,0,0,0,0,0,0,0,0,0,0,0,0,0,0,0,0,0,0,0,0,0,0,0,0,0,0,0,0,0,0,0,0,0,0,0,0,0,0,0,0,0,0,0,0,0,0,0,0,0,0,0,0,0,0,0,0,0,0,0,0,0,0,0,0,0,0,0,0,0,0,0,0,0,0,0,0,0,0,0,0,0,0,0,0,0,0,0,0,0,0,0,0,0,0,0,0,0,0,0,0,0,0,0,0,0,0,0,0,0,0,0,0,0,0,0,0,0,0,0,0,0,0,0,0,0,0,0,0,0,0,0,0,0,0,0,0,0,0,0,0,0,0,0,0,0,0,0,0,0,0,0,0,0,0,0,0,0,0,0,0,0,0,0,0,0,0,0,0,0,0,0,0,0,0,0,0,0,0,0,0,0,0,0,0,0,0,0,0,0,0,0,0,0,0,0,0,0,0,0,0,0,0,0,0,0,0,0,0,0,0,0,0,0,0,0,0,0,0,0,0,0,0,0,0,0,0,0,0,0,0,0,0,0,0,0,0,0,0,0,0,0,0,0,0,0,0,0,0,0,0,0,0,0,0,0,0,0,0,0,0,0,0,0,0,0,0,0,0,0,0,0,0,0,0,0,0,0,0,0,0,0,0,0,0,0,0,0,0,0,0,0,0,0,0,0,0,0,0,0,0,0,0,0,0,0,0,0,0,0,0,0,0,0,0,0,0,0,0,0,0,0,0,0,0,0,0,0,0,0,0,0,0,0,0,0,0,0,0,0,0,0,0,0,0,0,0,0,0,0,0,0,0,0,0,0,0,0,0,0,0,0,0,0,0,0,0,0,0,0,0,0,0,0,0,0,0,0,0,0,0,0,0,0,0,0,0,0,0,0,0,0,0,0,0,0,0,0,0,0,0,0,0,0,0,0,0,0,0,0,0,0,0,0,0,0,0,0,0,0,0,0,0,0,0,0,0,0,0,0,0,0,0,0,0,0,0,0,0,0,0,0,0,0,0,0,0,0,0,0,0,0,0,0,0,0,0,0,0,0,0,0,0,0,0,0,0,0,0,0,0,0,0,0,0,0,0,0,0,0,0,0,0,0,
0,0,0,0,0,0,0,0,0,0,0,0,0,0,0,0,0,0,0,0,0,0,0,0,0,0,0,0,0,0,0,0,0,0,0,0,0,0,0,0,0,0,0,0,0,0,0,0,0,0,0,0,0,0,0,0,0,0,0,0,0,0,0,0,0,0,0,0,0,0,0,0,0,0,0,0,0,0,0,0,0,0,0,0,0,0,0,0,0,0,0,0,0,0,0,0,0,0,0,0,0,0,0,0,0,0,0,0,0,0,0,0,0,0,0,0,0,0,0,0,0,0,0,0,0,0,0,0,0,0,0,0,0,0,0,0,0,0,0,0,0,0,0,0,0,0,0,0,0,0,0,0,0,0,0,0,0,0,0,0,0,0,0,0,0,0,0,0,0,0,0,0,0,0,0,0,0,0,0,0,0,0,0,0,0,0,0,0,0,0,0,0,0,0,0,0,0,0,0,0,0,0,0,0,0,0,0,0,0,0,0,0,0,0,0,0,0,0,0,0,0,0,0,0,0,0,0,0,0,0,0,0,0,0,0,0,0,0,0,0,0,0,0,0,0,0,0,0,0,0,0,0,0,0,0,0,0,0,0,0,0,0,0,0,0,0,0,0,0,0,0,0,0,0,0,0,0,0,0,0,0,0,0,0,0,0,0,0,0,0,0,0,0,0,0,0,0,0,0,0,0,0,0,0,0,0,0,0,0,0,0,0,0,0,0,0,0,0,0,0,0,0,0,0,0,0,0,0,0,0,0,0,0,0,0,0,0,0,0,0,0,0,0,0,0,0,0,0,0,0,0,0,0,0,0,0,0,0,0,0,0,0,0,0,0,0,0,0,0,0,0,0,0,0,0,0,0,0,0,0,0,0,0,0,0,0,0,0,0,0,0,0,0,0,0,0,0,0,0,0,0,0,0,0,0,0,0,0,0,0,0,0,0,0,0,0,0,0,0,0,0,0,0,0,0,0,0,0,0,0,0,0,0,0,0,0,0,0,0,0,0,0,0,0,0,0,0,0,0,0,0,0,0,0,0,0,0,0,0,0,0,0,0,0,0,0,0,0,0,0,0,0,0,0,0,0,0,0,0,0,0,0,0,0,0,0,0,0,0,0,0,0,0,0,0,0,0,0,0,0,0,0,0,0,0,0,0,0,0,0,0,0,0,0,0,0,0,0,0,0,0,0,0,0,0,0,0,0,0,0,0,0,0,0,0,0,0,0,0,0,0,0,0,0,0,0,0,0,0,0,0,0,0,0,0,0,0,0,0,0,0,0,0,0,0,0,0,0,0,0,0,0,0,0,0,0,0,0,0,0,0,0,0,0,0,0,0,0,0,0,0,0,0,0,0,0,0,0,0,0,0,0,0,0,0,0,0,0,0,0,0,0,0,0,0,0,0,0,0,0,0,0,0,0,0,0,0,0,0,0,0,0,0,0,0,0,0,0,0,0,0,0,0,0,0,0,0,0,0,0,0,0,0,0,0,0,0,0,0,0,0,0,0,0,0,0,0,0,0,0,0,0,0,0,0,0,0,0,0,0,0,0,0,0,0,0,0,0,0,0,0,0,0,0,0,0,0,0,0,0,0,0,0,0,0,0,0,0,0,0,0,0,0,0,0,0,0,0,0,0,0,0,0,0,0,0,0,0,0,0,0,0,0,0,0,0,0,0,0,0,0,0,0,0,0,0,0,0,0,0,0,0,0,0,0,0,0,0,0,0,0,0,0,0,0,0,0,0,0,0,0,0,0,0,0,0,0,0,0,0,0,0,0,0,0,0,0,0,0,0,0,0,0,0,0,0,0,0,0,0,0,0,0,0,0,0,0,0,0,0,0,0,0,0,0,0,0,0,0,0,0,0,0,0,0,0,0,0,0,0,0,0,0,0,0,0,0,0,0,0,0,0,0,0,0,0,0,0,0,0,0,0,0,0,0,0,0,0,0,0,0,0,0,0,0,0,0,0,0,0,0,0,0,0,0,0,0,0,0,0,0,0,0,0,0,0,0,0,0,0,0,0,0,0,0,0,0,0,0,0,0,0,0,0,0,0,0,0,0,0,0,0,0,0,0,0,0,0,0,0,0,0,0,0,0,0,0,0,0,0,0,0,0,0,0,0,0,0,0,0,0,0,0,0,0,0,0,0,0,0,0,0,0,0,0,0,0,0,0,0,0,0,0,0,0,0,0,0,0,0,0,0,0,0,0,0,0,0,0,0,0,0,0,0,0,0,0,0,0,0,0,0,0,0,0,0,0,0,0,0,
0,0,0,0,0,0,0,0,0,0,0,0,0,0,0,0,0,0,0,0,0,0,0,0,0,0,0,0,0,0,0,0,0,0,0,0,0,0,0,0,0,0,0,0,0,0,0,0,0,0,0,0,0,0,0,0,0,0,0,0,0,0,0,0,0,0,0,0,0,0,0,0,0,0,0,0,0,0,0,0,0,0,0,0,0,0,0,0,0,0,0,0,0,0,0,0,0,0,0,0,0,0,0,0,0,0,0,0,0,0,0,0,0,0,0,0,0,0,0,0,0,0,0,0,0,0,0,0,0,0,0,0,0,0,0,0,0,0,0,0,0,0,0,0,0,0,0,0,0,0,0,0,0,0,0,0,0,0,0,0,0,0,0,0,0,0,0,0,0,0,0,0,0,0,0,0,0,0,0,0,0,0,0,0,0,0,0,0,0,0,0,0,0,0,0,0,0,0,0,0,0,0,0,0,0,0,0,0,0,0,0,0,0,0,0,0,0,0,0,0,0,0,0,0,0,0,0,0,0,0,0,0,0,0,0,0,0,0,0,0,0,0,0,0,0,0,0,0,0,0,0,0,0,0,0,0,0,0,0,0,0,0,0,0,0,0,0,0,0,0,0,0,0,0,0,0,0,0,0,0,0,0,0,0,0,0,0,0,0,0,0,0,0,0,0,0,0,0,0,0,0,0,0,0,0,0,0,0,0,0,0,0,0,0,0,0,0,0,0,0,0,0,0,0,0,0,0,0,0,0,0,0,0,0,0,0,0,0,0,0,0,0,0,0,0,0,0,0,0,0,0,0,0,0,0,0,0,0,0,0,0,0,0,0,0,0,0,0,0,0,0,0,0,0,0,0,0,0,0,0,0,0,0,0,0,0,0,0,0,0,0,0,0,0,0,0,0,0,0,0,0,0,0,0,0,0,0,0,0,0,0,0,0,0,0,0,0,0,0,0,0,0,0,0,0,0,0,0,0,0,0,0,0,0,0,0,0,0,0,0,0,0,0,0,0,0,0,0,0,0,0,0,0,0,0,0,0,0,0,0,0,0,0,0,0,0,0,0,0,0,0,0,0,0,0,0,0,0,0,0,0,0,0,0,0,0,0,0,0,0,0,0,0,0,0,0,0,0,0,0,0,0,0,0,0,0,0,0,0,0,0,0,0,0,0,0,0,0,0,0,0,0,0,0,0,0,0,0,0,0,0,0,0,0,0,0,0,0,0,0,0,0,0,0,0,0,0,0,0,0,0,0,0,0,0,0,0,0,0,0,0,0,0,0,0,0,0,0,0,0,0,0,0,0,0,0,0,0,0,0,0,0,0,0,0,0,0,0,0,0,0,0,0,0,0,0,0,0,0,0,0,0,0,0,0,0,0,0,0,0,0,0,0,0,0,0,0,0,0,0,0,0,0,0,0,0,0,0,0,0,0,0,0,0,0,0,0,0,0,0,0,0,0,0,0,0,0,0,0,0,0,0,0,0,0,0,0,0,0,0,0,0,0,0,0,0,0,0,0,0,0,0,0,0,0,0,0,0,0,0,0,0,0,0,0,0,0,0,0,0,0,0,0,0,0,0,0,0,0,0,0,0,0,0,0,0,0,0,0,0,0,0,0,0,0,0,0,0,0,0,0,0,0,0,0,0,0,0,0,0,0,0,0,0,0,0,0,0,0,0,0,0,0,0,0,0,0,0,0,0,0,0,0,0,0,0,0,0,0,0,0,0,0,0,0,0,0,0,0,0,0,0,0,0,0,0,0,0,0,0,0,0,0,0,0,0,0,0,0,0,0,0,0,0,0,0,0,0,0,0,0,0,0,0,0,0,0,0,0,0,0,0,0,0,0,0,0,0,0,0,0,0,0,0,0,0,0,0,0,0,0,0,0,0,0,0,0,0,0,0,0,0,0,0,0,0,0,0,0,0,0,0,0,0,0,0,0,0,0,0,0,0,0,0,0,0,0,0,0,0,0,0,0,0,0,0,0,0,0,0,0,0,0,0,0,0,0,0,0,0,0,0,0,0,0,0,0,0,0,0,0,0,0,0,0,0,0,0,0,0,0,0,0,0,0,0,0,0,0,0,0,0,0,0,0,0,0,0,0,0,0,0,0,0,0,0,0,0,0,0,0,0,0,0,0,0,0,0,0,0,0,0,0,0,0,0,0,0,0,0,0,0,0,0,0,0,0,0,0,0,0,0,0,0,0,0,0,0,0,0,0,0,0,0,0,0,0,0,0,0,0,0,0,0,0,0,0,0,0,0,
0,0,0,0,0,0,0,0,0,0,0,0,0,0,0,0,0,0,0,0,0,0,0,0,0,0,0,0,0,0,0,0,0,0,0,0,0,0,0,0,0,0,0,0,0,0,0,0,0,0,0,0,0,0,0,0,0,0,0,0,0,0,0,0,0,0,0,0,0,0,0,0,0,0,0,0,0,0,0,0,0,0,0,0,0,0,0,0,0,0,0,0,0,0,0,0,0,0,0,0,0,0,0,0,0,0,0,0,0,0,0,0,0,0,0,0,0,0,0,0,0,0,0,0,0,0,0,0,0,0,0,0,0,0,0,0,0,0,0,0,0,0,0,0,0,0,0,0,0,0,0,0,0,0,0,0,0,0,0,0,0,0,0,0,0,0,0,0,0,0,0,0,0,0,0,0,0,0,0,0,0,0,0,0,0,0,0,0,0,0,0,0,0,0,0,0,0,0,0,0,0,0,0,0,0,0,0,0,0,0,0,0,0,0,0,0,0,0,0,0,0,0,0,0,0,0,0,0,0,0,0,0,0,0,0,0,0,0,0,0,0,0,0,0,0,0,0,0,0,0,0,0,0,0,0,0,0,0,0,0,0,0,0,0,0,0,0,0,0,0,0,0,0,0,0,0,0,0,0,0,0,0,0,0,0,0,0,0,0,0,0,0,0,0,0,0,0,0,0,0,0,0,0,0,0,0,0,0,0,0,0,0,0,0,0,0,0,0,0,0,0,0,0,0,0,0,0,0,0,0,0,0,0,0,0,0,0,0,0,0,0,0,0,0,0,0,0,0,0,0,0,0,0,0,0,0,0,0,0,0,0,0,0,0,0,0,0,0,0,0,0,0,0,0,0,0,0,0,0,0,0,0,0,0,0,0,0,0,0,0,0,0,0,0,0,0,0,0,0,0,0,0,0,0,0,0,0,0,0,0,0,0,0,0,0,0,0,0,0,0,0,0,0,0,0,0,0,0,0,0,0,0,0,0,0,0,0,0,0,0,0,0,0,0,0,0,0,0,0,0,0,0,0,0,0,0,0,0,0,0,0,0,0,0,0,0,0,0,0,0,0,0,0,0,0,0,0,0,0,0,0,0,0,0,0,0,0,0,0,0,0,0,0,0,0,0,0,0,0,0,0,0,0,0,0,0,0,0,0,0,0,0,0,0,0,0,0,0,0,0,0,0,0,0,0,0,0,0,0,0,0,0,0,0,0,0,0,0,0,0,0,0,0,0,0,0,0,0,0,0,0,0,0,0,0,0,0,0,0,0,0,0,0,0,0,0,0,0,0,0,0,0,0,0,0,0,0,0,0,0,0,0,0,0,0,0,0,0,0,0,0,0,0,0,0,0,0,0,0,0,0,0,0,0,0,0,0,0,0,0,0,0,0,0,0,0,0,0,0,0,0,0,0,0,0,0,0,0,0,0,0,0,0,0,0,0,0,0,0,0,0,0,0,0,0,0,0,0,0,0,0,0,0,0,0,0,0,0,0,0,0,0,0,0,0,0,0,0,0,0,0,0,0,0,0,0,0,0,0,0,0,0,0,0,0,0,0,0,0,0,0,0,0,0,0,0,0,0,0,0,0,0,0,0,0,0,0,0,0,0,0,0,0,0,0,0,0,0,0,0,0,0,0,0,0,0,0,0,0,0,0,0,0,0,0,0,0,0,0,0,0,0,0,0,0,0,0,0,0,0,0,0,0,0,0,0,0,0,0,0,0,0,0,0,0,0,0,0,0,0,0,0,0,0,0,0,0,0,0,0,0,0,0,0,0,0,0,0,0,0,0,0,0,0,0,0,0,0,0,0,0,0,0,0,0,0,0,0,0,0,0,0,0,0,0,0,0,0,0,0,0,0,0,0,0,0,0,0,0,0,0,0,0,0,0,0,0,0,0,0,0,0,0,0,0,0,0,0,0,0,0,0,0,0,0,0,0,0,0,0,0,0,0,0,0,0,0,0,0,0,0,0,0,0,0,0,0,0,0,0,0,0,0,0,0,0,0,0,0,0,0,0,0,0,0,0,0,0,0,0,0,0,0,0,0,0,0,0,0,0,0,0,0,0,0,0,0,0,0,0,0,0,0,0,0,0,0,0,0,0,0,0,0,0,0,0,0,0,0,0,0,0,0,0,0,0,0,0,0,0,0,0,0,0,0,0,0,0,0,0,0,0,0,0,0,0,0,0,0,0,0,0,0,0,0,0,0,0,0,0,0,0,0,0,0,0,0,0,0,0,0,0,0,0,0,0,0,0,0,0,
0,0,0,0,0,0,0,0,0,0,0,0,0,0,0,0,0,0,0,0,0,0,0,0,0,0,0,0,0,0,0,0,0,0,0,0,0,0,0,0,0,0,0,0,0,0,0,0,0,0,0,0,0,0,0,0,0,0,0,0,0,0,0,0,0,0,0,0,0,0,0,0,0,0,0,0,0,0,0,0,0,0,0,0,0,0,0,0,0,0,0,0,0,0,0,0,0,0,0,0,0,0,0,0,0,0,0,0,0,0,0,0,0,0,0,0,0,0,0,0,0,0,0,0,0,0,0,0,0,0,0,0,0,0,0,0,0,0,0,0,0,0,0,0,0,0,0,0,0,0,0,0,0,0,0,0,0,0,0,0,0,0,0,0,0,0,0,0,0,0,0,0,0,0,0,0,0,0,0,0,0,0,0,0,0,0,0,0,0,0,0,0,0,0,0,0,0,0,0,0,0,0,0,0,0,0,0,0,0,0,0,0,0,0,0,0,0,0,0,0,0,0,0,0,0,0,0,0,0,0,0,0,0,0,0,0,0,0,0,0,0,0,0,0,0,0,0,0,0,0,0,0,0,0,0,0,0,0,0,0,0,0,0,0,0,0,0,0,0,0,0,0,0,0,0,0,0,0,0,0,0,0,0,0,0,0,0,0,0,0,0,0,0,0,0,0,0,0,0,0,0,0,0,0,0,0,0,0,0,0,0,0,0,0,0,0,0,0,0,0,0,0,0,0,0,0,0,0,0,0,0,0,0,0,0,0,0,0,0,0,0,0,0,0,0,0,0,0,0,0,0,0,0,0,0,0,0,0,0,0,0,0,0,0,0,0,0,0,0,0,0,0,0,0,0,0,0,0,0,0,0,0,0,0,0,0,0,0,0,0,0,0,0,0,0,0,0,0,0,0,0,0,0,0,0,0,0,0,0,0,0,0,0,0,0,0,0,0,0,0,0,0,0,0,0,0,0,0,0,0,0,0,0,0,0,0,0,0,0,0,0,0,0,0,0,0,0,0,0,0,0,0,0,0,0,0,0,0,0,0,0,0,0,0,0,0,0,0,0,0,0,0,0,0,0,0,0,0,0,0,0,0,0,0,0,0,0,0,0,0,0,0,0,0,0,0,0,0,0,0,0,0,0,0,0,0,0,0,0,0,0,0,0,0,0,0,0,0,0,0,0,0,0,0,0,0,0,0,0,0,0,0,0,0,0,0,0,0,0,0,0,0,0,0,0,0,0,0,0,0,0,0,0,0,0,0,0,0,0,0,0,0,0,0,0,0,0,0,0,0,0,0,0,0,0,0,0,0,0,0,0,0,0,0,0,0,0,0,0,0,0,0,0,0,0,0,0,0,0,0,0,0,0,0,0,0,0,0,0,0,0,0,0,0,0,0,0,0,0,0,0,0,0,0,0,0,0,0,0,0,0,0,0,0,0,0,0,0,0,0,0,0,0,0,0,0,0,0,0,0,0,0,0,0,0,0,0,0,0,0,0,0,0,0,0,0,0,0,0,0,0,0,0,0,0,0,0,0,0,0,0,0,0,0,0,0,0,0,0,0,0,0,0,0,0,0,0,0,0,0,0,0,0,0,0,0,0,0,0,0,0,0,0,0,0,0,0,0,0,0,0,0,0,0,0,0,0,0,0,0,0,0,0,0,0,0,0,0,0,0,0,0,0,0,0,0,0,0,0,0,0,0,0,0,0,0,0,0,0,0,0,0,0,0,0,0,0,0,0,0,0,0,0,0,0,0,0,0,0,0,0,0,0,0,0,0,0,0,0,0,0,0,0,0,0,0,0,0,0,0,0,0,0,0,0,0,0,0,0,0,0,0,0,0,0,0,0,0,0,0,0,0,0,0,0,0,0,0,0,0,0,0,0,0,0,0,0,0,0,0,0,0,0,0,0,0,0,0,0,0,0,0,0,0,0,0,0,0,0,0,0,0,0,0,0,0,0,0,0,0,0,0,0,0,0,0,0,0,0,0,0,0,0,0,0,0,0,0,0,0,0,0,0,0,0,0,0,0,0,0,0,0,0,0,0,0,0,0,0,0,0,0,0,0,0,0,0,0,0,0,0,0,0,0,0,0,0,0,0,0,0,0,0,0,0,0,0,0,0,0,0,0,0,0,0,0,0,0,0,0,0,0,0,0,0,0,0,0,0,0,0,0,0,0,0,0,0,0,0,0,0,0,0,0,0,0,0,0,0,0,0,0,0,0,0,0,0,0,0,0,0,0,0,0,0,0,0,0,0,0,
0,0,0,0,0,0,0,0,0,0,0,0,0,0,0,0,0,0,0,0,0,0,0,0,0,0,0,0,0,0,0,0,0,0,0,0,0,0,0,0,0,0,0,0,0,0,0,0,0,0,0,0,0,0,0,0,0,0,0,0,0,0,0,0,0,0,0,0,0,0,0,0,0,0,0,0,0,0,0,0,0,0,0,0,0,0,0,0,0,0,0,0,0,0,0,0,0,0,0,0,0,0,0,0,0,0,0,0,0,0,0,0,0,0,0,0,0,0,0,0,0,0,0,0,0,0,0,0,0,0,0,0,0,0,0,0,0,0,0,0,0,0,0,0,0,0,0,0,0,0,0,0,0,0,0,0,0,0,0,0,0,0,0,0,0,0,0,0,0,0,0,0,0,0,0,0,0,0,0,0,0,0,0,0,0,0,0,0,0,0,0,0,0,0,0,0,0,0,0,0,0,0,0,0,0,0,0,0,0,0,0,0,0,0,0,0,0,0,0,0,0,0,0,0,0,0,0,0,0,0,0,0,0,0,0,0,0,0,0,0,0,0,0,0,0,0,0,0,0,0,0,0,0,0,0,0,0,0,0,0,0,0,0,0,0,0,0,0,0,0,0,0,0,0,0,0,0,0,0,0,0,0,0,0,0,0,0,0,0,0,0,0,0,0,0,0,0,0,0,0,0,0,0,0,0,0,0,0,0,0,0,0,0,0,0,0,0,0,0,0,0,0,0,0,0,0,0,0,0,0,0,0,0,0,0,0,0,0,0,0,0,0,0,0,0,0,0,0,0,0,0,0,0,0,0,0,0,0,0,0,0,0,0,0,0,0,0,0,0,0,0,0,0,0,0,0,0,0,0,0,0,0,0,0,0,0,0,0,0,0,0,0,0,0,0,0,0,0,0,0,0,0,0,0,0,0,0,0,0,0,0,0,0,0,0,0,0,0,0,0,0,0,0,0,0,0,0,0,0,0,0,0,0,0,0,0,0,0,0,0,0,0,0,0,0,0,0,0,0,0,0,0,0,0,0,0,0,0,0,0,0,0,0,0,0,0,0,0,0,0,0,0,0,0,0,0,0,0,0,0,0,0,0,0,0,0,0,0,0,0,0,0,0,0,0,0,0,0,0,0,0,0,0,0,0,0,0,0,0,0,0,0,0,0,0,0,0,0,0,0,0,0,0,0,0,0,0,0,0,0,0,0,0,0,0,0,0,0,0,0,0,0,0,0,0,0,0,0,0,0,0,0,0,0,0,0,0,0,0,0,0,0,0,0,0,0,0,0,0,0,0,0,0,0,0,0,0,0,0,0,0,0,0,0,0,0,0,0,0,0,0,0,0,0,0,0,0,0,0,0,0,0,0,0,0,0,0,0,0,0,0,0,0,0,0,0,0,0,0,0,0,0,0,0,0,0,0,0,0,0,0,0,0,0,0,0,0,0,0,0,0,0,0,0,0,0,0,0,0,0,0,0,0,0,0,0,0,0,0,0,0,0,0,0,0,0,0,0,0,0,0,0,0,0,0,0,0,0,0,0,0,0,0,0,0,0,0,0,0,0,0,0,0,0,0,0,0,0,0,0,0,0,0,0,0,0,0,0,0,0,0,0,0,0,0,0,0,0,0,0,0,0,0,0,0,0,0,0,0,0,0,0,0,0,0,0,0,0,0,0,0,0,0,0,0,0,0,0,0,0,0,0,0,0,0,0,0,0,0,0,0,0,0,0,0,0,0,0,0,0,0,0,0,0,0,0,0,0,0,0,0,0,0,0,0,0,0,0,0,0,0,0,0,0,0,0,0,0,0,0,0,0,0,0,0,0,0,0,0,0,0,0,0,0,0,0,0,0,0,0,0,0,0,0,0,0,0,0,0,0,0,0,0,0,0,0,0,0,0,0,0,0,0,0,0,0,0,0,0,0,0,0,0,0,0,0,0,0,0,0,0,0,0,0,0,0,0,0,0,0,0,0,0,0,0,0,0,0,0,0,0,0,0,0,0,0,0,0,0,0,0,0,0,0,0,0,0,0,0,0,0,0,0,0,0,0,0,0,0,0,0,0,0,0,0,0,0,0,0,0,0,0,0,0,0,0,0,0,0,0,0,0,0,0,0,0,0,0,0,0,0,0,0,0,0,0,0,0,0,0,0,0,0,0,0,0,0,0,0,0,0,0,0,0,0,0,0,0,0,0,0,0,0,0,0,0,0,0,0,0,0,0,0,0,0,0,0,0,0,0,0,0,0,0,0,0,0,0,0,0,
0,0,0,0,0,0,0,0,0,0,0,0,0,0,0,0,0,0,0,0,0,0,0,0,0,0,0,0,0,0,0,0,0,0,0,0,0,0,0,0,0,0,0,0,0,0,0,0,0,0,0,0,0,0,0,0,0,0,0,0,0,0,0,0,0,0,0,0,0,0,0,0,0,0,0,0,0,0,0,0,0,0,0,0,0,0,0,0,0,0,0,0,0,0,0,0,0,0,0,0,0,0,0,0,0,0,0,0,0,0,0,0,0,0,0,0,0,0,0,0,0,0,0,0,0,0,0,0,0,0,0,0,0,0,0,0,0,0,0,0,0,0,0,0,0,0,0,0,0,0,0,0,0,0,0,0,0,0,0,0,0,0,0,0,0,0,0,0,0,0,0,0,0,0,0,0,0,0,0,0,0,0,0,0,0,0,0,0,0,0,0,0,0,0,0,0,0,0,0,0,0,0,0,0,0,0,0,0,0,0,0,0,0,0,0,0,0,0,0,0,0,0,0,0,0,0,0,0,0,0,0,0,0,0,0,0,0,0,0,0,0,0,0,0,0,0,0,0,0,0,0,0,0,0,0,0,0,0,0,0,0,0,0,0,0,0,0,0,0,0,0,0,0,0,0,0,0,0,0,0,0,0,0,0,0,0,0,0,0,0,0,0,0,0,0,0,0,0,0,0,0,0,0,0,0,0,0,0,0,0,0,0,0,0,0,0,0,0,0,0,0,0,0,0,0,0,0,0,0,0,0,0,0,0,0,0,0,0,0,0,0,0,0,0,0,0,0,0,0,0,0,0,0,0,0,0,0,0,0,0,0,0,0,0,0,0,0,0,0,0,0,0,0,0,0,0,0,0,0,0,0,0,0,0,0,0,0,0,0,0,0,0,0,0,0,0,0,0,0,0,0,0,0,0,0,0,0,0,0,0,0,0,0,0,0,0,0,0,0,0,0,0,0,0,0,0,0,0,0,0,0,0,0,0,0,0,0,0,0,0,0,0,0,0,0,0,0,0,0,0,0,0,0,0,0,0,0,0,0,0,0,0,0,0,0,0,0,0,0,0,0,0,0,0,0,0,0,0,0,0,0,0,0,0,0,0,0,0,0,0,0,0,0,0,0,0,0,0,0,0,0,0,0,0,0,0,0,0,0,0,0,0,0,0,0,0,0,0,0,0,0,0,0,0,0,0,0,0,0,0,0,0,0,0,0,0,0,0,0,0,0,0,0,0,0,0,0,0,0,0,0,0,0,0,0,0,0,0,0,0,0,0,0,0,0,0,0,0,0,0,0,0,0,0,0,0,0,0,0,0,0,0,0,0,0,0,0,0,0,0,0,0,0,0,0,0,0,0,0,0,0,0,0,0,0,0,0,0,0,0,0,0,0,0,0,0,0,0,0,0,0,0,0,0,0,0,0,0,0,0,0,0,0,0,0,0,0,0,0,0,0,0,0,0,0,0,0,0,0,0,0,0,0,0,0,0,0,0,0,0,0,0,0,0,0,0,0,0,0,0,0,0,0,0,0,0,0,0,0,0,0,0,0,0,0,0,0,0,0,0,0,0,0,0,0,0,0,0,0,0,0,0,0,0,0,0,0,0,0,0,0,0,0,0,0,0,0,0,0,0,0,0,0,0,0,0,0,0,0,0,0,0,0,0,0,0,0,0,0,0,0,0,0,0,0,0,0,0,0,0,0,0,0,0,0,0,0,0,0,0,0,0,0,0,0,0,0,0,0,0,0,0,0,0,0,0,0,0,0,0,0,0,0,0,0,0,0,0,0,0,0,0,0,0,0,0,0,0,0,0,0,0,0,0,0,0,0,0,0,0,0,0,0,0,0,0,0,0,0,0,0,0,0,0,0,0,0,0,0,0,0,0,0,0,0,0,0,0,0,0,0,0,0,0,0,0,0,0,0,0,0,0,0,0,0,0,0,0,0,0,0,0,0,0,0,0,0,0,0,0,0,0,0,0,0,0,0,0,0,0,0,0,0,0,0,0,0,0,0,0,0,0,0,0,0,0,0,0,0,0,0,0,0,0,0,0,0,0,0,0,0,0,0,0,0,0,0,0,0,0,0,0,0,0,0,0,0,0,0,0,0,0,0,0,0,0,0,0,0,0,0,0,0,0,0,0,0,0,0,0,0,0,0,0,0,0,0,0,0,0,0,0,0,0,0,0,0,0,0,0,0,0,0,0,0,0,0,0,0,0,0,0,0,0,0,0,0,0,0,0,0,0,0,0,0,0,0,0,0,0,
0,0,0,0,0,0,0,0,0,0,0,0,0,0,0,0,0,0,0,0,0,0,0,0,0,0,0,0,0,0,0,0,0,0,0,0,0,0,0,0,0,0,0,0,0,0,0,0,0,0,0,0,0,0,0,0,0,0,0,0,0,0,0,0,0,0,0,0,0,0,0,0,0,0,0,0,0,0,0,0,0,0,0,0,0,0,0,0,0,0,0,0,0,0,0,0,0,0,0,0,0,0,0,0,0,0,0,0,0,0,0,0,0,0,0,0,0,0,0,0,0,0,0,0,0,0,0,0,0,0,0,0,0,0,0,0,0,0,0,0,0,0,0,0,0,0,0,0,0,0,0,0,0,0,0,0,0,0,0,0,0,0,0,0,0,0,0,0,0,0,0,0,0,0,0,0,0,0,0,0,0,0,0,0,0,0,0,0,0,0,0,0,0,0,0,0,0,0,0,0,0,0,0,0,0,0,0,0,0,0,0,0,0,0,0,0,0,0,0,0,0,0,0,0,0,0,0,0,0,0,0,0,0,0,0,0,0,0,0,0,0,0,0,0,0,0,0,0,0,0,0,0,0,0,0,0,0,0,0,0,0,0,0,0,0,0,0,0,0,0,0,0,0,0,0,0,0,0,0,0,0,0,0,0,0,0,0,0,0,0,0,0,0,0,0,0,0,0,0,0,0,0,0,0,0,0,0,0,0,0,0,0,0,0,0,0,0,0,0,0,0,0,0,0,0,0,0,0,0,0,0,0,0,0,0,0,0,0,0,0,0,0,0,0,0,0,0,0,0,0,0,0,0,0,0,0,0,0,0,0,0,0,0,0,0,0,0,0,0,0,0,0,0,0,0,0,0,0,0,0,0,0,0,0,0,0,0,0,0,0,0,0,0,0,0,0,0,0,0,0,0,0,0,0,0,0,0,0,0,0,0,0,0,0,0,0,0,0,0,0,0,0,0,0,0,0,0,0,0,0,0,0,0,0,0,0,0,0,0,0,0,0,0,0,0,0,0,0,0,0,0,0,0,0,0,0,0,0,0,0,0,0,0,0,0,0,0,0,0,0,0,0,0,0,0,0,0,0,0,0,0,0,0,0,0,0,0,0,0,0,0,0,0,0,0,0,0,0,0,0,0,0,0,0,0,0,0,0,0,0,0,0,0,0,0,0,0,0,0,0,0,0,0,0,0,0,0,0,0,0,0,0,0,0,0,0,0,0,0,0,0,0,0,0,0,0,0,0,0,0,0,0,0,0,0,0,0,0,0,0,0,0,0,0,0,0,0,0,0,0,0,0,0,0,0,0,0,0,0,0,0,0,0,0,0,0,0,0,0,0,0,0,0,0,0,0,0,0,0,0,0,0,0,0,0,0,0,0,0,0,0,0,0,0,0,0,0,0,0,0,0,0,0,0,0,0,0,0,0,0,0,0,0,0,0,0,0,0,0,0,0,0,0,0,0,0,0,0,0,0,0,0,0,0,0,0,0,0,0,0,0,0,0,0,0,0,0,0,0,0,0,0,0,0,0,0,0,0,0,0,0,0,0,0,0,0,0,0,0,0,0,0,0,0,0,0,0,0,0,0,0,0,0,0,0,0,0,0,0,0,0,0,0,0,0,0,0,0,0,0,0,0,0,0,0,0,0,0,0,0,0,0,0,0,0,0,0,0,0,0,0,0,0,0,0,0,0,0,0,0,0,0,0,0,0,0,0,0,0,0,0,0,0,0,0,0,0,0,0,0,0,0,0,0,0,0,0,0,0,0,0,0,0,0,0,0,0,0,0,0,0,0,0,0,0,0,0,0,0,0,0,0,0,0,0,0,0,0,0,0,0,0,0,0,0,0,0,0,0,0,0,0,0,0,0,0,0,0,0,0,0,0,0,0,0,0,0,0,0,0,0,0,0,0,0,0,0,0,0,0,0,0,0,0,0,0,0,0,0,0,0,0,0,0,0,0,0,0,0,0,0,0,0,0,0,0,0,0,0,0,0,0,0,0,0,0,0,0,0,0,0,0,0,0,0,0,0,0,0,0,0,0,0,0,0,0,0,0,0,0,0,0,0,0,0,0,0,0,0,0,0,0,0,0,0,0,0,0,0,0,0,0,0,0,0,0,0,0,0,0,0,0,0,0,0,0,0,0,0,0,0,0,0,0,0,0,0,0,0,0,0,0,0,0,0,0,0,0,0,0,0,0,0,0,0,0,0,0,0,0,0,0,0,0,0,0,0,0,0,0,0,0,0,0,0,0,0,0,0,0,
0,0,0,0,0,0,0,0,0,0,0,0,0,0,0,0,0,0,0,0,0,0,0,0,0,0,0,0,0,0,0,0,0,0,0,0,0,0,0,0,0,0,0,0,0,0,0,0,0,0,0,0,0,0,0,0,0,0,0,0,0,0,0,0,0,0,0,0,0,0,0,0,0,0,0,0,0,0,0,0,0,0,0,0,0,0,0,0,0,0,0,0,0,0,0,0,0,0,0,0,0,0,0,0,0,0,0,0,0,0,0,0,0,0,0,0,0,0,0,0,0,0,0,0,0,0,0,0,0,0,0,0,0,0,0,0,0,0,0,0,0,0,0,0,0,0,0,0,0,0,0,0,0,0,0,0,0,0,0,0,0,0,0,0,0,0,0,0,0,0,0,0,0,0,0,0,0,0,0,0,0,0,0,0,0,0,0,0,0,0,0,0,0,0,0,0,0,0,0,0,0,0,0,0,0,0,0,0,0,0,0,0,0,0,0,0,0,0,0,0,0,0,0,0,0,0,0,0,0,0,0,0,0,0,0,0,0,0,0,0,0,0,0,0,0,0,0,0,0,0,0,0,0,0,0,0,0,0,0,0,0,0,0,0,0,0,0,0,0,0,0,0,0,0,0,0,0,0,0,0,0,0,0,0,0,0,0,0,0,0,0,0,0,0,0,0,0,0,0,0,0,0,0,0,0,0,0,0,0,0,0,0,0,0,0,0,0,0,0,0,0,0,0,0,0,0,0,0,0,0,0,0,0,0,0,0,0,0,0,0,0,0,0,0,0,0,0,0,0,0,0,0,0,0,0,0,0,0,0,0,0,0,0,0,0,0,0,0,0,0,0,0,0,0,0,0,0,0,0,0,0,0,0,0,0,0,0,0,0,0,0,0,0,0,0,0,0,0,0,0,0,0,0,0,0,0,0,0,0,0,0,0,0,0,0,0,0,0,0,0,0,0,0,0,0,0,0,0,0,0,0,0,0,0,0,0,0,0,0,0,0,0,0,0,0,0,0,0,0,0,0,0,0,0,0,0,0,0,0,0,0,0,0,0,0,0,0,0,0,0,0,0,0,0,0,0,0,0,0,0,0,0,0,0,0,0,0,0,0,0,0,0,0,0,0,0,0,0,0,0,0,0,0,0,0,0,0,0,0,0,0,0,0,0,0,0,0,0,0,0,0,0,0,0,0,0,0,0,0,0,0,0,0,0,0,0,0,0,0,0,0,0,0,0,0,0,0,0,0,0,0,0,0,0,0,0,0,0,0,0,0,0,0,0,0,0,0,0,0,0,0,0,0,0,0,0,0,0,0,0,0,0,0,0,0,0,0,0,0,0,0,0,0,0,0,0,0,0,0,0,0,0,0,0,0,0,0,0,0,0,0,0,0,0,0,0,0,0,0,0,0,0,0,0,0,0,0,0,0,0,0,0,0,0,0,0,0,0,0,0,0,0,0,0,0,0,0,0,0,0,0,0,0,0,0,0,0,0,0,0,0,0,0,0,0,0,0,0,0,0,0,0,0,0,0,0,0,0,0,0,0,0,0,0,0,0,0,0,0,0,0,0,0,0,0,0,0,0,0,0,0,0,0,0,0,0,0,0,0,0,0,0,0,0,0,0,0,0,0,0,0,0,0,0,0,0,0,0,0,0,0,0,0,0,0,0,0,0,0,0,0,0,0,0,0,0,0,0,0,0,0,0,0,0,0,0,0,0,0,0,0,0,0,0,0,0,0,0,0,0,0,0,0,0,0,0,0,0,0,0,0,0,0,0,0,0,0,0,0,0,0,0,0,0,0,0,0,0,0,0,0,0,0,0,0,0,0,0,0,0,0,0,0,0,0,0,0,0,0,0,0,0,0,0,0,0,0,0,0,0,0,0,0,0,0,0,0,0,0,0,0,0,0,0,0,0,0,0,0,0,0,0,0,0,0,0,0,0,0,0,0,0,0,0,0,0,0,0,0,0,0,0,0,0,0,0,0,0,0,0,0,0,0,0,0,0,0,0,0,0,0,0,0,0,0,0,0,0,0,0,0,0,0,0,0,0,0,0,0,0,0,0,0,0,0,0,0,0,0,0,0,0,0,0,0,0,0,0,0,0,0,0,0,0,0,0,0,0,0,0,0,0,0,0,0,0,0,0,0,0,0,0,0,0,0,0,0,0,0,0,0,0,0,0,0,0,0,0,0,0,0,0,0,0,0,0,0,0,0,0,0,0,0,0,0,0,0,0,0,0,0,0,0,0,0,0,0,0,0,0,
0,0,0,0,0,0,0,0,0,0,0,0,0,0,0,0,0,0,0,0,0,0,0,0,0,0,0,0,0,0,0,0,0,0,0,0,0,0,0,0,0,0,0,0,0,0,0,0,0,0,0,0,0,0,0,0,0,0,0,0,0,0,0,0,0,0,0,0,0,0,0,0,0,0,0,0,0,0,0,0,0,0,0,0,0,0,0,0,0,0,0,0,0,0,0,0,0,0,0,0,0,0,0,0,0,0,0,0,0,0,0,0,0,0,0,0,0,0,0,0,0,0,0,0,0,0,0,0,0,0,0,0,0,0,0,0,0,0,0,0,0,0,0,0,0,0,0,0,0,0,0,0,0,0,0,0,0,0,0,0,0,0,0,0,0,0,0,0,0,0,0,0,0,0,0,0,0,0,0,0,0,0,0,0,0,0,0,0,0,0,0,0,0,0,0,0,0,0,0,0,0,0,0,0,0,0,0,0,0,0,0,0,0,0,0,0,0,0,0,0,0,0,0,0,0,0,0,0,0,0,0,0,0,0,0,0,0,0,0,0,0,0,0,0,0,0,0,0,0,0,0,0,0,0,0,0,0,0,0,0,0,0,0,0,0,0,0,0,0,0,0,0,0,0,0,0,0,0,0,0,0,0,0,0,0,0,0,0,0,0,0,0,0,0,0,0,0,0,0,0,0,0,0,0,0,0,0,0,0,0,0,0,0,0,0,0,0,0,0,0,0,0,0,0,0,0,0,0,0,0,0,0,0,0,0,0,0,0,0,0,0,0,0,0,0,0,0,0,0,0,0,0,0,0,0,0,0,0,0,0,0,0,0,0,0,0,0,0,0,0,0,0,0,0,0,0,0,0,0,0,0,0,0,0,0,0,0,0,0,0,0,0,0,0,0,0,0,0,0,0,0,0,0,0,0,0,0,0,0,0,0,0,0,0,0,0,0,0,0,0,0,0,0,0,0,0,0,0,0,0,0,0,0,0,0,0,0,0,0,0,0,0,0,0,0,0,0,0,0,0,0,0,0,0,0,0,0,0,0,0,0,0,0,0,0,0,0,0,0,0,0,0,0,0,0,0,0,0,0,0,0,0,0,0,0,0,0,0,0,0,0,0,0,0,0,0,0,0,0,0,0,0,0,0,0,0,0,0,0,0,0,0,0,0,0,0,0,0,0,0,0,0,0,0,0,0,0,0,0,0,0,0,0,0,0,0,0,0,0,0,0,0,0,0,0,0,0,0,0,0,0,0,0,0,0,0,0,0,0,0,0,0,0,0,0,0,0,0,0,0,0,0,0,0,0,0,0,0,0,0,0,0,0,0,0,0,0,0,0,0,0,0,0,0,0,0,0,0,0,0,0,0,0,0,0,0,0,0,0,0,0,0,0,0,0,0,0,0,0,0,0,0,0,0,0,0,0,0,0,0,0,0,0,0,0,0,0,0,0,0,0,0,0,0,0,0,0,0,0,0,0,0,0,0,0,0,0,0,0,0,0,0,0,0,0,0,0,0,0,0,0,0,0,0,0,0,0,0,0,0,0,0,0,0,0,0,0,0,0,0,0,0,0,0,0,0,0,0,0,0,0,0,0,0,0,0,0,0,0,0,0,0,0,0,0,0,0,0,0,0,0,0,0,0,0,0,0,0,0,0,0,0,0,0,0,0,0,0,0,0,0,0,0,0,0,0,0,0,0,0,0,0,0,0,0,0,0,0,0,0,0,0,0,0,0,0,0,0,0,0,0,0,0,0,0,0,0,0,0,0,0,0,0,0,0,0,0,0,0,0,0,0,0,0,0,0,0,0,0,0,0,0,0,0,0,0,0,0,0,0,0,0,0,0,0,0,0,0,0,0,0,0,0,0,0,0,0,0,0,0,0,0,0,0,0,0,0,0,0,0,0,0,0,0,0,0,0,0,0,0,0,0,0,0,0,0,0,0,0,0,0,0,0,0,0,0,0,0,0,0,0,0,0,0,0,0,0,0,0,0,0,0,0,0,0,0,0,0,0,0,0,0,0,0,0,0,0,0,0,0,0,0,0,0,0,0,0,0,0,0,0,0,0,0,0,0,0,0,0,0,0,0,0,0,0,0,0,0,0,0,0,0,0,0,0,0,0,0,0,0,0,0,0,0,0,0,0,0,0,0,0,0,0,0,0,0,0,0,0,0,0,0,0,0,0,0,0,0,0,0,0,0,0,0,0,0,0,0,0,0,0,0,0,0,0,0,0,0,0,0,0,0,0,0,0,0,0,0,0,0,
0,0,0,0,0,0,0,0,0,0,0,0,0,0,0,0,0,0,0,0,0,0,0,0,0,0,0,0,0,0,0,0,0,0,0,0,0,0,0,0,0,0,0,0,0,0,0,0,0,0,0,0,0,0,0,0,0,0,0,0,0,0,0,0,0,0,0,0,0,0,0,0,0,0,0,0,0,0,0,0,0,0,0,0,0,0,0,0,0,0,0,0,0,0,0,0,0,0,0,0,0,0,0,0,0,0,0,0,0,0,0,0,0,0,0,0,0,0,0,0,0,0,0,0,0,0,0,0,0,0,0,0,0,0,0,0,0,0,0,0,0,0,0,0,0,0,0,0,0,0,0,0,0,0,0,0,0,0,0,0,0,0,0,0,0,0,0,0,0,0,0,0,0,0,0,0,0,0,0,0,0,0,0,0,0,0,0,0,0,0,0,0,0,0,0,0,0,0,0,0,0,0,0,0,0,0,0,0,0,0,0,0,0,0,0,0,0,0,0,0,0,0,0,0,0,0,0,0,0,0,0,0,0,0,0,0,0,0,0,0,0,0,0,0,0,0,0,0,0,0,0,0,0,0,0,0,0,0,0,0,0,0,0,0,0,0,0,0,0,0,0,0,0,0,0,0,0,0,0,0,0,0,0,0,0,0,0,0,0,0,0,0,0,0,0,0,0,0,0,0,0,0,0,0,0,0,0,0,0,0,0,0,0,0,0,0,0,0,0,0,0,0,0,0,0,0,0,0,0,0,0,0,0,0,0,0,0,0,0,0,0,0,0,0,0,0,0,0,0,0,0,0,0,0,0,0,0,0,0,0,0,0,0,0,0,0,0,0,0,0,0,0,0,0,0,0,0,0,0,0,0,0,0,0,0,0,0,0,0,0,0,0,0,0,0,0,0,0,0,0,0,0,0,0,0,0,0,0,0,0,0,0,0,0,0,0,0,0,0,0,0,0,0,0,0,0,0,0,0,0,0,0,0,0,0,0,0,0,0,0,0,0,0,0,0,0,0,0,0,0,0,0,0,0,0,0,0,0,0,0,0,0,0,0,0,0,0,0,0,0,0,0,0,0,0,0,0,0,0,0,0,0,0,0,0,0,0,0,0,0,0,0,0,0,0,0,0,0,0,0,0,0,0,0,0,0,0,0,0,0,0,0,0,0,0,0,0,0,0,0,0,0,0,0,0,0,0,0,0,0,0,0,0,0,0,0,0,0,0,0,0,0,0,0,0,0,0,0,0,0,0,0,0,0,0,0,0,0,0,0,0,0,0,0,0,0,0,0,0,0,0,0,0,0,0,0,0,0,0,0,0,0,0,0,0,0,0,0,0,0,0,0,0,0,0,0,0,0,0,0,0,0,0,0,0,0,0,0,0,0,0,0,0,0,0,0,0,0,0,0,0,0,0,0,0,0,0,0,0,0,0,0,0,0,0,0,0,0,0,0,0,0,0,0,0,0,0,0,0,0,0,0,0,0,0,0,0,0,0,0,0,0,0,0,0,0,0,0,0,0,0,0,0,0,0,0,0,0,0,0,0,0,0,0,0,0,0,0,0,0,0,0,0,0,0,0,0,0,0,0,0,0,0,0,0,0,0,0,0,0,0,0,0,0,0,0,0,0,0,0,0,0,0,0,0,0,0,0,0,0,0,0,0,0,0,0,0,0,0,0,0,0,0,0,0,0,0,0,0,0,0,0,0,0,0,0,0,0,0,0,0,0,0,0,0,0,0,0,0,0,0,0,0,0,0,0,0,0,0,0,0,0,0,0,0,0,0,0,0,0,0,0,0,0,0,0,0,0,0,0,0,0,0,0,0,0,0,0,0,0,0,0,0,0,0,0,0,0,0,0,0,0,0,0,0,0,0,0,0,0,0,0,0,0,0,0,0,0,0,0,0,0,0,0,0,0,0,0,0,0,0,0,0,0,0,0,0,0,0,0,0,0,0,0,0,0,0,0,0,0,0,0,0,0,0,0,0,0,0,0,0,0,0,0,0,0,0,0,0,0,0,0,0,0,0,0,0,0,0,0,0,0,0,0,0,0,0,0,0,0,0,0,0,0,0,0,0,0,0,0,0,0,0,0,0,0,0,0,0,0,0,0,0,0,0,0,0,0,0,0,0,0,0,0,0,0,0,0,0,0,0,0,0,0,0,0,0,0,0,0,0,0,0,0,0,0,0,0,0,0,0,0,0,0,0,0,0,0,0,0,0,0,0,0,0,0,0,0,0,0,0,0,0,0,0,0,0,0,0,0,
0,0,0,0,0,0,0,0,0,0,0,0,0,0,0,0,0,0,0,0,0,0,0,0,0,0,0,0,0,0,0,0,0,0,0,0,0,0,0,0,0,0,0,0,0,0,0,0,0,0,0,0,0,0,0,0,0,0,0,0,0,0,0,0,0,0,0,0,0,0,0,0,0,0,0,0,0,0,0,0,0,0,0,0,0,0,0,0,0,0,0,0,0,0,0,0,0,0,0,0,0,0,0,0,0,0,0,0,0,0,0,0,0,0,0,0,0,0,0,0,0,0,0,0,0,0,0,0,0,0,0,0,0,0,0,0,0,0,0,0,0,0,0,0,0,0,0,0,0,0,0,0,0,0,0,0,0,0,0,0,0,0,0,0,0,0,0,0,0,0,0,0,0,0,0,0,0,0,0,0,0,0,0,0,0,0,0,0,0,0,0,0,0,0,0,0,0,0,0,0,0,0,0,0,0,0,0,0,0,0,0,0,0,0,0,0,0,0,0,0,0,0,0,0,0,0,0,0,0,0,0,0,0,0,0,0,0,0,0,0,0,0,0,0,0,0,0,0,0,0,0,0,0,0,0,0,0,0,0,0,0,0,0,0,0,0,0,0,0,0,0,0,0,0,0,0,0,0,0,0,0,0,0,0,0,0,0,0,0,0,0,0,0,0,0,0,0,0,0,0,0,0,0,0,0,0,0,0,0,0,0,0,0,0,0,0,0,0,0,0,0,0,0,0,0,0,0,0,0,0,0,0,0,0,0,0,0,0,0,0,0,0,0,0,0,0,0,0,0,0,0,0,0,0,0,0,0,0,0,0,0,0,0,0,0,0,0,0,0,0,0,0,0,0,0,0,0,0,0,0,0,0,0,0,0,0,0,0,0,0,0,0,0,0,0,0,0,0,0,0,0,0,0,0,0,0,0,0,0,0,0,0,0,0,0,0,0,0,0,0,0,0,0,0,0,0,0,0,0,0,0,0,0,0,0,0,0,0,0,0,0,0,0,0,0,0,0,0,0,0,0,0,0,0,0,0,0,0,0,0,0,0,0,0,0,0,0,0,0,0,0,0,0,0,0,0,0,0,0,0,0,0,0,0,0,0,0,0,0,0,0,0,0,0,0,0,0,0,0,0,0,0,0,0,0,0,0,0,0,0,0,0,0,0,0,0,0,0,0,0,0,0,0,0,0,0,0,0,0,0,0,0,0,0,0,0,0,0,0,0,0,0,0,0,0,0,0,0,0,0,0,0,0,0,0,0,0,0,0,0,0,0,0,0,0,0,0,0,0,0,0,0,0,0,0,0,0,0,0,0,0,0,0,0,0,0,0,0,0,0,0,0,0,0,0,0,0,0,0,0,0,0,0,0,0,0,0,0,0,0,0,0,0,0,0,0,0,0,0,0,0,0,0,0,0,0,0,0,0,0,0,0,0,0,0,0,0,0,0,0,0,0,0,0,0,0,0,0,0,0,0,0,0,0,0,0,0,0,0,0,0,0,0,0,0,0,0,0,0,0,0,0,0,0,0,0,0,0,0,0,0,0,0,0,0,0,0,0,0,0,0,0,0,0,0,0,0,0,0,0,0,0,0,0,0,0,0,0,0,0,0,0,0,0,0,0,0,0,0,0,0,0,0,0,0,0,0,0,0,0,0,0,0,0,0,0,0,0,0,0,0,0,0,0,0,0,0,0,0,0,0,0,0,0,0,0,0,0,0,0,0,0,0,0,0,0,0,0,0,0,0,0,0,0,0,0,0,0,0,0,0,0,0,0,0,0,0,0,0,0,0,0,0,0,0,0,0,0,0,0,0,0,0,0,0,0,0,0,0,0,0,0,0,0,0,0,0,0,0,0,0,0,0,0,0,0,0,0,0,0,0,0,0,0,0,0,0,0,0,0,0,0,0,0,0,0,0,0,0,0,0,0,0,0,0,0,0,0,0,0,0,0,0,0,0,0,0,0,0,0,0,0,0,0,0,0,0,0,0,0,0,0,0,0,0,0,0,0,0,0,0,0,0,0,0,0,0,0,0,0,0,0,0,0,0,0,0,0,0,0,0,0,0,0,0,0,0,0,0,0,0,0,0,0,0,0,0,0,0,0,0,0,0,0,0,0,0,0,0,0,0,0,0,0,0,0,0,0,0,0,0,0,0,0,0,0,0,0,0,0,0,0,0,0,0,0,0,0,0,0,0,0,0,0,0,0,0,0,0,0,0,0,0,0,0,0,0,0,0,0,0,0,0,0,0,0,0,0,0,0,
0,0,0,0,0,0,0,0,0,0,0,0,0,0,0,0,0,0,0,0,0,0,0,0,0,0,0,0,0,0,0,0,0,0,0,0,0,0,0,0,0,0,0,0,0,0,0,0,0,0,0,0,0,0,0,0,0,0,0,0,0,0,0,0,0,0,0,0,0,0,0,0,0,0,0,0,0,0,0,0,0,0,0,0,0,0,0,0,0,0,0,0,0,0,0,0,0,0,0,0,0,0,0,0,0,0,0,0,0,0,0,0,0,0,0,0,0,0,0,0,0,0,0,0,0,0,0,0,0,0,0,0,0,0,0,0,0,0,0,0,0,0,0,0,0,0,0,0,0,0,0,0,0,0,0,0,0,0,0,0,0,0,0,0,0,0,0,0,0,0,0,0,0,0,0,0,0,0,0,0,0,0,0,0,0,0,0,0,0,0,0,0,0,0,0,0,0,0,0,0,0,0,0,0,0,0,0,0,0,0,0,0,0,0,0,0,0,0,0,0,0,0,0,0,0,0,0,0,0,0,0,0,0,0,0,0,0,0,0,0,0,0,0,0,0,0,0,0,0,0,0,0,0,0,0,0,0,0,0,0,0,0,0,0,0,0,0,0,0,0,0,0,0,0,0,0,0,0,0,0,0,0,0,0,0,0,0,0,0,0,0,0,0,0,0,0,0,0,0,0,0,0,0,0,0,0,0,0,0,0,0,0,0,0,0,0,0,0,0,0,0,0,0,0,0,0,0,0,0,0,0,0,0,0,0,0,0,0,0,0,0,0,0,0,0,0,0,0,0,0,0,0,0,0,0,0,0,0,0,0,0,0,0,0,0,0,0,0,0,0,0,0,0,0,0,0,0,0,0,0,0,0,0,0,0,0,0,0,0,0,0,0,0,0,0,0,0,0,0,0,0,0,0,0,0,0,0,0,0,0,0,0,0,0,0,0,0,0,0,0,0,0,0,0,0,0,0,0,0,0,0,0,0,0,0,0,0,0,0,0,0,0,0,0,0,0,0,0,0,0,0,0,0,0,0,0,0,0,0,0,0,0,0,0,0,0,0,0,0,0,0,0,0,0,0,0,0,0,0,0,0,0,0,0,0,0,0,0,0,0,0,0,0,0,0,0,0,0,0,0,0,0,0,0,0,0,0,0,0,0,0,0,0,0,0,0,0,0,0,0,0,0,0,0,0,0,0,0,0,0,0,0,0,0,0,0,0,0,0,0,0,0,0,0,0,0,0,0,0,0,0,0,0,0,0,0,0,0,0,0,0,0,0,0,0,0,0,0,0,0,0,0,0,0,0,0,0,0,0,0,0,0,0,0,0,0,0,0,0,0,0,0,0,0,0,0,0,0,0,0,0,0,0,0,0,0,0,0,0,0,0,0,0,0,0,0,0,0,0,0,0,0,0,0,0,0,0,0,0,0,0,0,0,0,0,0,0,0,0,0,0,0,0,0,0,0,0,0,0,0,0,0,0,0,0,0,0,0,0,0,0,0,0,0,0,0,0,0,0,0,0,0,0,0,0,0,0,0,0,0,0,0,0,0,0,0,0,0,0,0,0,0,0,0,0,0,0,0,0,0,0,0,0,0,0,0,0,0,0,0,0,0,0,0,0,0,0,0,0,0,0,0,0,0,0,0,0,0,0,0,0,0,0,0,0,0,0,0,0,0,0,0,0,0,0,0,0,0,0,0,0,0,0,0,0,0,0,0,0,0,0,0,0,0,0,0,0,0,0,0,0,0,0,0,0,0,0,0,0,0,0,0,0,0,0,0,0,0,0,0,0,0,0,0,0,0,0,0,0,0,0,0,0,0,0,0,0,0,0,0,0,0,0,0,0,0,0,0,0,0,0,0,0,0,0,0,0,0,0,0,0,0,0,0,0,0,0,0,0,0,0,0,0,0,0,0,0,0,0,0,0,0,0,0,0,0,0,0,0,0,0,0,0,0,0,0,0,0,0,0,0,0,0,0,0,0,0,0,0,0,0,0,0,0,0,0,0,0,0,0,0,0,0,0,0,0,0,0,0,0,0,0,0,0,0,0,0,0,0,0,0,0,0,0,0,0,0,0,0,0,0,0,0,0,0,0,0,0,0,0,0,0,0,0,0,0,0,0,0,0,0,0,0,0,0,0,0,0,0,0,0,0,0,0,0,0,0,0,0,0,0,0,0,0,0,0,0,0,0,0,0,0,0,0,0,0,0,0,0,0,0,0,0,0,0,0,0,0,0,0,0,0,0,0,0,0,0,0,0,0,
0,0,0,0,0,0,0,0,0,0,0,0,0,0,0,0,0,0,0,0,0,0,0,0,0,0,0,0,0,0,0,0,0,0,0,0,0,0,0,0,0,0,0,0,0,0,0,0,0,0,0,0,0,0,0,0,0,0,0,0,0,0,0,0,0,0,0,0,0,0,0,0,0,0,0,0,0,0,0,0,0,0,0,0,0,0,0,0,0,0,0,0,0,0,0,0,0,0,0,0,0,0,0,0,0,0,0,0,0,0,0,0,0,0,0,0,0,0,0,0,0,0,0,0,0,0,0,0,0,0,0,0,0,0,0,0,0,0,0,0,0,0,0,0,0,0,0,0,0,0,0,0,0,0,0,0,0,0,0,0,0,0,0,0,0,0,0,0,0,0,0,0,0,0,0,0,0,0,0,0,0,0,0,0,0,0,0,0,0,0,0,0,0,0,0,0,0,0,0,0,0,0,0,0,0,0,0,0,0,0,0,0,0,0,0,0,0,0,0,0,0,0,0,0,0,0,0,0,0,0,0,0,0,0,0,0,0,0,0,0,0,0,0,0,0,0,0,0,0,0,0,0,0,0,0,0,0,0,0,0,0,0,0,0,0,0,0,0,0,0,0,0,0,0,0,0,0,0,0,0,0,0,0,0,0,0,0,0,0,0,0,0,0,0,0,0,0,0,0,0,0,0,0,0,0,0,0,0,0,0,0,0,0,0,0,0,0,0,0,0,0,0,0,0,0,0,0,0,0,0,0,0,0,0,0,0,0,0,0,0,0,0,0,0,0,0,0,0,0,0,0,0,0,0,0,0,0,0,0,0,0,0,0,0,0,0,0,0,0,0,0,0,0,0,0,0,0,0,0,0,0,0,0,0,0,0,0,0,0,0,0,0,0,0,0,0,0,0,0,0,0,0,0,0,0,0,0,0,0,0,0,0,0,0,0,0,0,0,0,0,0,0,0,0,0,0,0,0,0,0,0,0,0,0,0,0,0,0,0,0,0,0,0,0,0,0,0,0,0,0,0,0,0,0,0,0,0,0,0,0,0,0,0,0,0,0,0,0,0,0,0,0,0,0,0,0,0,0,0,0,0,0,0,0,0,0,0,0,0,0,0,0,0,0,0,0,0,0,0,0,0,0,0,0,0,0,0,0,0,0,0,0,0,0,0,0,0,0,0,0,0,0,0,0,0,0,0,0,0,0,0,0,0,0,0,0,0,0,0,0,0,0,0,0,0,0,0,0,0,0,0,0,0,0,0,0,0,0,0,0,0,0,0,0,0,0,0,0,0,0,0,0,0,0,0,0,0,0,0,0,0,0,0,0,0,0,0,0,0,0,0,0,0,0,0,0,0,0,0,0,0,0,0,0,0,0,0,0,0,0,0,0,0,0,0,0,0,0,0,0,0,0,0,0,0,0,0,0,0,0,0,0,0,0,0,0,0,0,0,0,0,0,0,0,0,0,0,0,0,0,0,0,0,0,0,0,0,0,0,0,0,0,0,0,0,0,0,0,0,0,0,0,0,0,0,0,0,0,0,0,0,0,0,0,0,0,0,0,0,0,0,0,0,0,0,0,0,0,0,0,0,0,0,0,0,0,0,0,0,0,0,0,0,0,0,0,0,0,0,0,0,0,0,0,0,0,0,0,0,0,0,0,0,0,0,0,0,0,0,0,0,0,0,0,0,0,0,0,0,0,0,0,0,0,0,0,0,0,0,0,0,0,0,0,0,0,0,0,0,0,0,0,0,0,0,0,0,0,0,0,0,0,0,0,0,0,0,0,0,0,0,0,0,0,0,0,0,0,0,0,0,0,0,0,0,0,0,0,0,0,0,0,0,0,0,0,0,0,0,0,0,0,0,0,0,0,0,0,0,0,0,0,0,0,0,0,0,0,0,0,0,0,0,0,0,0,0,0,0,0,0,0,0,0,0,0,0,0,0,0,0,0,0,0,0,0,0,0,0,0,0,0,0,0,0,0,0,0,0,0,0,0,0,0,0,0,0,0,0,0,0,0,0,0,0,0,0,0,0,0,0,0,0,0,0,0,0,0,0,0,0,0,0,0,0,0,0,0,0,0,0,0,0,0,0,0,0,0,0,0,0,0,0,0,0,0,0,0,0,0,0,0,0,0,0,0,0,0,0,0,0,0,0,0,0,0,0,0,0,0,0,0,0,0,0,0,0,0,0,0,0,0,0,0,0,0,0,0,0,0,0,0,0,0,0,0,0,0,0,0,0,0,0,0,0,0,0,0,0,0,
0,0,0,0,0,0,0,0,0,0,0,0,0,0,0,0,0,0,0,0,0,0,0,0,0,0,0,0,0,0,0,0,0,0,0,0,0,0,0,0,0,0,0,0,0,0,0,0,0,0,0,0,0,0,0,0,0,0,0,0,0,0,0,0,0,0,0,0,0,0,0,0,0,0,0,0,0,0,0,0,0,0,0,0,0,0,0,0,0,0,0,0,0,0,0,0,0,0,0,0,0,0,0,0,0,0,0,0,0,0,0,0,0,0,0,0,0,0,0,0,0,0,0,0,0,0,0,0,0,0,0,0,0,0,0,0,0,0,0,0,0,0,0,0,0,0,0,0,0,0,0,0,0,0,0,0,0,0,0,0,0,0,0,0,0,0,0,0,0,0,0,0,0,0,0,0,0,0,0,0,0,0,0,0,0,0,0,0,0,0,0,0,0,0,0,0,0,0,0,0,0,0,0,0,0,0,0,0,0,0,0,0,0,0,0,0,0,0,0,0,0,0,0,0,0,0,0,0,0,0,0,0,0,0,0,0,0,0,0,0,0,0,0,0,0,0,0,0,0,0,0,0,0,0,0,0,0,0,0,0,0,0,0,0,0,0,0,0,0,0,0,0,0,0,0,0,0,0,0,0,0,0,0,0,0,0,0,0,0,0,0,0,0,0,0,0,0,0,0,0,0,0,0,0,0,0,0,0,0,0,0,0,0,0,0,0,0,0,0,0,0,0,0,0,0,0,0,0,0,0,0,0,0,0,0,0,0,0,0,0,0,0,0,0,0,0,0,0,0,0,0,0,0,0,0,0,0,0,0,0,0,0,0,0,0,0,0,0,0,0,0,0,0,0,0,0,0,0,0,0,0,0,0,0,0,0,0,0,0,0,0,0,0,0,0,0,0,0,0,0,0,0,0,0,0,0,0,0,0,0,0,0,0,0,0,0,0,0,0,0,0,0,0,0,0,0,0,0,0,0,0,0,0,0,0,0,0,0,0,0,0,0,0,0,0,0,0,0,0,0,0,0,0,0,0,0,0,0,0,0,0,0,0,0,0,0,0,0,0,0,0,0,0,0,0,0,0,0,0,0,0,0,0,0,0,0,0,0,0,0,0,0,0,0,0,0,0,0,0,0,0,0,0,0,0,0,0,0,0,0,0,0,0,0,0,0,0,0,0,0,0,0,0,0,0,0,0,0,0,0,0,0,0,0,0,0,0,0,0,0,0,0,0,0,0,0,0,0,0,0,0,0,0,0,0,0,0,0,0,0,0,0,0,0,0,0,0,0,0,0,0,0,0,0,0,0,0,0,0,0,0,0,0,0,0,0,0,0,0,0,0,0,0,0,0,0,0,0,0,0,0,0,0,0,0,0,0,0,0,0,0,0,0,0,0,0,0,0,0,0,0,0,0,0,0,0,0,0,0,0,0,0,0,0,0,0,0,0,0,0,0,0,0,0,0,0,0,0,0,0,0,0,0,0,0,0,0,0,0,0,0,0,0,0,0,0,0,0,0,0,0,0,0,0,0,0,0,0,0,0,0,0,0,0,0,0,0,0,0,0,0,0,0,0,0,0,0,0,0,0,0,0,0,0,0,0,0,0,0,0,0,0,0,0,0,0,0,0,0,0,0,0,0,0,0,0,0,0,0,0,0,0,0,0,0,0,0,0,0,0,0,0,0,0,0,0,0,0,0,0,0,0,0,0,0,0,0,0,0,0,0,0,0,0,0,0,0,0,0,0,0,0,0,0,0,0,0,0,0,0,0,0,0,0,0,0,0,0,0,0,0,0,0,0,0,0,0,0,0,0,0,0,0,0,0,0,0,0,0,0,0,0,0,0,0,0,0,0,0,0,0,0,0,0,0,0,0,0,0,0,0,0,0,0,0,0,0,0,0,0,0,0,0,0,0,0,0,0,0,0,0,0,0,0,0,0,0,0,0,0,0,0,0,0,0,0,0,0,0,0,0,0,0,0,0,0,0,0,0,0,0,0,0,0,0,0,0,0,0,0,0,0,0,0,0,0,0,0,0,0,0,0,0,0,0,0,0,0,0,0,0,0,0,0,0,0,0,0,0,0,0,0,0,0,0,0,0,0,0,0,0,0,0,0,0,0,0,0,0,0,0,0,0,0,0,0,0,0,0,0,0,0,0,0,0,0,0,0,0,0,0,0,0,0,0,0,0,0,0,0,0,0,0,0,0,0,0,0,0,0,0,0,0,0,0,0,0,0,0,0,0,0,0,0,0,0,0,0,0,0,
0,0,0,0,0,0,0,0,0,0,0,0,0,0,0,0,0,0,0,0,0,0,0,0,0,0,0,0,0,0,0,0,0,0,0,0,0,0,0,0,0,0,0,0,0,0,0,0,0,0,0,0,0,0,0,0,0,0,0,0,0,0,0,0,0,0,0,0,0,0,0,0,0,0,0,0,0,0,0,0,0,0,0,0,0,0,0,0,0,0,0,0,0,0,0,0,0,0,0,0,0,0,0,0,0,0,0,0,0,0,0,0,0,0,0,0,0,0,0,0,0,0,0,0,0,0,0,0,0,0,0,0,0,0,0,0,0,0,0,0,0,0,0,0,0,0,0,0,0,0,0,0,0,0,0,0,0,0,0,0,0,0,0,0,0,0,0,0,0,0,0,0,0,0,0,0,0,0,0,0,0,0,0,0,0,0,0,0,0,0,0,0,0,0,0,0,0,0,0,0,0,0,0,0,0,0,0,0,0,0,0,0,0,0,0,0,0,0,0,0,0,0,0,0,0,0,0,0,0,0,0,0,0,0,0,0,0,0,0,0,0,0,0,0,0,0,0,0,0,0,0,0,0,0,0,0,0,0,0,0,0,0,0,0,0,0,0,0,0,0,0,0,0,0,0,0,0,0,0,0,0,0,0,0,0,0,0,0,0,0,0,0,0,0,0,0,0,0,0,0,0,0,0,0,0,0,0,0,0,0,0,0,0,0,0,0,0,0,0,0,0,0,0,0,0,0,0,0,0,0,0,0,0,0,0,0,0,0,0,0,0,0,0,0,0,0,0,0,0,0,0,0,0,0,0,0,0,0,0,0,0,0,0,0,0,0,0,0,0,0,0,0,0,0,0,0,0,0,0,0,0,0,0,0,0,0,0,0,0,0,0,0,0,0,0,0,0,0,0,0,0,0,0,0,0,0,0,0,0,0,0,0,0,0,0,0,0,0,0,0,0,0,0,0,0,0,0,0,0,0,0,0,0,0,0,0,0,0,0,0,0,0,0,0,0,0,0,0,0,0,0,0,0,0,0,0,0,0,0,0,0,0,0,0,0,0,0,0,0,0,0,0,0,0,0,0,0,0,0,0,0,0,0,0,0,0,0,0,0,0,0,0,0,0,0,0,0,0,0,0,0,0,0,0,0,0,0,0,0,0,0,0,0,0,0,0,0,0,0,0,0,0,0,0,0,0,0,0,0,0,0,0,0,0,0,0,0,0,0,0,0,0,0,0,0,0,0,0,0,0,0,0,0,0,0,0,0,0,0,0,0,0,0,0,0,0,0,0,0,0,0,0,0,0,0,0,0,0,0,0,0,0,0,0,0,0,0,0,0,0,0,0,0,0,0,0,0,0,0,0,0,0,0,0,0,0,0,0,0,0,0,0,0,0,0,0,0,0,0,0,0,0,0,0,0,0,0,0,0,0,0,0,0,0,0,0,0,0,0,0,0,0,0,0,0,0,0,0,0,0,0,0,0,0,0,0,0,0,0,0,0,0,0,0,0,0,0,0,0,0,0,0,0,0,0,0,0,0,0,0,0,0,0,0,0,0,0,0,0,0,0,0,0,0,0,0,0,0,0,0,0,0,0,0,0,0,0,0,0,0,0,0,0,0,0,0,0,0,0,0,0,0,0,0,0,0,0,0,0,0,0,0,0,0,0,0,0,0,0,0,0,0,0,0,0,0,0,0,0,0,0,0,0,0,0,0,0,0,0,0,0,0,0,0,0,0,0,0,0,0,0,0,0,0,0,0,0,0,0,0,0,0,0,0,0,0,0,0,0,0,0,0,0,0,0,0,0,0,0,0,0,0,0,0,0,0,0,0,0,0,0,0,0,0,0,0,0,0,0,0,0,0,0,0,0,0,0,0,0,0,0,0,0,0,0,0,0,0,0,0,0,0,0,0,0,0,0,0,0,0,0,0,0,0,0,0,0,0,0,0,0,0,0,0,0,0,0,0,0,0,0,0,0,0,0,0,0,0,0,0,0,0,0,0,0,0,0,0,0,0,0,0,0,0,0,0,0,0,0,0,0,0,0,0,0,0,0,0,0,0,0,0,0,0,0,0,0,0,0,0,0,0,0,0,0,0,0,0,0,0,0,0,0,0,0,0,0,0,0,0,0,0,0,0,0,0,0,0,0,0,0,0,0,0,0,0,0,0,0,0,0,0,0,0,0,0,0,0,0,0,0,0,0,0,0,0,0,0,0,0,0,0,0,0,0,0,0,0,0,0,0,0,0,0,0,0,0,0,0,0,
0,0,0,0,0,0,0,0,0,0,0,0,0,0,0,0,0,0,0,0,0,0,0,0,0,0,0,0,0,0,0,0,0,0,0,0,0,0,0,0,0,0,0,0,0,0,0,0,0,0,0,0,0,0,0,0,0,0,0,0,0,0,0,0,0,0,0,0,0,0,0,0,0,0,0,0,0,0,0,0,0,0,0,0,0,0,0,0,0,0,0,0,0,0,0,0,0,0,0,0,0,0,0,0,0,0,0,0,0,0,0,0,0,0,0,0,0,0,0,0,0,0,0,0,0,0,0,0,0,0,0,0,0,0,0,0,0,0,0,0,0,0,0,0,0,0,0,0,0,0,0,0,0,0,0,0,0,0,0,0,0,0,0,0,0,0,0,0,0,0,0,0,0,0,0,0,0,0,0,0,0,0,0,0,0,0,0,0,0,0,0,0,0,0,0,0,0,0,0,0,0,0,0,0,0,0,0,0,0,0,0,0,0,0,0,0,0,0,0,0,0,0,0,0,0,0,0,0,0,0,0,0,0,0,0,0,0,0,0,0,0,0,0,0,0,0,0,0,0,0,0,0,0,0,0,0,0,0,0,0,0,0,0,0,0,0,0,0,0,0,0,0,0,0,0,0,0,0,0,0,0,0,0,0,0,0,0,0,0,0,0,0,0,0,0,0,0,0,0,0,0,0,0,0,0,0,0,0,0,0,0,0,0,0,0,0,0,0,0,0,0,0,0,0,0,0,0,0,0,0,0,0,0,0,0,0,0,0,0,0,0,0,0,0,0,0,0,0,0,0,0,0,0,0,0,0,0,0,0,0,0,0,0,0,0,0,0,0,0,0,0,0,0,0,0,0,0,0,0,0,0,0,0,0,0,0,0,0,0,0,0,0,0,0,0,0,0,0,0,0,0,0,0,0,0,0,0,0,0,0,0,0,0,0,0,0,0,0,0,0,0,0,0,0,0,0,0,0,0,0,0,0,0,0,0,0,0,0,0,0,0,0,0,0,0,0,0,0,0,0,0,0,0,0,0,0,0,0,0,0,0,0,0,0,0,0,0,0,0,0,0,0,0,0,0,0,0,0,0,0,0,0,0,0,0,0,0,0,0,0,0,0,0,0,0,0,0,0,0,0,0,0,0,0,0,0,0,0,0,0,0,0,0,0,0,0,0,0,0,0,0,0,0,0,0,0,0,0,0,0,0,0,0,0,0,0,0,0,0,0,0,0,0,0,0,0,0,0,0,0,0,0,0,0,0,0,0,0,0,0,0,0,0,0,0,0,0,0,0,0,0,0,0,0,0,0,0,0,0,0,0,0,0,0,0,0,0,0,0,0,0,0,0,0,0,0,0,0,0,0,0,0,0,0,0,0,0,0,0,0,0,0,0,0,0,0,0,0,0,0,0,0,0,0,0,0,0,0,0,0,0,0,0,0,0,0,0,0,0,0,0,0,0,0,0,0,0,0,0,0,0,0,0,0,0,0,0,0,0,0,0,0,0,0,0,0,0,0,0,0,0,0,0,0,0,0,0,0,0,0,0,0,0,0,0,0,0,0,0,0,0,0,0,0,0,0,0,0,0,0,0,0,0,0,0,0,0,0,0,0,0,0,0,0,0,0,0,0,0,0,0,0,0,0,0,0,0,0,0,0,0,0,0,0,0,0,0,0,0,0,0,0,0,0,0,0,0,0,0,0,0,0,0,0,0,0,0,0,0,0,0,0,0,0,0,0,0,0,0,0,0,0,0,0,0,0,0,0,0,0,0,0,0,0,0,0,0,0,0,0,0,0,0,0,0,0,0,0,0,0,0,0,0,0,0,0,0,0,0,0,0,0,0,0,0,0,0,0,0,0,0,0,0,0,0,0,0,0,0,0,0,0,0,0,0,0,0,0,0,0,0,0,0,0,0,0,0,0,0,0,0,0,0,0,0,0,0,0,0,0,0,0,0,0,0,0,0,0,0,0,0,0,0,0,0,0,0,0,0,0,0,0,0,0,0,0,0,0,0,0,0,0,0,0,0,0,0,0,0,0,0,0,0,0,0,0,0,0,0,0,0,0,0,0,0,0,0,0,0,0,0,0,0,0,0,0,0,0,0,0,0,0,0,0,0,0,0,0,0,0,0,0,0,0,0,0,0,0,0,0,0,0,0,0,0,0,0,0,0,0,0,0,0,0,0,0,0,0,0,0,0,0,0,0,0,0,0,0,0,0,0,0,0,0,0,0,0,0,0,0,0,0,0,0,0,0,0,0,0,0,
0,0,0,0,0,0,0,0,0,0,0,0,0,0,0,0,0,0,0,0,0,0,0,0,0,0,0,0,0,0,0,0,0,0,0,0,0,0,0,0,0,0,0,0,0,0,0,0,0,0,0,0,0,0,0,0,0,0,0,0,0,0,0,0,0,0,0,0,0,0,0,0,0,0,0,0,0,0,0,0,0,0,0,0,0,0,0,0,0,0,0,0,0,0,0,0,0,0,0,0,0,0,0,0,0,0,0,0,0,0,0,0,0,0,0,0,0,0,0,0,0,0,0,0,0,0,0,0,0,0,0,0,0,0,0,0,0,0,0,0,0,0,0,0,0,0,0,0,0,0,0,0,0,0,0,0,0,0,0,0,0,0,0,0,0,0,0,0,0,0,0,0,0,0,0,0,0,0,0,0,0,0,0,0,0,0,0,0,0,0,0,0,0,0,0,0,0,0,0,0,0,0,0,0,0,0,0,0,0,0,0,0,0,0,0,0,0,0,0,0,0,0,0,0,0,0,0,0,0,0,0,0,0,0,0,0,0,0,0,0,0,0,0,0,0,0,0,0,0,0,0,0,0,0,0,0,0,0,0,0,0,0,0,0,0,0,0,0,0,0,0,0,0,0,0,0,0,0,0,0,0,0,0,0,0,0,0,0,0,0,0,0,0,0,0,0,0,0,0,0,0,0,0,0,0,0,0,0,0,0,0,0,0,0,0,0,0,0,0,0,0,0,0,0,0,0,0,0,0,0,0,0,0,0,0,0,0,0,0,0,0,0,0,0,0,0,0,0,0,0,0,0,0,0,0,0,0,0,0,0,0,0,0,0,0,0,0,0,0,0,0,0,0,0,0,0,0,0,0,0,0,0,0,0,0,0,0,0,0,0,0,0,0,0,0,0,0,0,0,0,0,0,0,0,0,0,0,0,0,0,0,0,0,0,0,0,0,0,0,0,0,0,0,0,0,0,0,0,0,0,0,0,0,0,0,0,0,0,0,0,0,0,0,0,0,0,0,0,0,0,0,0,0,0,0,0,0,0,0,0,0,0,0,0,0,0,0,0,0,0,0,0,0,0,0,0,0,0,0,0,0,0,0,0,0,0,0,0,0,0,0,0,0,0,0,0,0,0,0,0,0,0,0,0,0,0,0,0,0,0,0,0,0,0,0,0,0,0,0,0,0,0,0,0,0,0,0,0,0,0,0,0,0,0,0,0,0,0,0,0,0,0,0,0,0,0,0,0,0,0,0,0,0,0,0,0,0,0,0,0,0,0,0,0,0,0,0,0,0,0,0,0,0,0,0,0,0,0,0,0,0,0,0,0,0,0,0,0,0,0,0,0,0,0,0,0,0,0,0,0,0,0,0,0,0,0,0,0,0,0,0,0,0,0,0,0,0,0,0,0,0,0,0,0,0,0,0,0,0,0,0,0,0,0,0,0,0,0,0,0,0,0,0,0,0,0,0,0,0,0,0,0,0,0,0,0,0,0,0,0,0,0,0,0,0,0,0,0,0,0,0,0,0,0,0,0,0,0,0,0,0,0,0,0,0,0,0,0,0,0,0,0,0,0,0,0,0,0,0,0,0,0,0,0,0,0,0,0,0,0,0,0,0,0,0,0,0,0,0,0,0,0,0,0,0,0,0,0,0,0,0,0,0,0,0,0,0,0,0,0,0,0,0,0,0,0,0,0,0,0,0,0,0,0,0,0,0,0,0,0,0,0,0,0,0,0,0,0,0,0,0,0,0,0,0,0,0,0,0,0,0,0,0,0,0,0,0,0,0,0,0,0,0,0,0,0,0,0,0,0,0,0,0,0,0,0,0,0,0,0,0,0,0,0,0,0,0,0,0,0,0,0,0,0,0,0,0,0,0,0,0,0,0,0,0,0,0,0,0,0,0,0,0,0,0,0,0,0,0,0,0,0,0,0,0,0,0,0,0,0,0,0,0,0,0,0,0,0,0,0,0,0,0,0,0,0,0,0,0,0,0,0,0,0,0,0,0,0,0,0,0,0,0,0,0,0,0,0,0,0,0,0,0,0,0,0,0,0,0,0,0,0,0,0,0,0,0,0,0,0,0,0,0,0,0,0,0,0,0,0,0,0,0,0,0,0,0,0,0,0,0,0,0,0,0,0,0,0,0,0,0,0,0,0,0,0,0,0,0,0,0,0,0,0,0,0,0,0,0,0,0,0,0,0,0,0,0,0,0,0,0,0,0,0,0,0,0,0,0,0,0,0,0,0,0,0,0,0,0,0,
0,0,0,0,0,0,0,0,0,0,0,0,0,0,0,0,0,0,0,0,0,0,0,0,0,0,0,0,0,0,0,0,0,0,0,0,0,0,0,0,0,0,0,0,0,0,0,0,0,0,0,0,0,0,0,0,0,0,0,0,0,0,0,0,0,0,0,0,0,0,0,0,0,0,0,0,0,0,0,0,0,0,0,0,0,0,0,0,0,0,0,0,0,0,0,0,0,0,0,0,0,0,0,0,0,0,0,0,0,0,0,0,0,0,0,0,0,0,0,0,0,0,0,0,0,0,0,0,0,0,0,0,0,0,0,0,0,0,0,0,0,0,0,0,0,0,0,0,0,0,0,0,0,0,0,0,0,0,0,0,0,0,0,0,0,0,0,0,0,0,0,0,0,0,0,0,0,0,0,0,0,0,0,0,0,0,0,0,0,0,0,0,0,0,0,0,0,0,0,0,0,0,0,0,0,0,0,0,0,0,0,0,0,0,0,0,0,0,0,0,0,0,0,0,0,0,0,0,0,0,0,0,0,0,0,0,0,0,0,0,0,0,0,0,0,0,0,0,0,0,0,0,0,0,0,0,0,0,0,0,0,0,0,0,0,0,0,0,0,0,0,0,0,0,0,0,0,0,0,0,0,0,0,0,0,0,0,0,0,0,0,0,0,0,0,0,0,0,0,0,0,0,0,0,0,0,0,0,0,0,0,0,0,0,0,0,0,0,0,0,0,0,0,0,0,0,0,0,0,0,0,0,0,0,0,0,0,0,0,0,0,0,0,0,0,0,0,0,0,0,0,0,0,0,0,0,0,0,0,0,0,0,0,0,0,0,0,0,0,0,0,0,0,0,0,0,0,0,0,0,0,0,0,0,0,0,0,0,0,0,0,0,0,0,0,0,0,0,0,0,0,0,0,0,0,0,0,0,0,0,0,0,0,0,0,0,0,0,0,0,0,0,0,0,0,0,0,0,0,0,0,0,0,0,0,0,0,0,0,0,0,0,0,0,0,0,0,0,0,0,0,0,0,0,0,0,0,0,0,0,0,0,0,0,0,0,0,0,0,0,0,0,0,0,0,0,0,0,0,0,0,0,0,0,0,0,0,0,0,0,0,0,0,0,0,0,0,0,0,0,0,0,0,0,0,0,0,0,0,0,0,0,0,0,0,0,0,0,0,0,0,0,0,0,0,0,0,0,0,0,0,0,0,0,0,0,0,0,0,0,0,0,0,0,0,0,0,0,0,0,0,0,0,0,0,0,0,0,0,0,0,0,0,0,0,0,0,0,0,0,0,0,0,0,0,0,0,0,0,0,0,0,0,0,0,0,0,0,0,0,0,0,0,0,0,0,0,0,0,0,0,0,0,0,0,0,0,0,0,0,0,0,0,0,0,0,0,0,0,0,0,0,0,0,0,0,0,0,0,0,0,0,0,0,0,0,0,0,0,0,0,0,0,0,0,0,0,0,0,0,0,0,0,0,0,0,0,0,0,0,0,0,0,0,0,0,0,0,0,0,0,0,0,0,0,0,0,0,0,0,0,0,0,0,0,0,0,0,0,0,0,0,0,0,0,0,0,0,0,0,0,0,0,0,0,0,0,0,0,0,0,0,0,0,0,0,0,0,0,0,0,0,0,0,0,0,0,0,0,0,0,0,0,0,0,0,0,0,0,0,0,0,0,0,0,0,0,0,0,0,0,0,0,0,0,0,0,0,0,0,0,0,0,0,0,0,0,0,0,0,0,0,0,0,0,0,0,0,0,0,0,0,0,0,0,0,0,0,0,0,0,0,0,0,0,0,0,0,0,0,0,0,0,0,0,0,0,0,0,0,0,0,0,0,0,0,0,0,0,0,0,0,0,0,0,0,0,0,0,0,0,0,0,0,0,0,0,0,0,0,0,0,0,0,0,0,0,0,0,0,0,0,0,0,0,0,0,0,0,0,0,0,0,0,0,0,0,0,0,0,0,0,0,0,0,0,0,0,0,0,0,0,0,0,0,0,0,0,0,0,0,0,0,0,0,0,0,0,0,0,0,0,0,0,0,0,0,0,0,0,0,0,0,0,0,0,0,0,0,0,0,0,0,0,0,0,0,0,0,0,0,0,0,0,0,0,0,0,0,0,0,0,0,0,0,0,0,0,0,0,0,0,0,0,0,0,0,0,0,0,0,0,0,0,0,0,0,0,0,0,0,0,0,0,0,0,0,0,0,0,0,0,0,0,0,0,0,0,0,0,0,0,0,0,0,0,0,0,0,0,
0,0,0,0,0,0,0,0,0,0,0,0,0,0,0,0,0,0,0,0,0,0,0,0,0,0,0,0,0,0,0,0,0,0,0,0,0,0,0,0,0,0,0,0,0,0,0,0,0,0,0,0,0,0,0,0,0,0,0,0,0,0,0,0,0,0,0,0,0,0,0,0,0,0,0,0,0,0,0,0,0,0,0,0,0,0,0,0,0,0,0,0,0,0,0,0,0,0,0,0,0,0,0,0,0,0,0,0,0,0,0,0,0,0,0,0,0,0,0,0,0,0,0,0,0,0,0,0,0,0,0,0,0,0,0,0,0,0,0,0,0,0,0,0,0,0,0,0,0,0,0,0,0,0,0,0,0,0,0,0,0,0,0,0,0,0,0,0,0,0,0,0,0,0,0,0,0,0,0,0,0,0,0,0,0,0,0,0,0,0,0,0,0,0,0,0,0,0,0,0,0,0,0,0,0,0,0,0,0,0,0,0,0,0,0,0,0,0,0,0,0,0,0,0,0,0,0,0,0,0,0,0,0,0,0,0,0,0,0,0,0,0,0,0,0,0,0,0,0,0,0,0,0,0,0,0,0,0,0,0,0,0,0,0,0,0,0,0,0,0,0,0,0,0,0,0,0,0,0,0,0,0,0,0,0,0,0,0,0,0,0,0,0,0,0,0,0,0,0,0,0,0,0,0,0,0,0,0,0,0,0,0,0,0,0,0,0,0,0,0,0,0,0,0,0,0,0,0,0,0,0,0,0,0,0,0,0,0,0,0,0,0,0,0,0,0,0,0,0,0,0,0,0,0,0,0,0,0,0,0,0,0,0,0,0,0,0,0,0,0,0,0,0,0,0,0,0,0,0,0,0,0,0,0,0,0,0,0,0,0,0,0,0,0,0,0,0,0,0,0,0,0,0,0,0,0,0,0,0,0,0,0,0,0,0,0,0,0,0,0,0,0,0,0,0,0,0,0,0,0,0,0,0,0,0,0,0,0,0,0,0,0,0,0,0,0,0,0,0,0,0,0,0,0,0,0,0,0,0,0,0,0,0,0,0,0,0,0,0,0,0,0,0,0,0,0,0,0,0,0,0,0,0,0,0,0,0,0,0,0,0,0,0,0,0,0,0,0,0,0,0,0,0,0,0,0,0,0,0,0,0,0,0,0,0,0,0,0,0,0,0,0,0,0,0,0,0,0,0,0,0,0,0,0,0,0,0,0,0,0,0,0,0,0,0,0,0,0,0,0,0,0,0,0,0,0,0,0,0,0,0,0,0,0,0,0,0,0,0,0,0,0,0,0,0,0,0,0,0,0,0,0,0,0,0,0,0,0,0,0,0,0,0,0,0,0,0,0,0,0,0,0,0,0,0,0,0,0,0,0,0,0,0,0,0,0,0,0,0,0,0,0,0,0,0,0,0,0,0,0,0,0,0,0,0,0,0,0,0,0,0,0,0,0,0,0,0,0,0,0,0,0,0,0,0,0,0,0,0,0,0,0,0,0,0,0,0,0,0,0,0,0,0,0,0,0,0,0,0,0,0,0,0,0,0,0,0,0,0,0,0,0,0,0,0,0,0,0,0,0,0,0,0,0,0,0,0,0,0,0,0,0,0,0,0,0,0,0,0,0,0,0,0,0,0,0,0,0,0,0,0,0,0,0,0,0,0,0,0,0,0,0,0,0,0,0,0,0,0,0,0,0,0,0,0,0,0,0,0,0,0,0,0,0,0,0,0,0,0,0,0,0,0,0,0,0,0,0,0,0,0,0,0,0,0,0,0,0,0,0,0,0,0,0,0,0,0,0,0,0,0,0,0,0,0,0,0,0,0,0,0,0,0,0,0,0,0,0,0,0,0,0,0,0,0,0,0,0,0,0,0,0,0,0,0,0,0,0,0,0,0,0,0,0,0,0,0,0,0,0,0,0,0,0,0,0,0,0,0,0,0,0,0,0,0,0,0,0,0,0,0,0,0,0,0,0,0,0,0,0,0,0,0,0,0,0,0,0,0,0,0,0,0,0,0,0,0,0,0,0,0,0,0,0,0,0,0,0,0,0,0,0,0,0,0,0,0,0,0,0,0,0,0,0,0,0,0,0,0,0,0,0,0,0,0,0,0,0,0,0,0,0,0,0,0,0,0,0,0,0,0,0,0,0,0,0,0,0,0,0,0,0,0,0,0,0,0,0,0,0,0,0,0,0,0,0,0,0,0,0,0,0,0,0,0,0,0,0,0,0,0,0,0,0,0,0,0,0,0,0,
0,0,0,0,0,0,0,0,0,0,0,0,0,0,0,0,0,0,0,0,0,0,0,0,0,0,0,0,0,0,0,0,0,0,0,0,0,0,0,0,0,0,0,0,0,0,0,0,0,0,0,0,0,0,0,0,0,0,0,0,0,0,0,0,0,0,0,0,0,0,0,0,0,0,0,0,0,0,0,0,0,0,0,0,0,0,0,0,0,0,0,0,0,0,0,0,0,0,0,0,0,0,0,0,0,0,0,0,0,0,0,0,0,0,0,0,0,0,0,0,0,0,0,0,0,0,0,0,0,0,0,0,0,0,0,0,0,0,0,0,0,0,0,0,0,0,0,0,0,0,0,0,0,0,0,0,0,0,0,0,0,0,0,0,0,0,0,0,0,0,0,0,0,0,0,0,0,0,0,0,0,0,0,0,0,0,0,0,0,0,0,0,0,0,0,0,0,0,0,0,0,0,0,0,0,0,0,0,0,0,0,0,0,0,0,0,0,0,0,0,0,0,0,0,0,0,0,0,0,0,0,0,0,0,0,0,0,0,0,0,0,0,0,0,0,0,0,0,0,0,0,0,0,0,0,0,0,0,0,0,0,0,0,0,0,0,0,0,0,0,0,0,0,0,0,0,0,0,0,0,0,0,0,0,0,0,0,0,0,0,0,0,0,0,0,0,0,0,0,0,0,0,0,0,0,0,0,0,0,0,0,0,0,0,0,0,0,0,0,0,0,0,0,0,0,0,0,0,0,0,0,0,0,0,0,0,0,0,0,0,0,0,0,0,0,0,0,0,0,0,0,0,0,0,0,0,0,0,0,0,0,0,0,0,0,0,0,0,0,0,0,0,0,0,0,0,0,0,0,0,0,0,0,0,0,0,0,0,0,0,0,0,0,0,0,0,0,0,0,0,0,0,0,0,0,0,0,0,0,0,0,0,0,0,0,0,0,0,0,0,0,0,0,0,0,0,0,0,0,0,0,0,0,0,0,0,0,0,0,0,0,0,0,0,0,0,0,0,0,0,0,0,0,0,0,0,0,0,0,0,0,0,0,0,0,0,0,0,0,0,0,0,0,0,0,0,0,0,0,0,0,0,0,0,0,0,0,0,0,0,0,0,0,0,0,0,0,0,0,0,0,0,0,0,0,0,0,0,0,0,0,0,0,0,0,0,0,0,0,0,0,0,0,0,0,0,0,0,0,0,0,0,0,0,0,0,0,0,0,0,0,0,0,0,0,0,0,0,0,0,0,0,0,0,0,0,0,0,0,0,0,0,0,0,0,0,0,0,0,0,0,0,0,0,0,0,0,0,0,0,0,0,0,0,0,0,0,0,0,0,0,0,0,0,0,0,0,0,0,0,0,0,0,0,0,0,0,0,0,0,0,0,0,0,0,0,0,0,0,0,0,0,0,0,0,0,0,0,0,0,0,0,0,0,0,0,0,0,0,0,0,0,0,0,0,0,0,0,0,0,0,0,0,0,0,0,0,0,0,0,0,0,0,0,0,0,0,0,0,0,0,0,0,0,0,0,0,0,0,0,0,0,0,0,0,0,0,0,0,0,0,0,0,0,0,0,0,0,0,0,0,0,0,0,0,0,0,0,0,0,0,0,0,0,0,0,0,0,0,0,0,0,0,0,0,0,0,0,0,0,0,0,0,0,0,0,0,0,0,0,0,0,0,0,0,0,0,0,0,0,0,0,0,0,0,0,0,0,0,0,0,0,0,0,0,0,0,0,0,0,0,0,0,0,0,0,0,0,0,0,0,0,0,0,0,0,0,0,0,0,0,0,0,0,0,0,0,0,0,0,0,0,0,0,0,0,0,0,0,0,0,0,0,0,0,0,0,0,0,0,0,0,0,0,0,0,0,0,0,0,0,0,0,0,0,0,0,0,0,0,0,0,0,0,0,0,0,0,0,0,0,0,0,0,0,0,0,0,0,0,0,0,0,0,0,0,0,0,0,0,0,0,0,0,0,0,0,0,0,0,0,0,0,0,0,0,0,0,0,0,0,0,0,0,0,0,0,0,0,0,0,0,0,0,0,0,0,0,0,0,0,0,0,0,0,0,0,0,0,0,0,0,0,0,0,0,0,0,0,0,0,0,0,0,0,0,0,0,0,0,0,0,0,0,0,0,0,0,0,0,0,0,0,0,0,0,0,0,0,0,0,0,0,0,0,0,0,0,0,0,0,0,0,0,0,0,0,0,0,0,0,0,0,0,0,0,0,0,0,0,0,0,0,0,0,0,0,0,0,0,
0,0,0,0,0,0,0,0,0,0,0,0,0,0,0,0,0,0,0,0,0,0,0,0,0,0,0,0,0,0,0,0,0,0,0,0,0,0,0,0,0,0,0,0,0,0,0,0,0,0,0,0,0,0,0,0,0,0,0,0,0,0,0,0,0,0,0,0,0,0,0,0,0,0,0,0,0,0,0,0,0,0,0,0,0,0,0,0,0,0,0,0,0,0,0,0,0,0,0,0,0,0,0,0,0,0,0,0,0,0,0,0,0,0,0,0,0,0,0,0,0,0,0,0,0,0,0,0,0,0,0,0,0,0,0,0,0,0,0,0,0,0,0,0,0,0,0,0,0,0,0,0,0,0,0,0,0,0,0,0,0,0,0,0,0,0,0,0,0,0,0,0,0,0,0,0,0,0,0,0,0,0,0,0,0,0,0,0,0,0,0,0,0,0,0,0,0,0,0,0,0,0,0,0,0,0,0,0,0,0,0,0,0,0,0,0,0,0,0,0,0,0,0,0,0,0,0,0,0,0,0,0,0,0,0,0,0,0,0,0,0,0,0,0,0,0,0,0,0,0,0,0,0,0,0,0,0,0,0,0,0,0,0,0,0,0,0,0,0,0,0,0,0,0,0,0,0,0,0,0,0,0,0,0,0,0,0,0,0,0,0,0,0,0,0,0,0,0,0,0,0,0,0,0,0,0,0,0,0,0,0,0,0,0,0,0,0,0,0,0,0,0,0,0,0,0,0,0,0,0,0,0,0,0,0,0,0,0,0,0,0,0,0,0,0,0,0,0,0,0,0,0,0,0,0,0,0,0,0,0,0,0,0,0,0,0,0,0,0,0,0,0,0,0,0,0,0,0,0,0,0,0,0,0,0,0,0,0,0,0,0,0,0,0,0,0,0,0,0,0,0,0,0,0,0,0,0,0,0,0,0,0,0,0,0,0,0,0,0,0,0,0,0,0,0,0,0,0,0,0,0,0,0,0,0,0,0,0,0,0,0,0,0,0,0,0,0,0,0,0,0,0,0,0,0,0,0,0,0,0,0,0,0,0,0,0,0,0,0,0,0,0,0,0,0,0,0,0,0,0,0,0,0,0,0,0,0,0,0,0,0,0,0,0,0,0,0,0,0,0,0,0,0,0,0,0,0,0,0,0,0,0,0,0,0,0,0,0,0,0,0,0,0,0,0,0,0,0,0,0,0,0,0,0,0,0,0,0,0,0,0,0,0,0,0,0,0,0,0,0,0,0,0,0,0,0,0,0,0,0,0,0,0,0,0,0,0,0,0,0,0,0,0,0,0,0,0,0,0,0,0,0,0,0,0,0,0,0,0,0,0,0,0,0,0,0,0,0,0,0,0,0,0,0,0,0,0,0,0,0,0,0,0,0,0,0,0,0,0,0,0,0,0,0,0,0,0,0,0,0,0,0,0,0,0,0,0,0,0,0,0,0,0,0,0,0,0,0,0,0,0,0,0,0,0,0,0,0,0,0,0,0,0,0,0,0,0,0,0,0,0,0,0,0,0,0,0,0,0,0,0,0,0,0,0,0,0,0,0,0,0,0,0,0,0,0,0,0,0,0,0,0,0,0,0,0,0,0,0,0,0,0,0,0,0,0,0,0,0,0,0,0,0,0,0,0,0,0,0,0,0,0,0,0,0,0,0,0,0,0,0,0,0,0,0,0,0,0,0,0,0,0,0,0,0,0,0,0,0,0,0,0,0,0,0,0,0,0,0,0,0,0,0,0,0,0,0,0,0,0,0,0,0,0,0,0,0,0,0,0,0,0,0,0,0,0,0,0,0,0,0,0,0,0,0,0,0,0,0,0,0,0,0,0,0,0,0,0,0,0,0,0,0,0,0,0,0,0,0,0,0,0,0,0,0,0,0,0,0,0,0,0,0,0,0,0,0,0,0,0,0,0,0,0,0,0,0,0,0,0,0,0,0,0,0,0,0,0,0,0,0,0,0,0,0,0,0,0,0,0,0,0,0,0,0,0,0,0,0,0,0,0,0,0,0,0,0,0,0,0,0,0,0,0,0,0,0,0,0,0,0,0,0,0,0,0,0,0,0,0,0,0,0,0,0,0,0,0,0,0,0,0,0,0,0,0,0,0,0,0,0,0,0,0,0,0,0,0,0,0,0,0,0,0,0,0,0,0,0,0,0,0,0,0,0,0,0,0,0,0,0,0,0,0,0,0,0,0,0,0,0,0,0,0,0,0,0,0,0,0,0,0,0,0,0,0,0,0,0,0,
0,0,0,0,0,0,0,0,0,0,0,0,0,0,0,0,0,0,0,0,0,0,0,0,0,0,0,0,0,0,0,0,0,0,0,0,0,0,0,0,0,0,0,0,0,0,0,0,0,0,0,0,0,0,0,0,0,0,0,0,0,0,0,0,0,0,0,0,0,0,0,0,0,0,0,0,0,0,0,0,0,0,0,0,0,0,0,0,0,0,0,0,0,0,0,0,0,0,0,0,0,0,0,0,0,0,0,0,0,0,0,0,0,0,0,0,0,0,0,0,0,0,0,0,0,0,0,0,0,0,0,0,0,0,0,0,0,0,0,0,0,0,0,0,0,0,0,0,0,0,0,0,0,0,0,0,0,0,0,0,0,0,0,0,0,0,0,0,0,0,0,0,0,0,0,0,0,0,0,0,0,0,0,0,0,0,0,0,0,0,0,0,0,0,0,0,0,0,0,0,0,0,0,0,0,0,0,0,0,0,0,0,0,0,0,0,0,0,0,0,0,0,0,0,0,0,0,0,0,0,0,0,0,0,0,0,0,0,0,0,0,0,0,0,0,0,0,0,0,0,0,0,0,0,0,0,0,0,0,0,0,0,0,0,0,0,0,0,0,0,0,0,0,0,0,0,0,0,0,0,0,0,0,0,0,0,0,0,0,0,0,0,0,0,0,0,0,0,0,0,0,0,0,0,0,0,0,0,0,0,0,0,0,0,0,0,0,0,0,0,0,0,0,0,0,0,0,0,0,0,0,0,0,0,0,0,0,0,0,0,0,0,0,0,0,0,0,0,0,0,0,0,0,0,0,0,0,0,0,0,0,0,0,0,0,0,0,0,0,0,0,0,0,0,0,0,0,0,0,0,0,0,0,0,0,0,0,0,0,0,0,0,0,0,0,0,0,0,0,0,0,0,0,0,0,0,0,0,0,0,0,0,0,0,0,0,0,0,0,0,0,0,0,0,0,0,0,0,0,0,0,0,0,0,0,0,0,0,0,0,0,0,0,0,0,0,0,0,0,0,0,0,0,0,0,0,0,0,0,0,0,0,0,0,0,0,0,0,0,0,0,0,0,0,0,0,0,0,0,0,0,0,0,0,0,0,0,0,0,0,0,0,0,0,0,0,0,0,0,0,0,0,0,0,0,0,0,0,0,0,0,0,0,0,0,0,0,0,0,0,0,0,0,0,0,0,0,0,0,0,0,0,0,0,0,0,0,0,0,0,0,0,0,0,0,0,0,0,0,0,0,0,0,0,0,0,0,0,0,0,0,0,0,0,0,0,0,0,0,0,0,0,0,0,0,0,0,0,0,0,0,0,0,0,0,0,0,0,0,0,0,0,0,0,0,0,0,0,0,0,0,0,0,0,0,0,0,0,0,0,0,0,0,0,0,0,0,0,0,0,0,0,0,0,0,0,0,0,0,0,0,0,0,0,0,0,0,0,0,0,0,0,0,0,0,0,0,0,0,0,0,0,0,0,0,0,0,0,0,0,0,0,0,0,0,0,0,0,0,0,0,0,0,0,0,0,0,0,0,0,0,0,0,0,0,0,0,0,0,0,0,0,0,0,0,0,0,0,0,0,0,0,0,0,0,0,0,0,0,0,0,0,0,0,0,0,0,0,0,0,0,0,0,0,0,0,0,0,0,0,0,0,0,0,0,0,0,0,0,0,0,0,0,0,0,0,0,0,0,0,0,0,0,0,0,0,0,0,0,0,0,0,0,0,0,0,0,0,0,0,0,0,0,0,0,0,0,0,0,0,0,0,0,0,0,0,0,0,0,0,0,0,0,0,0,0,0,0,0,0,0,0,0,0,0,0,0,0,0,0,0,0,0,0,0,0,0,0,0,0,0,0,0,0,0,0,0,0,0,0,0,0,0,0,0,0,0,0,0,0,0,0,0,0,0,0,0,0,0,0,0,0,0,0,0,0,0,0,0,0,0,0,0,0,0,0,0,0,0,0,0,0,0,0,0,0,0,0,0,0,0,0,0,0,0,0,0,0,0,0,0,0,0,0,0,0,0,0,0,0,0,0,0,0,0,0,0,0,0,0,0,0,0,0,0,0,0,0,0,0,0,0,0,0,0,0,0,0,0,0,0,0,0,0,0,0,0,0,0,0,0,0,0,0,0,0,0,0,0,0,0,0,0,0,0,0,0,0,0,0,0,0,0,0,0,0,0,0,0,0,0,0,0,0,0,0,0,0,0,0,0,0,0,0,0,0,0,0,0,0,0,0,0,0,0,0,0,0,0,0,
0,0,0,0,0,0,0,0,0,0,0,0,0,0,0,0,0,0,0,0,0,0,0,0,0,0,0,0,0,0,0,0,0,0,0,0,0,0,0,0,0,0,0,0,0,0,0,0,0,0,0,0,0,0,0,0,0,0,0,0,0,0,0,0,0,0,0,0,0,0,0,0,0,0,0,0,0,0,0,0,0,0,0,0,0,0,0,0,0,0,0,0,0,0,0,0,0,0,0,0,0,0,0,0,0,0,0,0,0,0,0,0,0,0,0,0,0,0,0,0,0,0,0,0,0,0,0,0,0,0,0,0,0,0,0,0,0,0,0,0,0,0,0,0,0,0,0,0,0,0,0,0,0,0,0,0,0,0,0,0,0,0,0,0,0,0,0,0,0,0,0,0,0,0,0,0,0,0,0,0,0,0,0,0,0,0,0,0,0,0,0,0,0,0,0,0,0,0,0,0,0,0,0,0,0,0,0,0,0,0,0,0,0,0,0,0,0,0,0,0,0,0,0,0,0,0,0,0,0,0,0,0,0,0,0,0,0,0,0,0,0,0,0,0,0,0,0,0,0,0,0,0,0,0,0,0,0,0,0,0,0,0,0,0,0,0,0,0,0,0,0,0,0,0,0,0,0,0,0,0,0,0,0,0,0,0,0,0,0,0,0,0,0,0,0,0,0,0,0,0,0,0,0,0,0,0,0,0,0,0,0,0,0,0,0,0,0,0,0,0,0,0,0,0,0,0,0,0,0,0,0,0,0,0,0,0,0,0,0,0,0,0,0,0,0,0,0,0,0,0,0,0,0,0,0,0,0,0,0,0,0,0,0,0,0,0,0,0,0,0,0,0,0,0,0,0,0,0,0,0,0,0,0,0,0,0,0,0,0,0,0,0,0,0,0,0,0,0,0,0,0,0,0,0,0,0,0,0,0,0,0,0,0,0,0,0,0,0,0,0,0,0,0,0,0,0,0,0,0,0,0,0,0,0,0,0,0,0,0,0,0,0,0,0,0,0,0,0,0,0,0,0,0,0,0,0,0,0,0,0,0,0,0,0,0,0,0,0,0,0,0,0,0,0,0,0,0,0,0,0,0,0,0,0,0,0,0,0,0,0,0,0,0,0,0,0,0,0,0,0,0,0,0,0,0,0,0,0,0,0,0,0,0,0,0,0,0,0,0,0,0,0,0,0,0,0,0,0,0,0,0,0,0,0,0,0,0,0,0,0,0,0,0,0,0,0,0,0,0,0,0,0,0,0,0,0,0,0,0,0,0,0,0,0,0,0,0,0,0,0,0,0,0,0,0,0,0,0,0,0,0,0,0,0,0,0,0,0,0,0,0,0,0,0,0,0,0,0,0,0,0,0,0,0,0,0,0,0,0,0,0,0,0,0,0,0,0,0,0,0,0,0,0,0,0,0,0,0,0,0,0,0,0,0,0,0,0,0,0,0,0,0,0,0,0,0,0,0,0,0,0,0,0,0,0,0,0,0,0,0,0,0,0,0,0,0,0,0,0,0,0,0,0,0,0,0,0,0,0,0,0,0,0,0,0,0,0,0,0,0,0,0,0,0,0,0,0,0,0,0,0,0,0,0,0,0,0,0,0,0,0,0,0,0,0,0,0,0,0,0,0,0,0,0,0,0,0,0,0,0,0,0,0,0,0,0,0,0,0,0,0,0,0,0,0,0,0,0,0,0,0,0,0,0,0,0,0,0,0,0,0,0,0,0,0,0,0,0,0,0,0,0,0,0,0,0,0,0,0,0,0,0,0,0,0,0,0,0,0,0,0,0,0,0,0,0,0,0,0,0,0,0,0,0,0,0,0,0,0,0,0,0,0,0,0,0,0,0,0,0,0,0,0,0,0,0,0,0,0,0,0,0,0,0,0,0,0,0,0,0,0,0,0,0,0,0,0,0,0,0,0,0,0,0,0,0,0,0,0,0,0,0,0,0,0,0,0,0,0,0,0,0,0,0,0,0,0,0,0,0,0,0,0,0,0,0,0,0,0,0,0,0,0,0,0,0,0,0,0,0,0,0,0,0,0,0,0,0,0,0,0,0,0,0,0,0,0,0,0,0,0,0,0,0,0,0,0,0,0,0,0,0,0,0,0,0,0,0,0,0,0,0,0,0,0,0,0,0,0,0,0,0,0,0,0,0,0,0,0,0,0,0,0,0,0,0,0,0,0,0,0,0,0,0,0,0,0,0,0,0,0,0,0,0,0,0,0,0,0,0,0,0,0,0,0,0,0,0,0,0,
0,0,0,0,0,0,0,0,0,0,0,0,0,0,0,0,0,0,0,0,0,0,0,0,0,0,0,0,0,0,0,0,0,0,0,0,0,0,0,0,0,0,0,0,0,0,0,0,0,0,0,0,0,0,0,0,0,0,0,0,0,0,0,0,0,0,0,0,0,0,0,0,0,0,0,0,0,0,0,0,0,0,0,0,0,0,0,0,0,0,0,0,0,0,0,0,0,0,0,0,0,0,0,0,0,0,0,0,0,0,0,0,0,0,0,0,0,0,0,0,0,0,0,0,0,0,0,0,0,0,0,0,0,0,0,0,0,0,0,0,0,0,0,0,0,0,0,0,0,0,0,0,0,0,0,0,0,0,0,0,0,0,0,0,0,0,0,0,0,0,0,0,0,0,0,0,0,0,0,0,0,0,0,0,0,0,0,0,0,0,0,0,0,0,0,0,0,0,0,0,0,0,0,0,0,0,0,0,0,0,0,0,0,0,0,0,0,0,0,0,0,0,0,0,0,0,0,0,0,0,0,0,0,0,0,0,0,0,0,0,0,0,0,0,0,0,0,0,0,0,0,0,0,0,0,0,0,0,0,0,0,0,0,0,0,0,0,0,0,0,0,0,0,0,0,0,0,0,0,0,0,0,0,0,0,0,0,0,0,0,0,0,0,0,0,0,0,0,0,0,0,0,0,0,0,0,0,0,0,0,0,0,0,0,0,0,0,0,0,0,0,0,0,0,0,0,0,0,0,0,0,0,0,0,0,0,0,0,0,0,0,0,0,0,0,0,0,0,0,0,0,0,0,0,0,0,0,0,0,0,0,0,0,0,0,0,0,0,0,0,0,0,0,0,0,0,0,0,0,0,0,0,0,0,0,0,0,0,0,0,0,0,0,0,0,0,0,0,0,0,0,0,0,0,0,0,0,0,0,0,0,0,0,0,0,0,0,0,0,0,0,0,0,0,0,0,0,0,0,0,0,0,0,0,0,0,0,0,0,0,0,0,0,0,0,0,0,0,0,0,0,0,0,0,0,0,0,0,0,0,0,0,0,0,0,0,0,0,0,0,0,0,0,0,0,0,0,0,0,0,0,0,0,0,0,0,0,0,0,0,0,0,0,0,0,0,0,0,0,0,0,0,0,0,0,0,0,0,0,0,0,0,0,0,0,0,0,0,0,0,0,0,0,0,0,0,0,0,0,0,0,0,0,0,0,0,0,0,0,0,0,0,0,0,0,0,0,0,0,0,0,0,0,0,0,0,0,0,0,0,0,0,0,0,0,0,0,0,0,0,0,0,0,0,0,0,0,0,0,0,0,0,0,0,0,0,0,0,0,0,0,0,0,0,0,0,0,0,0,0,0,0,0,0,0,0,0,0,0,0,0,0,0,0,0,0,0,0,0,0,0,0,0,0,0,0,0,0,0,0,0,0,0,0,0,0,0,0,0,0,0,0,0,0,0,0,0,0,0,0,0,0,0,0,0,0,0,0,0,0,0,0,0,0,0,0,0,0,0,0,0,0,0,0,0,0,0,0,0,0,0,0,0,0,0,0,0,0,0,0,0,0,0,0,0,0,0,0,0,0,0,0,0,0,0,0,0,0,0,0,0,0,0,0,0,0,0,0,0,0,0,0,0,0,0,0,0,0,0,0,0,0,0,0,0,0,0,0,0,0,0,0,0,0,0,0,0,0,0,0,0,0,0,0,0,0,0,0,0,0,0,0,0,0,0,0,0,0,0,0,0,0,0,0,0,0,0,0,0,0,0,0,0,0,0,0,0,0,0,0,0,0,0,0,0,0,0,0,0,0,0,0,0,0,0,0,0,0,0,0,0,0,0,0,0,0,0,0,0,0,0,0,0,0,0,0,0,0,0,0,0,0,0,0,0,0,0,0,0,0,0,0,0,0,0,0,0,0,0,0,0,0,0,0,0,0,0,0,0,0,0,0,0,0,0,0,0,0,0,0,0,0,0,0,0,0,0,0,0,0,0,0,0,0,0,0,0,0,0,0,0,0,0,0,0,0,0,0,0,0,0,0,0,0,0,0,0,0,0,0,0,0,0,0,0,0,0,0,0,0,0,0,0,0,0,0,0,0,0,0,0,0,0,0,0,0,0,0,0,0,0,0,0,0,0,0,0,0,0,0,0,0,0,0,0,0,0,0,0,0,0,0,0,0,0,0,0,0,0,0,0,0,0,0,0,0,0,0,0,0,0,0,0,0,0,0,0,0,0,0,0,0,0,0,0,0,0,0,0,0,
0,0,0,0,0,0,0,0,0,0,0,0,0,0,0,0,0,0,0,0,0,0,0,0,0,0,0,0,0,0,0,0,0,0,0,0,0,0,0,0,0,0,0,0,0,0,0,0,0,0,0,0,0,0,0,0,0,0,0,0,0,0,0,0,0,0,0,0,0,0,0,0,0,0,0,0,0,0,0,0,0,0,0,0,0,0,0,0,0,0,0,0,0,0,0,0,0,0,0,0,0,0,0,0,0,0,0,0,0,0,0,0,0,0,0,0,0,0,0,0,0,0,0,0,0,0,0,0,0,0,0,0,0,0,0,0,0,0,0,0,0,0,0,0,0,0,0,0,0,0,0,0,0,0,0,0,0,0,0,0,0,0,0,0,0,0,0,0,0,0,0,0,0,0,0,0,0,0,0,0,0,0,0,0,0,0,0,0,0,0,0,0,0,0,0,0,0,0,0,0,0,0,0,0,0,0,0,0,0,0,0,0,0,0,0,0,0,0,0,0,0,0,0,0,0,0,0,0,0,0,0,0,0,0,0,0,0,0,0,0,0,0,0,0,0,0,0,0,0,0,0,0,0,0,0,0,0,0,0,0,0,0,0,0,0,0,0,0,0,0,0,0,0,0,0,0,0,0,0,0,0,0,0,0,0,0,0,0,0,0,0,0,0,0,0,0,0,0,0,0,0,0,0,0,0,0,0,0,0,0,0,0,0,0,0,0,0,0,0,0,0,0,0,0,0,0,0,0,0,0,0,0,0,0,0,0,0,0,0,0,0,0,0,0,0,0,0,0,0,0,0,0,0,0,0,0,0,0,0,0,0,0,0,0,0,0,0,0,0,0,0,0,0,0,0,0,0,0,0,0,0,0,0,0,0,0,0,0,0,0,0,0,0,0,0,0,0,0,0,0,0,0,0,0,0,0,0,0,0,0,0,0,0,0,0,0,0,0,0,0,0,0,0,0,0,0,0,0,0,0,0,0,0,0,0,0,0,0,0,0,0,0,0,0,0,0,0,0,0,0,0,0,0,0,0,0,0,0,0,0,0,0,0,0,0,0,0,0,0,0,0,0,0,0,0,0,0,0,0,0,0,0,0,0,0,0,0,0,0,0,0,0,0,0,0,0,0,0,0,0,0,0,0,0,0,0,0,0,0,0,0,0,0,0,0,0,0,0,0,0,0,0,0,0,0,0,0,0,0,0,0,0,0,0,0,0,0,0,0,0,0,0,0,0,0,0,0,0,0,0,0,0,0,0,0,0,0,0,0,0,0,0,0,0,0,0,0,0,0,0,0,0,0,0,0,0,0,0,0,0,0,0,0,0,0,0,0,0,0,0,0,0,0,0,0,0,0,0,0,0,0,0,0,0,0,0,0,0,0,0,0,0,0,0,0,0,0,0,0,0,0,0,0,0,0,0,0,0,0,0,0,0,0,0,0,0,0,0,0,0,0,0,0,0,0,0,0,0,0,0,0,0,0,0,0,0,0,0,0,0,0,0,0,0,0,0,0,0,0,0,0,0,0,0,0,0,0,0,0,0,0,0,0,0,0,0,0,0,0,0,0,0,0,0,0,0,0,0,0,0,0,0,0,0,0,0,0,0,0,0,0,0,0,0,0,0,0,0,0,0,0,0,0,0,0,0,0,0,0,0,0,0,0,0,0,0,0,0,0,0,0,0,0,0,0,0,0,0,0,0,0,0,0,0,0,0,0,0,0,0,0,0,0,0,0,0,0,0,0,0,0,0,0,0,0,0,0,0,0,0,0,0,0,0,0,0,0,0,0,0,0,0,0,0,0,0,0,0,0,0,0,0,0,0,0,0,0,0,0,0,0,0,0,0,0,0,0,0,0,0,0,0,0,0,0,0,0,0,0,0,0,0,0,0,0,0,0,0,0,0,0,0,0,0,0,0,0,0,0,0,0,0,0,0,0,0,0,0,0,0,0,0,0,0,0,0,0,0,0,0,0,0,0,0,0,0,0,0,0,0,0,0,0,0,0,0,0,0,0,0,0,0,0,0,0,0,0,0,0,0,0,0,0,0,0,0,0,0,0,0,0,0,0,0,0,0,0,0,0,0,0,0,0,0,0,0,0,0,0,0,0,0,0,0,0,0,0,0,0,0,0,0,0,0,0,0,0,0,0,0,0,0,0,0,0,0,0,0,0,0,0,0,0,0,0,0,0,0,0,0,0,0,0,0,0,0,0,0,0,0,0,0,0,0,0,0,0,0,0,0,0,0,0,0,0,0,0,0,0,0,
0,0,0,0,0,0,0,0,0,0,0,0,0,0,0,0,0,0,0,0,0,0,0,0,0,0,0,0,0,0,0,0,0,0,0,0,0,0,0,0,0,0,0,0,0,0,0,0,0,0,0,0,0,0,0,0,0,0,0,0,0,0,0,0,0,0,0,0,0,0,0,0,0,0,0,0,0,0,0,0,0,0,0,0,0,0,0,0,0,0,0,0,0,0,0,0,0,0,0,0,0,0,0,0,0,0,0,0,0,0,0,0,0,0,0,0,0,0,0,0,0,0,0,0,0,0,0,0,0,0,0,0,0,0,0,0,0,0,0,0,0,0,0,0,0,0,0,0,0,0,0,0,0,0,0,0,0,0,0,0,0,0,0,0,0,0,0,0,0,0,0,0,0,0,0,0,0,0,0,0,0,0,0,0,0,0,0,0,0,0,0,0,0,0,0,0,0,0,0,0,0,0,0,0,0,0,0,0,0,0,0,0,0,0,0,0,0,0,0,0,0,0,0,0,0,0,0,0,0,0,0,0,0,0,0,0,0,0,0,0,0,0,0,0,0,0,0,0,0,0,0,0,0,0,0,0,0,0,0,0,0,0,0,0,0,0,0,0,0,0,0,0,0,0,0,0,0,0,0,0,0,0,0,0,0,0,0,0,0,0,0,0,0,0,0,0,0,0,0,0,0,0,0,0,0,0,0,0,0,0,0,0,0,0,0,0,0,0,0,0,0,0,0,0,0,0,0,0,0,0,0,0,0,0,0,0,0,0,0,0,0,0,0,0,0,0,0,0,0,0,0,0,0,0,0,0,0,0,0,0,0,0,0,0,0,0,0,0,0,0,0,0,0,0,0,0,0,0,0,0,0,0,0,0,0,0,0,0,0,0,0,0,0,0,0,0,0,0,0,0,0,0,0,0,0,0,0,0,0,0,0,0,0,0,0,0,0,0,0,0,0,0,0,0,0,0,0,0,0,0,0,0,0,0,0,0,0,0,0,0,0,0,0,0,0,0,0,0,0,0,0,0,0,0,0,0,0,0,0,0,0,0,0,0,0,0,0,0,0,0,0,0,0,0,0,0,0,0,0,0,0,0,0,0,0,0,0,0,0,0,0,0,0,0,0,0,0,0,0,0,0,0,0,2611,0,0,0,0,0,0,0,0,0,0,0,0,0,0,2611,0,0,0,0,0,0,0,0,0,0,0,0,0,0,0,0,0,0,0,0,0,0,0,0,0,0,0,0,0,0,0,0,0,0,0,0,0,0,0,0,0,0,0,0,0,0,0,0,0,0,0,0,0,0,0,0,0,0,0,0,0,0,0,0,0,0,0,0,0,0,0,0,0,0,0,0,0,0,0,0,0,0,0,0,0,0,0,0,0,0,0,0,0,0,0,0,0,0,0,0,0,0,0,0,0,0,0,0,0,0,0,0,0,0,0,0,0,0,0,0,0,0,0,0,0,0,0,0,0,0,0,0,0,0,0,0,0,0,0,0,0,0,0,0,0,0,0,0,0,0,0,0,0,0,0,0,0,0,0,0,0,0,0,0,0,0,0,0,0,0,0,0,0,0,0,0,0,0,0,0,0,0,0,0,0,0,0,0,0,0,0,0,0,0,0,0,0,0,0,0,0,0,0,0,0,0,0,0,0,0,0,0,0,0,0,0,0,0,0,0,0,0,0,0,0,0,0,0,0,0,0,0,0,0,0,0,0,0,0,0,0,0,0,0,0,0,0,0,0,0,0,0,0,0,0,0,0,0,0,0,0,0,0,0,0,0,0,0,0,0,0,0,0,0,0,0,0,0,0,0,0,0,0,0,0,0,0,0,0,0,0,0,0,0,0,0,0,0,0,0,0,0,0,0,0,0,0,0,0,0,0,0,0,0,0,0,0,0,0,0,0,0,0,0,0,0,0,0,0,0,0,0,0,0,0,0,0,0,0,0,0,0,0,0,0,0,0,0,0,0,0,0,0,0,0,0,0,0,0,0,0,0,0,0,0,0,0,0,0,0,0,0,0,0,0,0,0,0,0,0,0,0,0,0,0,0,0,0,0,0,0,0,0,0,0,0,0,0,0,0,0,0,0,0,0,0,0,0,0,0,0,0,0,0,0,0,0,0,0,0,0,0,0,0,0,0,0,0,0,0,0,0,0,0,0,0,0,0,0,0,0,0,0,0,0,0,0,0,0,0,0,0,0,0,0,0,0,0,0,0,0,0,0,0,0,0,0,0,0,0,0,0,0,0,0,0,0,0,0,0,0,
0,0,0,0,0,0,0,0,0,0,0,0,0,0,0,0,0,0,0,0,0,0,0,0,0,0,0,0,0,0,0,0,0,0,0,0,0,0,0,0,0,0,0,0,0,0,0,0,0,0,0,0,0,0,0,0,0,0,0,0,0,0,0,0,0,0,0,0,0,0,0,0,0,0,0,0,0,0,0,0,0,0,0,0,0,0,0,0,0,0,0,0,0,0,0,0,0,0,0,0,0,0,0,0,0,0,0,0,0,0,0,0,0,0,0,0,0,0,0,0,0,0,0,0,0,0,0,0,0,0,0,0,0,0,0,0,0,0,0,0,0,0,0,0,0,0,0,0,0,0,0,0,0,0,0,0,0,0,0,0,0,0,0,0,0,0,0,0,0,0,0,0,0,0,0,0,0,0,0,0,0,0,0,0,0,0,0,0,0,0,0,0,0,0,0,0,0,0,0,0,0,0,0,0,0,0,0,0,0,0,0,0,0,0,0,0,0,0,0,0,0,0,0,0,0,0,0,0,0,0,0,0,0,0,0,0,0,0,0,0,0,0,0,0,0,0,0,0,0,0,0,0,0,0,0,0,0,0,0,0,0,0,0,0,0,0,0,0,0,0,0,0,0,0,0,0,0,0,0,0,0,0,0,0,0,0,0,0,0,0,0,0,0,0,0,0,0,0,0,0,0,0,0,0,0,0,0,0,0,0,0,0,0,0,0,0,0,0,0,0,0,0,0,0,0,0,0,0,0,0,0,0,0,0,0,0,0,0,0,0,0,0,0,0,0,0,0,0,0,0,0,0,0,0,0,0,0,0,0,0,0,0,0,0,0,0,0,0,0,0,0,0,0,0,0,0,0,0,0,0,0,0,0,0,0,0,0,0,0,0,0,0,0,0,0,0,0,0,0,0,0,0,0,0,0,0,0,0,0,0,0,0,0,0,0,0,0,0,0,0,0,0,0,0,0,0,0,0,0,0,0,0,0,0,0,0,0,0,0,0,0,0,0,0,0,0,0,0,0,0,0,0,0,0,0,0,0,0,0,0,0,0,0,0,0,0,0,0,0,0,0,0,0,0,0,0,0,0,0,0,0,0,0,0,0,0,0,0,0,0,0,0,0,0,0,0,0,0,0,0,0,0,0,0,0,0,0,0,0,0,0,0,0,0,0,0,0,0,0,0,0,0,0,0,0,0,0,0,0,0,0,0,0,0,0,0,0,0,0,0,0,0,0,0,0,0,0,0,0,0,0,0,0,0,0,0,0,0,0,0,0,0,0,0,0,0,0,0,0,0,0,0,0,0,0,0,0,0,0,0,0,0,0,0,0,0,0,0,0,0,0,0,0,0,0,0,0,0,0,0,0,0,0,0,0,0,0,0,0,0,0,0,0,0,0,0,0,0,0,0,0,0,0,0,0,0,0,0,0,0,0,0,0,0,0,0,0,0,0,0,0,0,0,0,0,0,0,0,0,0,0,0,0,0,0,0,0,0,0,0,0,0,0,0,0,0,0,0,0,0,0,0,0,0,0,0,0,0,0,0,0,0,0,0,0,0,0,0,0,0,0,0,0,0,0,0,0,0,0,0,0,0,0,0,0,0,0,0,0,0,0,0,0,0,0,0,0,0,0,0,0,0,0,0,0,0,0,0,0,0,0,0,0,0,0,0,0,0,0,0,0,0,0,0,0,0,0,0,0,0,0,0,0,0,0,0,0,0,0,0,0,0,0,0,0,0,0,0,0,0,0,0,0,0,0,0,0,0,0,0,0,0,0,0,0,0,0,0,0,0,0,0,0,0,0,0,0,0,0,0,0,0,0,0,0,0,0,0,0,0,0,0,0,0,0,0,0,0,0,0,0,0,0,0,0,0,0,0,0,0,0,0,0,0,0,0,0,0,0,0,0,0,0,0,0,0,0,0,0,0,0,0,0,0,0,0,0,0,0,0,0,0,0,0,0,0,0,0,0,0,0,0,0,0,0,0,0,0,0,0,0,0,0,0,0,0,0,0,0,0,0,0,0,0,0,0,0,0,0,0,0,0,0,0,0,0,0,0,0,0,0,0,0,0,0,0,0,0,0,0,0,0,0,0,0,0,0,0,0,0,0,0,0,0,0,0,0,0,0,0,0,0,0,0,0,0,0,0,0,0,0,0,0,0,0,0,0,0,0,0,0,0,0,0,0,0,0,0,0,0,0,0,0,0,0,0,0,0,0,0,0,0,0,0,0,0,0,0,0,0,0,0,0,0,0,0,0,0,0,0,
0,0,0,0,0,0,0,0,0,0,0,0,0,0,0,0,0,0,0,0,0,0,0,0,0,0,0,0,0,0,0,0,0,0,0,0,0,0,0,0,0,0,0,0,0,0,0,0,0,0,0,0,0,0,0,0,0,0,0,0,0,0,0,0,0,0,0,0,0,0,0,0,0,0,0,0,0,0,0,0,0,0,0,0,0,0,0,0,0,0,0,0,0,0,0,0,0,0,0,0,0,0,0,0,0,0,0,0,0,0,0,0,0,0,0,0,0,0,0,0,0,0,0,0,0,0,0,0,0,0,0,0,0,0,0,0,0,0,0,0,0,0,0,0,0,0,0,0,0,0,0,0,0,0,0,0,0,0,0,0,0,0,0,0,0,0,0,0,0,0,0,0,0,0,0,0,0,0,0,0,0,0,0,0,0,0,0,0,0,0,0,0,0,0,0,0,0,0,0,0,0,0,0,0,0,0,0,0,0,0,0,0,0,0,0,0,0,0,0,0,0,0,0,0,0,0,0,0,0,0,0,0,0,0,0,0,0,0,0,0,0,0,0,0,0,0,0,0,0,0,0,0,0,0,0,0,0,0,0,0,0,0,0,0,0,0,0,0,0,0,0,0,0,0,0,0,0,0,0,0,0,0,0,0,0,0,0,0,0,0,0,0,0,0,0,0,0,0,0,0,0,0,0,0,0,0,0,0,0,0,0,0,0,0,0,0,0,0,0,0,0,0,0,0,0,0,0,0,0,0,0,0,0,0,0,0,0,0,0,0,0,0,0,0,0,0,0,0,0,0,0,0,0,0,0,0,0,0,0,0,0,0,0,0,0,0,0,0,0,0,0,0,0,0,0,0,0,0,0,0,0,0,0,0,0,0,0,0,0,0,0,0,0,0,0,0,0,0,0,0,0,0,0,0,0,0,0,0,0,0,0,0,0,0,0,0,0,0,0,0,0,0,0,0,0,0,0,0,0,0,0,0,0,0,0,0,0,0,0,0,0,0,0,0,0,0,0,0,0,0,0,0,0,0,0,0,0,0,0,0,0,0,0,0,0,0,0,0,0,0,0,0,0,0,0,0,0,0,0,0,0,0,0,0,0,0,0,0,0,0,0,0,0,0,0,0,0,0,0,0,0,0,0,0,0,0,0,0,0,0,0,0,0,0,0,0,0,0,0,0,0,0,0,0,0,0,0,0,0,0,0,0,0,0,0,0,0,0,0,0,0,0,0,0,0,0,0,0,0,0,0,0,0,0,0,0,0,0,0,0,0,0,0,0,0,0,0,0,0,0,0,0,0,0,0,0,0,0,0,0,0,0,0,0,0,0,0,0,0,0,0,0,0,0,0,0,0,0,0,0,0,0,0,0,0,0,0,0,0,0,0,0,0,0,0,0,0,0,0,0,0,0,0,0,0,0,0,0,0,0,0,0,0,0,0,0,0,0,0,0,0,0,0,0,0,0,0,0,0,0,0,0,0,0,0,0,0,0,0,0,0,0,0,0,0,0,0,0,0,0,0,0,0,0,0,0,0,0,0,0,0,0,0,0,0,0,0,0,0,0,0,0,0,0,0,0,0,0,0,0,0,0,0,0,0,0,0,0,0,0,0,0,0,0,0,0,0,0,0,0,0,0,0,0,0,0,0,0,0,0,0,0,0,0,0,0,0,0,0,0,0,0,0,0,0,0,0,0,0,0,0,0,0,0,0,0,0,0,0,0,0,0,0,0,0,0,0,0,0,0,0,0,0,0,0,0,0,0,0,0,0,0,0,0,0,0,0,0,0,0,0,0,0,0,0,0,0,0,0,0,0,0,0,0,0,0,0,0,0,0,0,0,0,0,0,0,0,0,0,0,0,0,0,0,0,0,0,0,0,0,0,0,0,0,0,0,0,0,0,0,0,0,0,0,0,0,0,0,0,0,0,0,0,0,0,0,0,0,0,0,0,0,0,0,0,0,0,0,0,0,0,0,0,0,0,0,0,0,0,0,0,0,0,0,0,0,0,0,0,0,0,0,0,0,0,0,0,0,0,0,0,0,0,0,0,0,0,0,0,0,0,0,0,0,0,0,0,0,0,0,0,0,0,0,0,0,0,0,0,0,0,0,0,0,0,0,0,0,0,0,0,0,0,0,0,0,0,0,0,0,0,0,0,0,0,0,0,0,0,0,0,0,0,0,0,0,0,0,0,0,0,0,0,0,0,0,0,0,0,0,0,0,0,0,0,0,0,0,0,0,0,0,0,0,0,0,0,0,0,0,
0,0,0,0,0,0,0,0,0,0,0,0,0,0,0,0,0,0,0,0,0,0,0,0,0,0,0,0,0,0,0,0,0,0,0,0,0,0,0,0,0,0,0,0,0,0,0,0,0,0,0,0,0,0,0,0,0,0,0,0,0,0,0,0,0,0,0,0,0,0,0,0,0,0,0,0,0,0,0,0,0,0,0,0,0,0,0,0,0,0,0,0,0,0,0,0,0,0,0,0,0,0,0,0,0,0,0,0,0,0,0,0,0,0,0,0,0,0,0,0,0,0,0,0,0,0,0,0,0,0,0,0,0,0,0,0,0,0,0,0,0,0,0,0,0,0,0,0,0,0,0,0,0,0,0,0,0,0,0,0,0,0,0,0,0,0,0,0,0,0,0,0,0,0,0,0,0,0,0,0,0,0,0,0,0,0,0,0,0,0,0,0,0,0,0,0,0,0,0,0,0,0,0,0,0,0,0,0,0,0,0,0,0,0,0,0,0,0,0,0,0,0,0,0,0,0,0,0,0,0,0,0,0,0,0,0,0,0,0,0,0,0,0,0,0,0,0,0,0,0,0,0,0,0,0,0,0,0,0,0,0,0,0,0,0,0,0,0,0,0,0,0,0,0,0,0,0,0,0,0,0,0,0,0,0,0,0,0,0,0,0,0,0,0,0,0,0,0,0,0,0,0,0,0,0,0,0,0,0,0,0,0,0,0,0,0,0,0,0,0,0,0,0,0,0,0,0,0,0,0,0,0,0,0,0,0,0,0,0,0,0,0,0,0,0,0,0,0,0,0,0,0,0,0,0,0,0,0,0,0,0,0,0,0,0,0,0,0,0,0,0,0,0,0,0,0,0,0,0,0,0,0,0,0,0,0,0,0,0,0,0,0,0,0,0,0,0,0,0,0,0,0,0,0,0,0,0,0,0,0,0,0,0,0,0,0,0,0,0,0,0,0,0,0,0,0,0,0,0,0,0,0,0,0,0,0,0,0,0,0,0,0,0,0,0,0,0,0,0,0,0,0,0,0,0,0,0,0,0,0,0,0,0,0,0,0,0,0,0,0,0,0,0,0,0,0,0,0,0,0,0,0,0,0,0,0,0,0,0,0,0,0,0,0,0,0,0,0,0,0,0,0,0,0,0,0,0,0,0,0,0,0,0,0,0,0,0,0,0,0,0,0,0,0,0,0,0,0,0,0,0,0,0,0,0,0,0,0,0,0,0,0,0,0,0,0,0,0,0,0,0,0,0,0,0,0,0,0,0,0,0,0,0,0,0,0,0,0,0,0,0,0,0,0,0,0,0,0,0,0,0,0,0,0,0,0,0,0,0,0,0,0,0,0,0,0,0,0,0,0,0,0,0,0,0,0,0,0,0,0,0,0,0,0,0,0,0,0,0,0,0,0,0,0,0,0,0,0,0,0,0,0,0,0,0,0,0,0,0,0,0,0,0,0,0,0,0,0,0,0,0,0,0,0,0,0,0,0,0,0,0,0,0,0,0,0,0,0,0,0,0,0,0,0,0,0,0,0,0,0,0,0,0,0,0,0,0,0,0,0,0,0,0,0,0,0,0,0,0,0,0,0,0,0,0,0,0,0,0,0,0,0,0,0,0,0,0,0,0,0,0,0,0,0,0,0,0,0,0,0,0,0,0,0,0,0,0,0,0,0,0,0,0,0,0,0,0,0,0,0,0,0,0,0,0,0,0,0,0,0,0,0,0,0,0,0,0,0,0,0,0,0,0,0,0,0,0,0,0,0,0,0,0,0,0,0,0,0,0,0,0,0,0,0,0,0,0,0,0,0,0,0,0,0,0,0,0,0,0,0,0,0,0,0,0,0,0,0,0,0,0,0,0,0,0,0,0,0,0,0,0,0,0,0,0,0,0,0,0,0,0,0,0,0,0,0,0,0,0,0,0,0,0,0,0,0,0,0,0,0,0,0,0,0,0,0,0,0,0,0,0,0,0,0,0,0,0,0,0,0,0,0,0,0,0,0,0,0,0,0,0,0,0,0,0,0,0,0,0,0,0,0,0,0,0,0,0,0,0,0,0,0,0,0,0,0,0,0,0,0,0,0,0,0,0,0,0,0,0,0,0,0,0,0,0,0,0,0,0,0,0,0,0,0,0,0,0,0,0,0,0,0,0,0,0,0,0,0,0,0,0,0,0,0,0,0,0,0,0,0,0,0,0,0,0,0,0,0,0,0,0,0,0,0,0,0,0,0,0,0,0,0,0,0,0,0,0,0,0,0,
0,0,0,0,0,0,0,0,0,0,0,0,0,0,0,0,0,0,0,0,0,0,0,0,0,0,0,0,0,0,0,0,0,0,0,0,0,0,0,0,0,0,0,0,0,0,0,0,0,0,0,0,0,0,0,0,0,0,0,0,0,0,0,0,0,0,0,0,0,0,0,0,0,0,0,0,0,0,0,0,0,0,0,0,0,0,0,0,0,0,0,0,0,0,0,0,0,0,0,0,0,0,0,0,0,0,0,0,0,0,0,0,0,0,0,0,0,0,0,0,0,0,0,0,0,0,0,0,0,0,0,0,0,0,0,0,0,0,0,0,0,0,0,0,0,0,0,0,0,0,0,0,0,0,0,0,0,0,0,0,0,0,0,0,0,0,0,0,0,0,0,0,0,0,0,0,0,0,0,0,0,0,0,0,0,0,0,0,0,0,0,0,0,0,0,0,0,0,0,0,0,0,0,0,0,0,0,0,0,0,0,0,0,0,0,0,0,0,0,0,0,0,0,0,0,0,0,0,0,0,0,0,0,0,0,0,0,0,0,0,0,0,0,0,0,0,0,0,0,0,0,0,0,0,0,0,0,0,0,0,0,0,0,0,0,0,0,0,0,0,0,0,0,0,0,0,0,0,0,0,0,0,0,0,0,0,0,0,0,0,0,0,0,0,0,0,0,0,0,0,0,0,0,0,0,0,0,0,0,0,0,0,0,0,0,0,0,0,0,0,0,0,0,0,0,0,0,0,0,0,0,0,0,0,0,0,0,0,0,0,0,0,0,0,0,0,0,0,0,0,0,0,0,0,0,0,0,0,0,0,0,0,0,0,0,0,0,0,0,0,0,0,0,0,0,0,0,0,0,0,0,0,0,0,0,0,0,0,0,0,0,0,0,0,0,0,0,0,0,0,0,0,0,0,0,0,0,0,0,0,0,0,0,0,0,0,0,0,0,0,0,0,0,0,0,0,0,0,0,0,0,0,0,0,0,0,0,0,0,0,0,0,0,0,0,0,0,0,0,0,0,0,0,0,0,0,0,0,0,0,0,0,0,0,0,0,0,0,0,0,0,0,0,0,0,0,0,0,0,0,0,0,0,0,0,0,0,0,0,0,0,0,0,0,0,0,0,0,0,0,0,0,0,0,0,0,0,0,0,0,0,0,0,0,0,0,0,0,0,0,0,0,0,0,0,0,0,0,0,0,0,0,0,0,0,0,0,0,0,0,0,0,0,0,0,0,0,0,0,0,0,0,0,0,0,0,0,0,0,0,0,0,0,0,0,0,0,0,0,0,0,0,0,0,0,0,0,0,0,0,0,0,0,0,0,0,0,0,0,0,0,0,0,0,0,0,0,0,0,0,0,0,0,0,0,0,0,0,0,0,0,0,0,0,0,0,0,0,0,0,0,0,0,0,0,0,0,0,0,0,0,0,0,0,0,0,0,0,0,0,0,0,0,0,0,0,0,0,0,0,0,0,0,0,0,0,0,0,0,0,0,0,0,0,0,0,0,0,0,0,0,0,0,0,0,0,0,0,0,0,0,0,0,0,0,0,0,0,0,0,0,0,0,0,0,0,0,0,0,0,0,0,0,0,0,0,0,0,0,0,0,0,0,0,0,0,0,0,0,0,0,0,0,0,0,0,0,0,0,0,0,0,0,0,0,0,0,0,0,0,0,0,0,0,0,0,0,0,0,0,0,0,0,0,0,0,0,0,0,0,0,0,0,0,0,0,0,0,0,0,0,0,0,0,0,0,0,0,0,0,0,0,0,0,0,0,0,0,0,0,0,0,0,0,0,0,0,0,0,0,0,0,0,0,0,0,0,0,0,0,0,0,0,0,0,0,0,0,0,0,0,0,0,0,0,0,0,0,0,0,0,0,0,0,0,0,0,0,0,0,0,0,0,0,0,0,0,0,0,0,0,0,0,0,0,0,0,0,0,0,0,0,0,0,0,0,0,0,0,0,0,0,0,0,0,0,0,0,0,0,0,0,0,0,0,0,0,0,0,0,0,0,0,0,0,0,0,0,0,0,0,0,0,0,0,0,0,0,0,0,0,0,0,0,0,0,0,0,0,0,0,0,0,0,0,0,0,0,0,0,0,0,0,0,0,0,0,0,0,0,0,0,0,0,0,0,0,0,0,0,0,0,0,0,0,0,0,0,0,0,0,0,0,0,0,0,0,0,0,0,0,0,0,0,0,0,0,0,0,0,0,0,0,0,0,0,0,0,0,0,0,0,0,0,0,0,0,0,0,0,
0,0,0,0,0,0,0,0,0,0,0,0,0,0,0,0,0,0,0,0,0,0,0,0,0,0,0,0,0,0,0,0,0,0,0,0,0,0,0,0,0,0,0,0,0,0,0,0,0,0,0,0,0,0,0,0,0,0,0,0,0,0,0,0,0,0,0,0,0,0,0,0,0,0,0,0,0,0,0,0,0,0,0,0,0,0,0,0,0,0,0,0,0,0,0,0,0,0,0,0,0,0,0,0,0,0,0,0,0,0,0,0,0,0,0,0,0,0,0,0,0,0,0,0,0,0,0,0,0,0,0,0,0,0,0,0,0,0,0,0,0,0,0,0,0,0,0,0,0,0,0,0,0,0,0,0,0,0,0,0,0,0,0,0,0,0,0,0,0,0,0,0,0,0,0,0,0,0,0,0,0,0,0,0,0,0,0,0,0,0,0,0,0,0,0,0,0,0,0,0,0,0,0,0,0,0,0,0,0,0,0,0,0,0,0,0,0,0,0,0,0,0,0,0,0,0,0,0,0,0,0,0,0,0,0,0,0,0,0,0,0,0,0,0,0,0,0,0,0,0,0,0,0,0,0,0,0,0,0,0,0,0,0,0,0,0,0,0,0,0,0,0,0,0,0,0,0,0,0,0,0,0,0,0,0,0,0,0,0,0,0,0,0,0,0,0,0,0,0,0,0,0,0,0,0,0,0,0,0,0,0,0,0,0,0,0,0,0,0,0,0,0,0,0,0,0,0,0,0,0,0,0,0,0,0,0,0,0,0,0,0,0,0,0,0,0,0,0,0,0,0,0,0,0,0,0,0,0,0,0,0,0,0,0,0,0,0,0,0,0,0,0,0,0,0,0,0,0,0,0,0,0,0,0,0,0,0,0,0,0,0,0,0,0,0,0,0,0,0,0,0,0,0,0,0,0,0,0,0,0,0,0,0,0,0,0,0,0,0,0,0,0,0,0,0,0,0,0,0,0,0,0,0,0,0,0,0,0,0,0,0,0,0,0,0,0,0,0,0,0,0,0,0,0,0,0,0,0,0,0,0,0,0,0,0,0,0,0,0,0,0,0,0,0,0,0,0,0,0,0,0,0,0,0,0,0,0,0,0,0,0,0,0,0,0,0,0,0,0,0,0,0,0,0,0,0,0,0,0,0,0,0,0,0,0,0,0,0,0,0,0,0,0,0,0,0,0,0,0,0,0,0,0,0,0,0,0,0,0,0,0,0,0,0,0,0,0,0,0,0,0,0,0,0,0,0,0,0,0,0,0,0,0,0,0,0,0,0,0,0,0,0,0,0,0,0,0,0,0,0,0,0,0,0,0,0,0,0,0,0,0,0,0,0,0,0,0,0,0,0,0,0,0,0,0,0,0,0,0,0,0,0,0,0,0,0,0,0,0,0,0,0,0,0,0,0,0,0,0,0,0,0,0,0,0,0,0,0,0,0,0,0,0,0,0,0,0,0,0,0,0,0,0,0,0,0,0,0,0,0,0,0,0,0,0,0,0,0,0,0,0,0,0,0,0,0,0,0,0,0,0,0,0,0,0,0,0,0,0,0,0,0,0,0,0,0,0,0,0,0,0,0,0,0,0,0,0,0,0,0,0,0,0,0,0,0,0,0,0,0,0,0,0,0,0,0,0,0,0,0,0,0,0,0,0,0,0,0,0,0,0,0,0,0,0,0,0,0,0,0,0,0,0,0,0,0,0,0,0,0,0,0,0,0,0,0,0,0,0,0,0,0,0,0,0,0,0,0,0,0,0,0,0,0,0,0,0,0,0,0,0,0,0,0,0,0,0,0,0,0,0,0,0,0,0,0,0,0,0,0,0,0,0,0,0,0,0,0,0,0,0,0,0,0,0,0,0,0,0,0,0,0,0,0,0,0,0,0,0,0,0,0,0,0,0,0,0,0,0,0,0,0,0,0,0,0,0,0,0,0,0,0,0,0,0,0,0,0,0,0,0,0,0,0,0,0,0,0,0,0,0,0,0,0,0,0,0,0,0,0,0,0,0,0,0,0,0,0,0,0,0,0,0,0,0,0,0,0,0,0,0,0,0,0,0,0,0,0,0,0,0,0,0,0,0,0,0,0,0,0,0,0,0,0,0,0,0,0,0,0,0,0,0,0,0,0,0,0,0,0,0,0,0,0,0,0,0,0,0,0,0,0,0,0,0,0,0,0,0,0,0,0,0,0,0,0,0,0,0,0,0,0,0,0,0,0,0,0,0,0,0,0,0,0,0,0,0,0,0,0,
0,0,0,0,0,0,0,0,0,0,0,0,0,0,0,0,0,0,0,0,0,0,0,0,0,0,0,0,0,0,0,0,0,0,0,0,0,0,0,0,0,0,0,0,0,0,0,0,0,0,0,0,0,0,0,0,0,0,0,0,0,0,0,0,0,0,0,0,0,0,0,0,0,0,0,0,0,0,0,0,0,0,0,0,0,0,0,0,0,0,0,0,0,0,0,0,0,0,0,0,0,0,0,0,0,0,0,0,0,0,0,0,0,0,0,0,0,0,0,0,0,0,0,0,0,0,0,0,0,0,0,0,0,0,0,0,0,0,0,0,0,0,0,0,0,0,0,0,0,0,0,0,0,0,0,0,0,0,0,0,0,0,0,0,0,0,0,0,0,0,0,0,0,0,0,0,0,0,0,0,0,0,0,0,0,0,0,0,0,0,0,0,0,0,0,0,0,0,0,0,0,0,0,0,0,0,0,0,0,0,0,0,0,0,0,0,0,0,0,0,0,0,0,0,0,0,0,0,0,0,0,0,0,0,0,0,0,0,0,0,0,0,0,0,0,0,0,0,0,0,0,0,0,0,0,0,0,0,0,0,0,0,0,0,0,0,0,0,0,0,0,0,0,0,0,0,0,0,0,0,0,0,0,0,0,0,0,0,0,0,0,0,0,0,0,0,0,0,0,0,0,0,0,0,0,0,0,0,0,0,0,0,0,0,0,0,0,0,0,0,0,0,0,0,0,0,0,0,0,0,0,0,0,0,0,0,0,0,0,0,0,0,0,0,0,0,0,0,0,0,0,0,0,0,0,0,0,0,0,0,0,0,0,0,0,0,0,0,0,0,0,0,0,0,0,0,0,0,0,0,0,0,0,0,0,0,0,0,0,0,0,0,0,0,0,0,0,0,0,0,0,0,0,0,0,0,0,0,0,0,0,0,0,0,0,0,0,0,0,0,0,0,0,0,0,0,0,0,0,0,0,0,0,0,0,0,0,0,0,0,0,0,0,0,0,0,0,0,0,0,0,0,0,0,0,0,0,0,0,0,0,0,0,0,0,0,0,0,0,0,0,0,0,0,0,0,0,0,0,0,0,0,0,0,0,0,0,0,0,0,0,0,0,0,0,0,0,0,0,0,0,0,0,0,0,0,0,0,0,0,0,0,0,0,0,0,0,0,0,0,0,0,0,0,0,0,0,0,0,0,0,0,0,0,0,0,0,0,0,0,0,0,0,0,0,0,0,0,0,0,0,0,0,0,0,0,0,0,0,0,0,0,0,0,0,0,0,0,0,0,0,0,0,0,0,0,0,0,0,0,0,0,0,0,0,0,0,0,0,0,0,0,0,0,0,0,0,0,0,0,0,0,0,0,0,0,0,0,0,0,0,0,0,0,0,0,0,0,0,0,0,0,0,0,0,0,0,0,0,0,0,0,0,0,0,0,0,0,0,0,0,0,0,0,0,0,0,0,0,0,0,0,0,0,0,0,0,0,0,0,0,0,0,0,0,0,0,0,0,0,0,0,0,0,0,0,0,0,0,0,0,0,0,0,0,0,0,0,0,0,0,0,0,0,0,0,0,0,0,0,0,0,0,0,0,0,0,0,0,0,0,0,0,0,0,0,0,0,0,0,0,0,0,0,0,0,0,0,0,0,0,0,0,0,0,0,0,0,0,0,0,0,0,0,0,0,0,0,0,0,0,0,0,0,0,0,0,0,0,0,0,0,0,0,0,0,0,0,0,0,0,0,0,0,0,0,0,0,0,0,0,0,0,0,0,0,0,0,0,0,0,0,0,0,0,0,0,0,0,0,0,0,0,0,0,0,0,0,0,0,0,0,0,0,0,0,0,0,0,0,0,0,0,0,0,0,0,0,0,0,0,0,0,0,0,0,0,0,0,0,0,0,0,0,0,0,0,0,0,0,0,0,0,0,0,0,0,0,0,0,0,0,0,0,0,0,0,0,0,0,0,0,0,0,0,0,0,0,0,0,0,0,0,0,0,0,0,0,0,0,0,0,0,0,0,0,0,0,0,0,0,0,0,0,0,0,0,0,0,0,0,0,0,0,0,0,0,0,0,0,0,0,0,0,0,0,0,0,0,0,0,0,0,0,0,0,0,0,0,0,0,0,0,0,0,0,0,0,0,0,0,0,0,0,0,0,0,0,0,0,0,0,0,0,0,0,0,0,0,0,0,0,0,0,0,0,0,0,0,0,0,0,0,0,0,0,0,0,0,0,0,0,0,0,0,0,0,0,0,0,
0,0,0,0,0,0,0,0,0,0,0,0,0,0,0,0,0,0,0,0,0,0,0,0,0,0,0,0,0,0,0,0,0,0,0,0,0,0,0,0,0,0,0,0,0,0,0,0,0,0,0,0,0,0,0,0,0,0,0,0,0,0,0,0,0,0,0,0,0,0,0,0,0,0,0,0,0,0,0,0,0,0,0,0,0,0,0,0,0,0,0,0,0,0,0,0,0,0,0,0,0,0,0,0,0,0,0,0,0,0,0,0,0,0,0,0,0,0,0,0,0,0,0,0,0,0,0,0,0,0,0,0,0,0,0,0,0,0,0,0,0,0,0,0,0,0,0,0,0,0,0,0,0,0,0,0,0,0,0,0,0,0,0,0,0,0,0,0,0,0,0,0,0,0,0,0,0,0,0,0,0,0,0,0,0,0,0,0,0,0,0,0,0,0,0,0,0,0,0,0,0,0,0,0,0,0,0,0,0,0,0,0,0,0,0,0,0,0,0,0,0,0,0,0,0,0,0,0,0,0,0,0,0,0,0,0,0,0,0,0,0,0,0,0,0,0,0,0,0,0,0,0,0,0,0,0,0,0,0,0,0,0,0,0,0,0,0,0,0,0,0,0,0,0,0,0,0,0,0,0,0,0,0,0,0,0,0,0,0,0,0,0,0,0,0,0,0,0,0,0,0,0,0,0,0,0,0,0,0,0,0,0,0,0,0,0,0,0,0,0,0,0,0,0,0,0,0,0,0,0,0,0,0,0,0,0,0,0,0,0,0,0,0,0,0,0,0,0,0,0,0,0,0,0,0,0,0,0,0,0,0,0,0,0,0,0,0,0,0,0,0,0,0,0,0,0,0,0,0,0,0,0,0,0,0,0,0,0,0,0,0,0,0,0,0,0,0,0,0,0,0,0,0,0,0,0,0,0,0,0,0,0,0,0,0,0,0,0,0,0,0,0,0,0,0,0,0,0,0,0,0,0,0,0,0,0,0,0,0,0,0,0,0,0,0,0,0,0,0,0,0,0,0,0,0,0,0,0,0,0,0,0,0,0,0,0,0,0,0,0,0,0,0,0,0,0,0,0,0,0,0,0,0,0,0,0,0,0,0,0,0,0,0,0,0,0,0,0,0,0,0,0,0,0,0,0,0,0,0,0,0,0,0,0,0,0,0,0,0,0,0,0,0,0,0,0,0,0,0,0,0,0,0,0,0,0,0,0,0,0,0,0,0,0,0,0,0,0,0,0,0,0,0,0,0,0,0,0,0,0,0,0,0,0,0,0,0,0,0,0,0,0,0,0,0,0,0,0,0,0,0,0,0,0,0,0,0,0,0,0,0,0,0,0,0,0,0,0,0,0,0,0,0,0,0,0,0,0,0,0,0,0,0,0,0,0,0,0,0,0,0,0,0,0,0,0,0,0,0,0,0,0,0,0,0,0,0,0,0,0,0,0,0,0,0,0,0,0,0,0,0,0,0,0,0,0,0,0,0,0,0,0,0,0,0,0,0,0,0,0,0,0,0,0,0,0,0,0,0,0,0,0,0,0,0,0,0,0,0,0,0,0,0,0,0,0,0,0,0,0,0,0,0,0,0,0,0,0,0,0,0,0,0,0,0,0,0,0,0,0,0,0,0,0,0,0,0,0,0,0,0,0,0,0,0,0,0,0,0,0,0,0,0,0,0,0,0,0,0,0,0,0,0,0,0,0,0,0,0,0,0,0,0,0,0,0,0,0,0,0,0,0,0,0,0,0,0,0,0,0,0,0,0,0,0,0,0,0,0,0,0,0,0,0,0,0,0,0,0,0,0,0,0,0,0,0,0,0,0,0,0,0,0,0,0,0,0,0,0,0,0,0,0,0,0,0,0,0,0,0,0,0,0,0,0,0,0,0,0,0,0,0,0,0,0,0,0,0,0,0,0,0,0,0,0,0,0,0,0,0,0,0,0,0,0,0,0,0,0,0,0,0,0,0,0,0,0,0,0,0,0,0,0,0,0,0,0,0,0,0,0,0,0,0,0,0,0,0,0,0,0,0,0,0,0,0,0,0,0,0,0,0,0,0,0,0,0,0,0,0,0,0,0,0,0,0,0,0,0,0,0,0,0,0,0,0,0,0,0,0,0,0,0,0,0,0,0,0,0,0,0,0,0,0,0,0,0,0,0,0,0,0,0,0,0,0,0,0,0,0,0,0,0,0,0,0,0,0,0,0,0,0,0,0,0,0,0,0,0,0,0,0,0,0,0,0,0,0,0,0,
0,0,0,0,0,0,0,0,0,0,0,0,0,0,0,0,0,0,0,0,0,0,0,0,0,0,0,0,0,0,0,0,0,0,0,0,0,0,0,0,0,0,0,0,0,0,0,0,0,0,0,0,0,0,0,0,0,0,0,0,0,0,0,0,0,0,0,0,0,0,0,0,0,0,0,0,0,0,0,0,0,0,0,0,0,0,0,0,0,0,0,0,0,0,0,0,0,0,0,0,0,0,0,0,0,0,0,0,0,0,0,0,0,0,0,0,0,0,0,0,0,0,0,0,0,0,0,0,0,0,0,0,0,0,0,0,0,0,0,0,0,0,0,0,0,0,0,0,0,0,0,0,0,0,0,0,0,0,0,0,0,0,0,0,0,0,0,0,0,0,0,0,0,0,0,0,0,0,0,0,0,0,0,0,0,0,0,0,0,0,0,0,0,0,0,0,0,0,0,0,0,0,0,0,0,0,0,0,0,0,0,0,0,0,0,0,0,0,0,0,0,0,0,0,0,0,0,0,0,0,0,0,0,0,0,0,0,0,0,0,0,0,0,0,0,0,0,0,0,0,0,0,0,0,0,0,0,0,0,0,0,0,0,0,0,0,0,0,0,0,0,0,0,0,0,0,0,0,0,0,0,0,0,0,0,0,0,0,0,0,0,0,0,0,0,0,0,0,0,0,0,0,0,0,0,0,0,0,0,0,0,0,0,0,0,0,0,0,0,0,0,0,0,0,0,0,0,0,0,0,0,0,0,0,0,0,0,0,0,0,0,0,0,0,0,0,0,0,0,0,0,0,0,0,0,0,0,0,0,0,0,0,0,0,0,0,0,0,0,0,0,0,0,0,0,0,0,0,0,0,0,0,0,0,0,0,0,0,0,0,0,0,0,0,0,0,0,0,0,0,0,0,0,0,0,0,0,0,0,0,0,0,0,0,0,0,0,0,0,0,0,0,0,0,0,0,0,0,0,0,0,0,0,0,0,0,0,0,0,0,0,0,0,0,0,0,0,0,0,0,0,0,0,0,0,0,0,0,0,0,0,0,0,0,0,0,0,0,0,0,0,0,0,0,0,0,0,0,0,0,0,0,0,0,0,0,0,0,0,0,0,0,0,0,0,0,0,0,0,0,0,0,0,0,0,0,0,0,0,0,0,0,0,0,0,0,0,0,0,0,0,0,0,0,0,0,0,0,0,0,0,0,0,0,0,0,0,0,0,0,0,0,0,0,0,0,0,0,0,0,0,0,0,0,0,0,0,0,0,0,0,0,0,0,0,0,0,0,0,0,0,0,0,0,0,0,0,0,0,0,0,0,0,0,0,0,0,0,0,0,0,0,0,0,0,0,0,0,0,0,0,0,0,0,0,0,0,0,0,0,0,0,0,0,0,0,0,0,0,0,0,0,0,0,0,0,0,0,0,0,0,0,0,0,0,0,0,0,0,0,0,0,0,0,0,0,0,0,0,0,0,0,0,0,0,0,0,0,0,0,0,0,0,0,0,0,0,0,0,0,0,0,0,0,0,0,0,0,0,0,0,0,0,0,0,0,0,0,0,0,0,0,0,0,0,0,0,0,0,0,0,0,0,0,0,0,0,0,0,0,0,0,0,0,0,0,0,0,0,0,0,0,0,0,0,0,0,0,0,0,0,0,0,0,0,0,0,0,0,0,0,0,0,0,0,0,0,0,0,0,0,0,0,0,0,0,0,0,0,0,0,0,0,0,0,0,0,0,0,0,0,0,0,0,0,0,0,0,0,0,0,0,0,0,0,0,0,0,0,0,0,0,0,0,0,0,0,0,0,0,0,0,0,0,0,0,0,0,0,0,0,0,0,0,0,0,0,0,0,0,0,0,0,0,0,0,0,0,0,0,0,0,0,0,0,0,0,0,0,0,0,0,0,0,0,0,0,0,0,0,0,0,0,0,0,0,0,0,0,0,0,0,0,0,0,0,0,0,0,0,0,0,0,0,0,0,0,0,0,0,0,0,0,0,0,0,0,0,0,0,0,0,0,0,0,0,0,0,0,0,0,0,0,0,0,0,0,0,0,0,0,0,0,0,0,0,0,0,0,0,0,0,0,0,0,0,0,0,0,0,0,0,0,0,0,0,0,0,0,0,0,0,0,0,0,0,0,0,0,0,0,0,0,0,0,0,0,0,0,0,0,0,0,0,0,0,0,0,0,0,0,0,0,0,0,0,0,0,0,0,0,0,0,0,0,0,0,0,0,0,0,0,0,0,0,0,0,0,0,0,
0,0,0,0,0,0,0,0,0,0,0,0,0,0,0,0,0,0,0,0,0,0,0,0,0,0,0,0,0,0,0,0,0,0,0,0,0,0,0,0,0,0,0,0,0,0,0,0,0,0,0,0,0,0,0,0,0,0,0,0,0,0,0,0,0,0,0,0,0,0,0,0,0,0,0,0,0,0,0,0,0,0,0,0,0,0,0,0,0,0,0,0,0,0,0,0,0,0,0,0,0,0,0,0,0,0,0,0,0,0,0,0,0,0,0,0,0,0,0,0,0,0,0,0,0,0,0,0,0,0,0,0,0,0,0,0,0,0,0,0,0,0,0,0,0,0,0,0,0,0,0,0,0,0,0,0,0,0,0,0,0,0,0,0,0,0,0,0,0,0,0,0,0,0,0,0,0,0,0,0,0,0,0,0,0,0,0,0,0,0,0,0,0,0,0,0,0,0,0,0,0,0,0,0,0,0,0,0,0,0,0,0,0,0,0,0,0,0,0,0,0,0,0,0,0,0,0,0,0,0,0,0,0,0,0,0,0,0,0,0,0,0,0,0,0,0,0,0,0,0,0,0,0,0,0,0,0,0,0,0,0,0,0,0,0,0,0,0,0,0,0,0,0,0,0,0,0,0,0,0,0,0,0,0,0,0,0,0,0,0,0,0,0,0,0,0,0,0,0,0,0,0,0,0,0,0,0,0,0,0,0,0,0,0,0,0,0,0,0,0,0,0,0,0,0,0,0,0,0,0,0,0,0,0,0,0,0,0,0,0,0,0,0,0,0,0,0,0,0,0,0,0,0,0,0,0,0,0,0,0,0,0,0,0,0,0,0,0,0,0,0,0,0,0,0,0,0,0,0,0,0,0,0,0,0,0,0,0,0,0,0,0,0,0,0,0,0,0,0,0,0,0,0,0,0,0,0,0,0,0,0,0,0,0,0,0,0,0,0,0,0,0,0,0,0,0,0,0,0,0,0,0,0,0,0,0,0,0,0,0,0,0,0,0,0,0,0,0,0,0,0,0,0,0,0,0,0,0,0,0,0,0,0,0,0,0,0,0,0,0,0,0,0,0,0,0,0,0,0,0,0,0,0,0,0,0,0,0,0,0,0,0,0,0,0,0,0,0,0,0,0,0,0,0,0,0,0,0,0,0,0,0,0,0,0,0,0,0,0,0,0,0,0,0,0,0,0,0,0,0,0,0,0,0,0,0,0,0,0,0,0,0,0,0,0,0,0,0,0,0,0,0,0,0,0,0,0,0,0,0,0,0,0,0,0,0,0,0,0,0,0,0,0,0,0,0,0,0,0,0,0,0,0,0,0,0,0,0,0,0,0,0,0,0,0,0,0,0,0,0,0,0,0,0,0,0,0,0,0,0,0,0,0,0,0,0,0,0,0,0,0,0,0,0,0,0,0,0,0,0,0,0,0,0,0,0,0,0,0,0,0,0,0,0,0,0,0,0,0,0,0,0,0,0,0,0,0,0,0,0,0,0,0,0,0,0,0,0,0,0,0,0,0,0,0,0,0,0,0,0,0,0,0,0,0,0,0,0,0,0,0,0,0,0,0,0,0,0,0,0,0,0,0,0,0,0,0,0,0,0,0,0,0,0,0,0,0,0,0,0,0,0,0,0,0,0,0,0,0,0,0,0,0,0,0,0,0,0,0,0,0,0,0,0,0,0,0,0,0,0,0,0,0,0,0,0,0,0,0,0,0,0,0,0,0,0,0,0,0,0,0,0,0,0,0,0,0,0,0,0,0,0,0,0,0,0,0,0,0,0,0,0,0,0,0,0,0,0,0,0,0,0,0,0,0,0,0,0,0,0,0,0,0,0,0,0,0,0,0,0,0,0,0,0,0,0,0,0,0,0,0,0,0,0,0,0,0,0,0,0,0,0,0,0,0,0,0,0,0,0,0,0,0,0,0,0,0,0,0,0,0,0,0,0,0,0,0,0,0,0,0,0,0,0,0,0,0,0,0,0,0,0,0,0,0,0,0,0,0,0,0,0,0,0,0,0,0,0,0,0,0,0,0,0,0,0,0,0,0,0,0,0,0,0,0,0,0,0,0,0,0,0,0,0,0,0,0,0,0,0,0,0,0,0,0,0,0,0,0,0,0,0,0,0,0,0,0,0,0,0,0,0,0,0,0,0,0,0,0,0,0,0,0,0,0,0,0,0,0,0,0,0,0,0,0,0,0,0,0,0,0,0,0,0,0,0,0,0,0,0,0,0,0,0,0,0,0,0,0,0,
0,0,0,0,0,0,0,0,0,0,0,0,0,0,0,0,0,0,0,0,0,0,0,0,0,0,0,0,0,0,0,0,0,0,0,0,0,0,0,0,0,0,0,0,0,0,0,0,0,0,0,0,0,0,0,0,0,0,0,0,0,0,0,0,0,0,0,0,0,0,0,0,0,0,0,0,0,0,0,0,0,0,0,0,0,0,0,0,0,0,0,0,0,0,0,0,0,0,0,0,0,0,0,0,0,0,0,0,0,0,0,0,0,0,0,0,0,0,0,0,0,0,0,0,0,0,0,0,0,0,0,0,0,0,0,0,0,0,0,0,0,0,0,0,0,0,0,0,0,0,0,0,0,0,0,0,0,0,0,0,0,0,0,0,0,0,0,0,0,0,0,0,0,0,0,0,0,0,0,0,0,0,0,0,0,0,0,0,0,0,0,0,0,0,0,0,0,0,0,0,0,0,0,0,0,0,0,0,0,0,0,0,0,0,0,0,0,0,0,0,0,0,0,0,0,0,0,0,0,0,0,0,0,0,0,0,0,0,0,0,0,0,0,0,0,0,0,0,0,0,0,0,0,0,0,0,0,0,0,0,0,0,0,0,0,0,0,0,0,0,0,0,0,0,0,0,0,0,0,0,0,0,0,0,0,0,0,0,0,0,0,0,0,0,0,0,0,0,0,0,0,0,0,0,0,0,0,0,0,0,0,0,0,0,0,0,0,0,0,0,0,0,0,0,0,0,0,0,0,0,0,0,0,0,0,0,0,0,0,0,0,0,0,0,0,0,0,0,0,0,0,0,0,0,0,0,0,0,0,0,0,0,0,0,0,0,0,0,0,0,0,0,0,0,0,0,0,0,0,0,0,0,0,0,0,0,0,0,0,0,0,0,0,0,0,0,0,0,0,0,0,0,0,0,0,0,0,0,0,0,0,0,0,0,0,0,0,0,0,0,0,0,0,0,0,0,0,0,0,0,0,0,0,0,0,0,0,0,0,0,0,0,0,0,0,0,0,0,0,0,0,0,0,0,0,0,0,0,0,0,0,0,0,0,0,0,0,0,0,0,0,0,0,0,0,0,0,0,0,0,0,0,0,0,0,0,0,0,0,0,0,0,0,0,0,0,0,0,0,0,0,0,0,0,0,0,0,0,0,0,0,0,0,0,0,0,0,0,0,0,0,0,0,0,0,0,0,0,0,0,0,0,0,0,0,0,0,0,0,0,0,0,0,0,0,0,0,0,0,0,0,0,0,0,0,0,0,0,0,0,0,0,0,0,0,0,0,0,0,0,0,0,0,0,0,0,0,0,0,0,0,0,0,0,0,0,0,0,0,0,0,0,0,0,0,0,0,0,0,0,0,0,0,0,0,0,0,0,0,0,0,0,0,0,0,0,0,0,0,0,0,0,0,0,0,0,0,0,0,0,0,0,0,0,0,0,0,0,0,0,0,0,0,0,0,0,0,0,0,0,0,0,0,0,0,0,0,0,0,0,0,0,0,0,0,0,0,0,0,0,0,0,0,0,0,0,0,0,0,0,0,0,0,0,0,0,0,0,0,0,0,0,0,0,0,0,0,0,0,0,0,0,0,0,0,0,0,0,0,0,0,0,0,0,0,0,0,0,0,0,0,0,0,0,0,0,0,0,0,0,0,0,0,0,0,0,0,0,0,0,0,0,0,0,0,0,0,0,0,0,0,0,0,0,0,0,0,0,0,0,0,0,0,0,0,0,0,0,0,0,0,0,0,0,0,0,0,0,0,0,0,0,0,0,0,0,0,0,0,0,0,0,0,0,0,0,0,0,0,0,0,0,0,0,0,0,0,0,0,0,0,0,0,0,0,0,0,0,0,0,0,0,0,0,0,0,0,0,0,0,0,0,0,0,0,0,0,0,0,0,0,0,0,0,0,0,0,0,0,0,0,0,0,0,0,0,0,0,0,0,0,0,0,0,0,0,0,0,0,0,0,0,0,0,0,0,0,0,0,0,0,0,0,0,0,0,0,0,0,0,0,0,0,0,0,0,0,0,0,0,0,0,0,0,0,0,0,0,0,0,0,0,0,0,0,0,0,0,0,0,0,0,0,0,0,0,0,0,0,0,0,0,0,0,0,0,0,0,0,0,0,0,0,0,0,0,0,0,0,0,0,0,0,0,0,0,0,0,0,0,0,0,0,0,0,0,0,0,0,0,0,0,0,0,0,0,0,0,0,0,0,0,0,0,0,0,0,0,0,0,0,0,0,0,0,0,0,0,0,0,
0,0,0,0,0,0,0,0,0,0,0,0,0,0,0,0,0,0,0,0,0,0,0,0,0,0,0,0,0,0,0,0,0,0,0,0,0,0,0,0,0,0,0,0,0,0,0,0,0,0,0,0,0,0,0,0,0,0,0,0,0,0,0,0,0,0,0,0,0,0,0,0,0,0,0,0,0,0,0,0,0,0,0,0,0,0,0,0,0,0,0,0,0,0,0,0,0,0,0,0,0,0,0,0,0,0,0,0,0,0,0,0,0,0,0,0,0,0,0,0,0,0,0,0,0,0,0,0,0,0,0,0,0,0,0,0,0,0,0,0,0,0,0,0,0,0,0,0,0,0,0,0,0,0,0,0,0,0,0,0,0,0,0,0,0,0,0,0,0,0,0,0,0,0,0,0,0,0,0,0,0,0,0,0,0,0,0,0,0,0,0,0,0,0,0,0,0,0,0,0,0,0,0,0,0,0,0,0,0,0,0,0,0,0,0,0,0,0,0,0,0,0,0,0,0,0,0,0,0,0,0,0,0,0,0,0,0,0,0,0,0,0,0,0,0,0,0,0,0,0,0,0,0,0,0,0,0,0,0,0,0,0,0,0,0,0,0,0,0,0,0,0,0,0,0,0,0,0,0,0,0,0,0,0,0,0,0,0,0,0,0,0,0,0,0,0,0,0,0,0,0,0,0,0,0,0,0,0,0,0,0,0,0,0,0,0,0,0,0,0,0,0,0,0,0,0,0,0,0,0,0,0,0,0,0,0,0,0,0,0,0,0,0,0,0,0,0,0,0,0,0,0,0,0,0,0,0,0,0,0,0,0,0,0,0,0,0,0,0,0,0,0,0,0,0,0,0,0,0,0,0,0,0,0,0,0,0,0,0,0,0,0,0,0,0,0,0,0,0,0,0,0,0,0,0,0,0,0,0,0,0,0,0,0,0,0,0,0,0,0,0,0,0,0,0,0,0,0,0,0,0,0,0,0,0,0,0,0,0,0,0,0,0,0,0,0,0,0,0,0,0,0,0,0,0,0,0,0,0,0,0,0,0,0,0,0,0,0,0,0,0,0,0,0,0,0,0,0,0,0,0,0,0,0,0,0,0,0,0,0,0,0,0,0,0,0,0,0,0,0,0,0,0,0,0,0,0,0,0,0,0,0,0,0,0,0,0,0,0,0,0,0,0,0,0,0,0,0,0,0,0,0,0,0,0,0,0,0,0,0,0,0,0,0,0,0,0,0,0,0,0,0,0,0,0,0,0,0,0,0,0,0,0,0,0,0,0,0,0,0,0,0,0,0,0,0,0,0,0,0,0,0,0,0,0,0,0,0,0,0,0,0,0,0,0,0,0,0,0,0,0,0,0,0,0,0,0,0,0,0,0,0,0,0,0,0,0,0,0,0,0,0,0,0,0,0,0,0,0,0,0,0,0,0,0,0,0,0,0,0,0,0,0,0,0,0,0,0,0,0,0,0,0,0,0,0,0,0,0,0,0,0,0,0,0,0,0,0,0,0,0,0,0,0,0,0,0,0,0,0,0,0,0,0,0,0,0,0,0,0,0,0,0,0,0,0,0,0,0,0,0,0,0,0,0,0,0,0,0,0,0,0,0,0,0,0,0,0,0,0,0,0,0,0,0,0,0,0,0,0,0,0,0,0,0,0,0,0,0,0,0,0,0,0,0,0,0,0,0,0,0,0,0,0,0,0,0,0,0,0,0,0,0,0,0,0,0,0,0,0,0,0,0,0,0,0,0,0,0,0,0,0,0,0,0,0,0,0,0,0,0,0,0,0,0,0,0,0,0,0,0,0,0,0,0,0,0,0,0,0,0,0,0,0,0,0,0,0,0,0,0,0,0,0,0,0,0,0,0,0,0,0,0,0,0,0,0,0,0,0,0,0,0,0,0,0,0,0,0,0,0,0,0,0,0,0,0,0,0,0,0,0,0,0,0,0,0,0,0,0,0,0,0,0,0,0,0,0,0,0,0,0,0,0,0,0,0,0,0,0,0,0,0,0,0,0,0,0,0,0,0,0,0,0,0,0,0,0,0,0,0,0,0,0,0,0,0,0,0,0,0,0,0,0,0,0,0,0,0,0,0,0,0,0,0,0,0,0,0,0,0,0,0,0,0,0,0,0,0,0,0,0,0,0,0,0,0,0,0,0,0,0,0,0,0,0,0,0,0,0,0,0,0,0,0,0,0,0,0,0,0,0,0,0,0,0,0,0,0,0,0,0,0,0,0,0,0,0,0,0,
0,0,0,0,0,0,0,0,0,0,0,0,0,0,0,0,0,0,0,0,0,0,0,0,0,0,0,0,0,0,0,0,0,0,0,0,0,0,0,0,0,0,0,0,0,0,0,0,0,0,0,0,0,0,0,0,0,0,0,0,0,0,0,0,0,0,0,0,0,0,0,0,0,0,0,0,0,0,0,0,0,0,0,0,0,0,0,0,0,0,0,0,0,0,0,0,0,0,0,0,0,0,0,0,0,0,0,0,0,0,0,0,0,0,0,0,0,0,0,0,0,0,0,0,0,0,0,0,0,0,0,0,0,0,0,0,0,0,0,0,0,0,0,0,0,0,0,0,0,0,0,0,0,0,0,0,0,0,0,0,0,0,0,0,0,0,0,0,0,0,0,0,0,0,0,0,0,0,0,0,0,0,0,0,0,0,0,0,0,0,0,0,0,0,0,0,0,0,0,0,0,0,0,0,0,0,0,0,0,0,0,0,0,0,0,0,0,0,0,0,0,0,0,0,0,0,0,0,0,0,0,0,0,0,0,0,0,0,0,0,0,0,0,0,0,0,0,0,0,0,0,0,0,0,0,0,0,0,0,0,0,0,0,0,0,0,0,0,0,0,0,0,0,0,0,0,0,0,0,0,0,0,0,0,0,0,0,0,0,0,0,0,0,0,0,0,0,0,0,0,0,0,0,0,0,0,0,0,0,0,0,0,0,0,0,0,0,0,0,0,0,0,0,0,0,0,0,0,0,0,0,0,0,0,0,0,0,0,0,0,0,0,0,0,0,0,0,0,0,0,0,0,0,0,0,0,0,0,0,0,0,0,0,0,0,0,0,0,0,0,0,0,0,0,0,0,0,0,0,0,0,0,0,0,0,0,0,0,0,0,0,0,0,0,0,0,0,0,0,0,0,0,0,0,0,0,0,0,0,0,0,0,0,0,0,0,0,0,0,0,0,0,0,0,0,0,0,0,0,0,0,0,0,0,0,0,0,0,0,0,0,0,0,0,0,0,0,0,0,0,0,0,0,0,0,0,0,0,0,0,0,0,0,0,0,0,0,0,0,0,0,0,0,0,0,0,0,0,0,0,0,0,0,0,0,0,0,0,0,0,0,0,0,0,0,0,0,0,0,0,0,0,0,0,0,0,0,0,0,0,0,0,0,0,0,0,0,0,0,0,0,0,0,0,0,0,0,0,0,0,0,0,0,0,0,0,0,0,0,0,0,0,0,0,0,0,0,0,0,0,0,0,0,0,0,0,0,0,0,0,0,0,0,0,0,0,0,0,0,0,0,0,0,0,0,0,0,0,0,0,0,0,0,0,0,0,0,0,0,0,0,0,0,0,0,0,0,0,0,0,0,0,0,0,0,0,0,0,0,0,0,0,0,0,0,0,0,0,0,0,0,0,0,0,0,0,0,0,0,0,0,0,0,0,0,0,0,0,0,0,0,0,0,0,0,0,0,0,0,0,0,0,0,0,0,0,0,0,0,0,0,0,0,0,0,0,0,0,0,0,0,0,0,0,0,0,0,0,0,0,0,0,0,0,0,0,0,0,0,0,0,0,0,0,0,0,0,0,0,0,0,0,0,0,0,0,0,0,0,0,0,0,0,0,0,0,0,0,0,0,0,0,0,0,0,0,0,0,0,0,0,0,0,0,0,0,0,0,0,0,0,0,0,0,0,0,0,0,0,0,0,0,0,0,0,0,0,0,0,0,0,0,0,0,0,0,0,0,0,0,0,0,0,0,0,0,0,0,0,0,0,0,0,0,0,0,0,0,0,0,0,0,0,0,0,0,0,0,0,0,0,0,0,0,0,0,0,0,0,0,0,0,0,0,0,0,0,0,0,0,0,0,0,0,0,0,0,0,0,0,0,0,0,0,0,0,0,0,0,0,0,0,0,0,0,0,0,0,0,0,0,0,0,0,0,0,0,0,0,0,0,0,0,0,0,0,0,0,0,0,0,0,0,0,0,0,0,0,0,0,0,0,0,0,0,0,0,0,0,0,0,0,0,0,0,0,0,0,0,0,0,0,0,0,0,0,0,0,0,0,0,0,0,0,0,0,0,0,0,0,0,0,0,0,0,0,0,0,0,0,0,0,0,0,0,0,0,0,0,0,0,0,0,0,0,0,0,0,0,0,0,0,0,0,0,0,0,0,0,0,0,0,0,0,0,0,0,0,0,0,0,0,0,0,0,0,0,0,0,0,0,0,0,0,0,0,0,0,0,0,0,0,0,0,0,0,0,0,0,0,
0,0,0,0,0,0,0,0,0,0,0,0,0,0,0,0,0,0,0,0,0,0,0,0,0,0,0,0,0,0,0,0,0,0,0,0,0,0,0,0,0,0,0,0,0,0,0,0,0,0,0,0,0,0,0,0,0,0,0,0,0,0,0,0,0,0,0,0,0,0,0,0,0,0,0,0,0,0,0,0,0,0,0,0,0,0,0,0,0,0,0,0,0,0,0,0,0,0,0,0,0,0,0,0,0,0,0,0,0,0,0,0,0,0,0,0,0,0,0,0,0,0,0,0,0,0,0,0,0,0,0,0,0,0,0,0,0,0,0,0,0,0,0,0,0,0,0,0,0,0,0,0,0,0,0,0,0,0,0,0,0,0,0,0,0,0,0,0,0,0,0,0,0,0,0,0,0,0,0,0,0,0,0,0,0,0,0,0,0,0,0,0,0,0,0,0,0,0,0,0,0,0,0,0,0,0,0,0,0,0,0,0,0,0,0,0,0,0,0,0,0,0,0,0,0,0,0,0,0,0,0,0,0,0,0,0,0,0,0,0,0,0,0,0,0,0,0,0,0,0,0,0,0,0,0,0,0,0,0,0,0,0,0,0,0,0,0,0,0,0,0,0,0,0,0,0,0,0,0,0,0,0,0,0,0,0,0,0,0,0,0,0,0,0,0,0,0,0,0,0,0,0,0,0,0,0,0,0,0,0,0,0,0,0,0,0,0,0,0,0,0,0,0,0,0,0,0,0,0,0,0,0,0,0,0,0,0,0,0,0,0,0,0,0,0,0,0,0,0,0,0,0,0,0,0,0,0,0,0,0,0,0,0,0,0,0,0,0,0,0,0,0,0,0,0,0,0,0,0,0,0,0,0,0,0,0,0,0,0,0,0,0,0,0,0,0,0,0,0,0,0,0,0,0,0,0,0,0,0,0,0,0,0,0,0,0,0,0,0,0,0,0,0,0,0,0,0,0,0,0,0,0,0,0,0,0,0,0,0,0,0,0,0,0,0,0,0,0,0,0,0,0,0,0,0,0,0,0,0,0,0,0,0,0,0,0,0,0,0,0,0,0,0,0,0,0,0,0,0,0,0,0,0,0,0,0,0,0,0,0,0,0,0,0,0,0,0,0,0,0,0,0,0,0,0,0,0,0,0,0,0,0,0,0,0,0,0,0,0,0,0,0,0,0,0,0,0,0,0,0,0,0,0,0,0,0,0,0,0,0,0,0,0,0,0,0,0,0,0,0,0,0,0,0,0,0,0,0,0,0,0,0,0,0,0,0,0,0,0,0,0,0,0,0,0,0,0,0,0,0,0,0,0,0,0,0,0,0,0,0,0,0,0,0,0,0,0,0,0,0,0,0,0,0,0,0,0,0,0,0,0,0,0,0,0,0,0,0,0,0,0,0,0,0,0,0,0,0,0,0,0,0,0,0,0,0,0,0,0,0,0,0,0,0,0,0,0,0,0,0,0,0,0,0,0,0,0,0,0,0,0,0,0,0,0,0,0,0,0,0,0,0,0,0,0,0,0,0,0,0,0,0,0,0,0,0,0,0,0,0,0,0,0,0,0,0,0,0,0,0,0,0,0,0,0,0,0,0,0,0,0,0,0,0,0,0,0,0,0,0,0,0,0,0,0,0,0,0,0,0,0,0,0,0,0,0,0,0,0,0,0,0,0,0,0,0,0,0,0,0,0,0,0,0,0,0,0,0,0,0,0,0,0,0,0,0,0,0,0,0,0,0,0,0,0,0,0,0,0,0,0,0,0,0,0,0,0,0,0,0,0,0,0,0,0,0,0,0,0,0,0,0,0,0,0,0,0,0,0,0,0,0,0,0,0,0,0,0,0,0,0,0,0,0,0,0,0,0,0,0,0,0,0,0,0,0,0,0,0,0,0,0,0,0,0,0,0,0,0,0,0,0,0,0,0,0,0,0,0,0,0,0,0,0,0,0,0,0,0,0,0,0,0,0,0,0,0,0,0,0,0,0,0,0,0,0,0,0,0,0,0,0,0,0,0,0,0,0,0,0,0,0,0,0,0,0,0,0,0,0,0,0,0,0,0,0,0,0,0,0,0,0,0,0,0,0,0,0,0,0,0,0,0,0,0,0,0,0,0,0,0,0,0,0,0,0,0,0,0,0,0,0,0,0,0,0,0,0,0,0,0,0,0,0,0,0,0,0,0,0,0,0,0,0,0,0,0,0,0,0,0,0,0,0,0,0,0,0,0,0,0,0,0,0,0,0,0,0,0,0,
0,0,0,0,0,0,0,0,0,0,0,0,0,0,0,0,0,0,0,0,0,0,0,0,0,0,0,0,0,0,0,0,0,0,0,0,0,0,0,0,0,0,0,0,0,0,0,0,0,0,0,0,0,0,0,0,0,0,0,0,0,0,0,0,0,0,0,0,0,0,0,0,0,0,0,0,0,0,0,0,0,0,0,0,0,0,0,0,0,0,0,0,0,0,0,0,0,0,0,0,0,0,0,0,0,0,0,0,0,0,0,0,0,0,0,0,0,0,0,0,0,0,0,0,0,0,0,0,0,0,0,0,0,0,0,0,0,0,0,0,0,0,0,0,0,0,0,0,0,0,0,0,0,0,0,0,0,0,0,0,0,0,0,0,0,0,0,0,0,0,0,0,0,0,0,0,0,0,0,0,0,0,0,0,0,0,0,0,0,0,0,0,0,0,0,0,0,0,0,0,0,0,0,0,0,0,0,0,0,0,0,0,0,0,0,0,0,0,0,0,0,0,0,0,0,0,0,0,0,0,0,0,0,0,0,0,0,0,0,0,0,0,0,0,0,0,0,0,0,0,0,0,0,0,0,0,0,0,0,0,0,0,0,0,0,0,0,0,0,0,0,0,0,0,0,0,0,0,0,0,0,0,0,0,0,0,0,0,0,0,0,0,0,0,0,0,0,0,0,0,0,0,0,0,0,0,0,0,0,0,0,0,0,0,0,0,0,0,0,0,0,0,0,0,0,0,0,0,0,0,0,0,0,0,0,0,0,0,0,0,0,0,0,0,0,0,0,0,0,0,0,0,0,0,0,0,0,0,0,0,0,0,0,0,0,0,0,0,0,0,0,0,0,0,0,0,0,0,0,0,0,0,0,0,0,0,0,0,0,0,0,0,0,0,0,0,0,0,0,0,0,0,0,0,0,0,0,0,0,0,0,0,0,0,0,0,0,0,0,0,0,0,0,0,0,0,0,0,0,0,0,0,0,0,0,0,0,0,0,0,0,0,0,0,0,0,0,0,0,0,0,0,0,0,0,0,0,0,0,0,0,0,0,0,0,0,0,0,0,0,0,0,0,0,0,0,0,0,0,0,0,0,0,0,0,0,0,0,0,0,0,0,0,0,0,0,0,0,0,0,0,0,0,0,0,0,0,0,0,0,0,0,0,0,0,0,0,0,0,0,0,0,0,0,0,0,0,0,0,0,0,0,0,0,0,0,0,0,0,0,0,0,0,0,0,0,0,0,0,0,0,0,0,0,0,0,0,0,0,0,0,0,0,0,0,0,0,0,0,0,0,0,0,0,0,0,0,0,0,0,0,0,0,0,0,0,0,0,0,0,0,0,0,0,0,0,0,0,0,0,0,0,0,0,0,0,0,0,0,0,0,0,0,0,0,0,0,0,0,0,0,0,0,0,0,0,0,0,0,0,0,0,0,0,0,0,0,0,0,0,0,0,0,0,0,0,0,0,0,0,0,0,0,0,0,0,0,0,0,0,0,0,0,0,0,0,0,0,0,0,0,0,0,0,0,0,0,0,0,0,0,0,0,0,0,0,0,0,0,0,0,0,0,0,0,0,0,0,0,0,0,0,0,0,0,0,0,0,0,0,0,0,0,0,0,0,0,0,0,0,0,0,0,0,0,0,0,0,0,0,0,0,0,0,0,0,0,0,0,0,0,0,0,0,0,0,0,0,0,0,0,0,0,0,0,0,0,0,0,0,0,0,0,0,0,0,0,0,0,0,0,0,0,0,0,0,0,0,0,0,0,0,0,0,0,0,0,0,0,0,0,0,0,0,0,0,0,0,0,0,0,0,0,0,0,0,0,0,0,0,0,0,0,0,0,0,0,0,0,0,0,0,0,0,0,0,0,0,0,0,0,0,0,0,0,0,0,0,0,0,0,0,0,0,0,0,0,0,0,0,0,0,0,0,0,0,0,0,0,0,0,0,0,0,0,0,0,0,0,0,0,0,0,0,0,0,0,0,0,0,0,0,0,0,0,0,0,0,0,0,0,0,0,0,0,0,0,0,0,0,0,0,0,0,0,0,0,0,0,0,0,0,0,0,0,0,0,0,0,0,0,0,0,0,0,0,0,0,0,0,0,0,0,0,0,0,0,0,0,0,0,0,0,0,0,0,0,0,0,0,0,0,0,0,0,0,0,0,0,0,0,0,0,0,0,0,0,0,0,0,0,0,0,0,0,0,0,0,0,0,0,0,0,0,0,0,0,0,0,0,0,0,0,0,0,0,0,0,0,0,
0,0,0,0,0,0,0,0,0,0,0,0,0,0,0,0,0,0,0,0,0,0,0,0,0,0,0,0,0,0,0,0,0,0,0,0,0,0,0,0,0,0,0,0,0,0,0,0,0,0,0,0,0,0,0,0,0,0,0,0,0,0,0,0,0,0,0,0,0,0,0,0,0,0,0,0,0,0,0,0,0,0,0,0,0,0,0,0,0,0,0,0,0,0,0,0,0,0,0,0,0,0,0,0,0,0,0,0,0,0,0,0,0,0,0,0,0,0,0,0,0,0,0,0,0,0,0,0,0,0,0,0,0,0,0,0,0,0,0,0,0,0,0,0,0,0,0,0,0,0,0,0,0,0,0,0,0,0,0,0,0,0,0,0,0,0,0,0,0,0,0,0,0,0,0,0,0,0,0,0,0,0,0,0,0,0,0,0,0,0,0,0,0,0,0,0,0,0,0,0,0,0,0,0,0,0,0,0,0,0,0,0,0,0,0,0,0,0,0,0,0,0,0,0,0,0,0,0,0,0,0,0,0,0,0,0,0,0,0,0,0,0,0,0,0,0,0,0,0,0,0,0,0,0,0,0,0,0,0,0,0,0,0,0,0,0,0,0,0,0,0,0,0,0,0,0,0,0,0,0,0,0,0,0,0,0,0,0,0,0,0,0,0,0,0,0,0,0,0,0,0,0,0,0,0,0,0,0,0,0,0,0,0,0,0,0,0,0,0,0,0,0,0,0,0,0,0,0,0,0,0,0,0,0,0,0,0,0,0,0,0,0,0,0,0,0,0,0,0,0,0,0,0,0,0,0,0,0,0,0,0,0,0,0,0,0,0,0,0,0,0,0,0,0,0,0,0,0,0,0,0,0,0,0,0,0,0,0,0,0,0,0,0,0,0,0,0,0,0,0,0,0,0,0,0,0,0,0,0,0,0,0,0,0,0,0,0,0,0,0,0,0,0,0,0,0,0,0,0,0,0,0,0,0,0,0,0,0,0,0,0,0,0,0,0,0,0,0,0,0,0,0,0,0,0,0,0,0,0,0,0,0,0,0,0,0,0,0,0,0,0,0,0,0,0,0,0,0,0,0,0,0,0,0,0,0,0,0,0,0,0,0,0,0,0,0,0,0,0,0,0,0,0,0,0,0,0,0,0,0,0,0,0,0,0,0,0,0,0,0,0,0,0,0,0,0,0,0,0,0,0,0,0,0,0,0,0,0,0,0,0,0,0,0,0,0,0,0,0,0,0,0,0,0,0,0,0,0,0,0,0,0,0,0,0,0,0,0,0,0,0,0,0,0,0,0,0,0,0,0,0,0,0,0,0,0,0,0,0,0,0,0,0,0,0,0,0,0,0,0,0,0,0,0,0,0,0,0,0,0,0,0,0,0,0,0,0,0,0,0,0,0,0,0,0,0,0,0,0,0,0,0,0,0,0,0,0,0,0,0,0,0,0,0,0,0,0,0,0,0,0,0,0,0,0,0,0,0,0,0,0,0,0,0,0,0,0,0,0,0,0,0,0,0,0,0,0,0,0,0,0,0,0,0,0,0,0,0,0,0,0,0,0,0,0,0,0,0,0,0,0,0,0,0,0,0,0,0,0,0,0,0,0,0,0,0,0,0,0,0,0,0,0,0,0,0,0,0,0,0,0,0,0,0,0,0,0,0,0,0,0,0,0,0,0,0,0,0,0,0,0,0,0,0,0,0,0,0,0,0,0,0,0,0,0,0,0,0,0,0,0,0,0,0,0,0,0,0,0,0,0,0,0,0,0,0,0,0,0,0,0,0,0,0,0,0,0,0,0,0,0,0,0,0,0,0,0,0,0,0,0,0,0,0,0,0,0,0,0,0,0,0,0,0,0,0,0,0,0,0,0,0,0,0,0,0,0,0,0,0,0,0,0,0,0,0,0,0,0,0,0,0,0,0,0,0,0,0,0,0,0,0,0,0,0,0,0,0,0,0,0,0,0,0,0,0,0,0,0,0,0,0,0,0,0,0,0,0,0,0,0,0,0,0,0,0,0,0,0,0,0,0,0,0,0,0,0,0,0,0,0,0,0,0,0,0,0,0,0,0,0,0,0,0,0,0,0,0,0,0,0,0,0,0,0,0,0,0,0,0,0,0,0,0,0,0,0,0,0,0,0,0,0,0,0,0,0,0,0,0,0,0,0,0,0,0,0,0,0,0,0,0,0,0,0,0,0,0,0,0,0,0,0,0,0,0,0,0,0,0,0,0,0,0,0,0,0,0,0,0,
0,0,0,0,0,0,0,0,0,0,0,0,0,0,0,0,0,0,0,0,0,0,0,0,0,0,0,0,0,0,0,0,0,0,0,0,0,0,0,0,0,0,0,0,0,0,0,0,0,0,0,0,0,0,0,0,0,0,0,0,0,0,0,0,0,0,0,0,0,0,0,0,0,0,0,0,0,0,0,0,0,0,0,0,0,0,0,0,0,0,0,0,0,0,0,0,0,0,0,0,0,0,0,0,0,0,0,0,0,0,0,0,0,0,0,0,0,0,0,0,0,0,0,0,0,0,0,0,0,0,0,0,0,0,0,0,0,0,0,0,0,0,0,0,0,0,0,0,0,0,0,0,0,0,0,0,0,0,0,0,0,0,0,0,0,0,0,0,0,0,0,0,0,0,0,0,0,0,0,0,0,0,0,0,0,0,0,0,0,0,0,0,0,0,0,0,0,0,0,0,0,0,0,0,0,0,0,0,0,0,0,0,0,0,0,0,0,0,0,0,0,0,0,0,0,0,0,0,0,0,0,0,0,0,0,0,0,0,0,0,0,0,0,0,0,0,0,0,0,0,0,0,0,0,0,0,0,0,0,0,0,0,0,0,0,0,0,0,0,0,0,0,0,0,0,0,0,0,0,0,0,0,0,0,0,0,0,0,0,0,0,0,0,0,0,0,0,0,0,0,0,0,0,0,0,0,0,0,0,0,0,0,0,0,0,0,0,0,0,0,0,0,0,0,0,0,0,0,0,0,0,0,0,0,0,0,0,0,0,0,0,0,0,0,0,0,0,0,0,0,0,0,0,0,0,0,0,0,0,0,0,0,0,0,0,0,0,0,0,0,0,0,0,0,0,0,0,0,0,0,0,0,0,0,0,0,0,0,0,0,0,0,0,0,0,0,0,0,0,0,0,0,0,0,0,0,0,0,0,0,0,0,0,0,0,0,0,0,0,0,0,0,0,0,0,0,0,0,0,0,0,0,0,0,0,0,0,0,0,0,0,0,0,0,0,0,0,0,0,0,0,0,0,0,0,0,0,0,0,0,0,0,0,0,0,0,0,0,0,0,0,0,0,0,0,0,0,0,0,0,0,0,0,0,0,0,0,0,0,0,0,0,0,0,0,0,0,0,0,0,0,0,0,0,0,0,0,0,0,0,0,0,0,0,0,0,0,0,0,0,0,0,0,0,0,0,0,0,0,0,0,0,0,0,0,0,0,0,0,0,0,0,0,0,0,0,0,0,0,0,0,0,0,0,0,0,0,0,0,0,0,0,0,0,0,0,0,0,0,0,0,0,0,0,0,0,0,0,0,0,0,0,0,0,0,0,0,0,0,0,0,0,0,0,0,0,0,0,0,0,0,0,0,0,0,0,0,0,0,0,0,0,0,0,0,0,0,0,0,0,0,0,0,0,0,0,0,0,0,0,0,0,0,0,0,0,0,0,0,0,0,0,0,0,0,0,0,0,0,0,0,0,0,0,0,0,0,0,0,0,0,0,0,0,0,0,0,0,0,0,0,0,0,0,0,0,0,0,0,0,0,0,0,0,0,0,0,0,0,0,0,0,0,0,0,0,0,0,0,0,0,0,0,0,0,0,0,0,0,0,0,0,0,0,0,0,0,0,0,0,0,0,0,0,0,0,0,0,0,0,0,0,0,0,0,0,0,0,0,0,0,0,0,0,0,0,0,0,0,0,0,0,0,0,0,0,0,0,0,0,0,0,0,0,0,0,0,0,0,0,0,0,0,0,0,0,0,0,0,0,0,0,0,0,0,0,0,0,0,0,0,0,0,0,0,0,0,0,0,0,0,0,0,0,0,0,0,0,0,0,0,0,0,0,0,0,0,0,0,0,0,0,0,0,0,0,0,0,0,0,0,0,0,0,0,0,0,0,0,0,0,0,0,0,0,0,0,0,0,0,0,0,0,0,0,0,0,0,0,0,0,0,0,0,0,0,0,0,0,0,0,0,0,0,0,0,0,0,0,0,0,0,0,0,0,0,0,0,0,0,0,0,0,0,0,0,0,0,0,0,0,0,0,0,0,0,0,0,0,0,0,0,0,0,0,0,0,0,0,0,0,0,0,0,0,0,0,0,0,0,0,0,0,0,0,0,0,0,0,0,0,0,0,0,0,0,0,0,0,0,0,0,0,0,0,0,0,0,0,0,0,0,0,0,0,0,0,0,0,0,0,0,0,0,0,0,0,0,0,0,0,0,0,0,0,0,0,0,0,0,0,0,0,0,0,0,0,0,0,0
</data>
 </layer>
</map>
