<?xml version="1.0" encoding="UTF-8"?>
<map version="1.10" tiledversion="1.12.1" orientation="orthogonal" renderorder="right-down" width="106" height="100" tilewidth="16" tileheight="16" infinite="0" nextlayerid="2" nextobjectid="1">
 <tileset firstgid="1" source="../../pyton/я карта/Floor.tsx"/>
 <layer id="1" name="Слой тайлов 1" width="106" height="100">
  <data encoding="csv">
1019,976,1063,1108,974,1064,974,1064,1105,1018,1106,973,975,1061,1107,1107,976,1017,1020,1019,1062,1019,1062,976,1020,976,1064,973,975,1062,1108,1019,1064,974,1018,1061,1020,1018,1108,976,1019,973,1105,1106,975,973,976,1020,1063,973,1018,1020,974,1105,974,974,1061,1063,1108,1061,1062,1105,976,1064,1018,1061,1017,1019,1020,1063,1063,1063,1018,1063,1105,1106,974,1018,1064,974,975,1106,976,1108,1064,1020,1017,1061,976,1107,975,975,1105,973,1063,1105,1062,974,974,975,1019,1019,1106,1020,1107,1107,
1062,1064,1064,1020,976,973,1019,1018,1064,1105,1063,1061,973,1107,976,1062,1061,1020,1017,1107,975,1062,1019,1107,973,1063,1107,1106,975,1108,1106,1061,1019,1106,1017,1064,976,1064,974,1019,1018,1018,1063,1020,976,1019,1106,1019,1062,1017,1017,1064,1061,1064,1020,1017,1108,1105,1020,1105,1017,973,1062,1107,975,1017,1106,1020,974,1017,1108,1062,1019,1105,973,974,1019,973,1019,1063,1107,1108,976,975,1020,975,1017,1108,1062,1061,1017,1108,1108,1062,1106,973,1108,1018,1020,1063,1106,1061,1061,1019,975,973,
1018,1061,1017,1020,1019,975,1105,1063,1064,1020,1061,973,974,973,1017,975,973,976,975,1108,976,1017,1018,1020,975,976,1064,1107,1063,1107,1107,1061,1018,1108,976,1063,1061,1019,975,976,1106,974,1017,1062,1061,1020,1108,1108,1018,1105,1061,1064,976,1017,1063,974,975,1019,1107,1061,976,1018,1063,1062,1018,1061,975,1020,1105,974,973,976,1061,1062,974,1019,975,1106,1020,1018,1108,1105,973,1105,1063,1019,1108,1017,1107,1019,975,1064,974,1019,1063,976,1018,974,973,1064,1019,1020,1017,976,974,1061,
1108,1017,974,1064,1106,976,975,1064,976,1017,1017,1108,1064,1107,1108,973,1108,976,1062,974,1017,1061,1106,1018,1105,1019,1105,974,974,1020,1019,1108,1019,1063,1105,1019,1020,1020,1107,1063,1064,1106,1061,1019,1063,1018,1020,1018,1063,1019,1019,1019,1062,1020,1019,976,1108,1064,1020,1063,1106,974,1018,1017,976,973,1064,974,1018,975,1105,1062,1062,1062,1062,974,1062,1106,1020,1108,1020,974,1107,1019,1061,1105,1063,975,1062,1106,1107,976,1105,974,973,1106,1019,975,975,1062,1019,1018,1064,1017,1106,1019,
1062,1064,1017,1017,973,1107,1106,1105,1061,1020,1017,1105,975,1020,1061,1019,1108,975,1061,1108,973,1106,1018,1019,1064,973,1062,1107,1064,1106,976,975,1105,973,974,1061,1105,974,1017,1063,1018,973,975,1064,1019,1061,1019,1062,1019,1061,1019,1017,1106,1064,1061,1063,1106,1064,1105,974,1107,1019,1020,1107,1017,1017,1017,1064,1106,974,1018,976,975,974,1019,973,975,1062,1017,1106,1064,1105,1019,1061,1019,1107,974,1017,976,1063,1017,1020,1106,1019,1061,1017,1062,1107,1020,1105,1106,1017,1061,1105,1108,976,
1108,975,1061,1108,1062,975,617,618,619,620,621,622,1105,974,1018,975,1064,975,1064,1062,975,974,1105,975,1017,1018,975,974,974,1020,1064,976,1106,975,1017,1105,1107,974,1020,1108,1061,974,1064,1061,1063,1105,1105,1020,1107,1019,1019,974,1064,1063,1064,1020,975,1061,975,975,1061,1018,976,1017,976,1019,976,1019,974,1018,1064,1063,1105,1017,1017,1064,1108,973,975,1063,974,1107,974,975,1107,1105,974,1063,974,1064,975,1019,1064,1017,975,973,1019,976,976,973,1064,1064,1017,1061,1107,1020,
1019,1061,1105,1106,1020,1108,661,662,663,664,665,666,976,974,1017,1017,1108,1064,976,1108,1020,1106,975,1018,1108,1107,1061,1020,975,976,1062,1108,973,973,1108,974,1108,1107,1020,1108,976,1018,1062,976,1064,1108,1063,1108,1019,1017,1108,973,1019,1062,973,1063,1020,974,973,1020,974,1063,1018,1105,1063,1107,1105,974,1064,975,1020,976,1062,976,975,973,1019,976,1063,1064,1064,1106,974,1019,973,1062,1108,1020,1063,1017,973,1063,1018,1020,975,1062,1107,974,1107,1106,1061,1062,1020,1020,1108,974,
1063,1064,1107,975,976,1106,705,706,707,708,709,710,1017,1105,1019,1108,974,1018,975,974,976,1019,1108,1107,973,1020,1105,1061,1017,1064,1061,1062,1061,1107,1107,1061,1063,1017,1063,1018,973,1063,1061,1019,1018,975,1061,1020,1106,1020,1061,974,1020,1108,1062,1108,1017,1106,1062,1107,974,1063,1062,1018,1063,1018,1108,1019,973,1020,1064,973,976,1017,1105,1017,975,975,1108,974,1017,975,1017,1105,1064,1020,1105,975,974,1019,1061,974,1062,1062,1105,1020,1019,1062,1105,1018,1064,973,974,1018,1020,973,
1106,976,1063,1017,1062,976,749,750,751,752,753,754,1018,1020,1105,973,1107,973,975,1106,976,1017,1019,1017,974,975,976,1018,1019,1062,1063,1105,1019,1019,1064,1018,1018,1063,1019,1106,1018,973,1020,973,974,1105,1020,976,1108,1018,1020,1064,973,1019,975,1018,1105,973,1018,976,974,1062,1019,1017,975,1017,1106,1108,1020,1061,973,1020,1105,1017,1064,1061,1108,973,1106,975,1017,1062,1020,1062,1061,1020,1017,1062,973,975,1107,1105,1063,975,1106,1061,1064,1019,1063,1020,974,976,1062,1018,1064,1106,
1019,1020,1061,1018,1020,1017,793,794,795,796,797,798,1018,1019,974,1061,1105,976,974,976,1019,1106,1018,974,974,1105,1062,1018,975,973,1107,1061,975,974,974,1105,975,1062,974,1062,1019,1064,1105,1017,975,973,974,1062,1106,1107,1020,1107,1018,1063,1105,1062,1018,1106,1108,1020,1019,1020,1018,1106,975,1062,1107,1105,1062,1062,1063,1064,1107,1062,1019,975,1017,976,1105,1063,1018,976,1064,1106,1017,1018,1018,1108,1017,1061,1106,974,1107,1107,1105,1108,1063,1062,1063,1064,974,976,1061,1063,1061,975,
1106,1064,1017,1108,1017,1017,837,838,839,840,841,842,1108,1019,975,1063,1061,1017,1107,1108,1062,1063,976,1064,1107,973,1061,1061,1062,1017,1020,975,1061,1107,1105,975,974,1061,976,1108,1062,1062,1018,1017,1108,1063,1020,1018,1020,975,1105,1105,1017,976,1063,976,976,1105,1020,976,976,1019,974,1020,1020,976,975,1019,1062,1019,1108,1106,1106,1017,976,1019,1063,1108,1018,976,1106,1062,1018,976,976,1020,1020,1107,1019,1062,1105,1017,1017,1062,1020,1105,973,1064,1064,1063,1017,1019,1108,1017,1020,973,
1020,1105,1063,1108,1064,1017,1106,1063,1020,1106,1020,1019,973,1106,1064,1064,1017,1105,1019,976,1105,1107,974,1108,975,1019,1106,1063,974,974,1020,1062,976,976,975,1019,1019,1064,1019,975,1108,1061,973,1061,974,973,1019,1108,1107,1106,974,975,1105,1108,1061,1106,1064,1020,1105,1019,1108,1107,1105,975,1061,975,1018,1018,1019,1019,1020,1018,1017,976,1017,1061,1019,1061,1062,1061,1019,1062,1064,1062,1063,1017,1020,1064,1108,1064,976,1018,1063,1108,1017,976,973,975,1064,1106,976,976,1064,974,973,974,
1106,1019,973,974,1020,1062,1020,1020,1020,1017,974,1019,975,1107,1106,1018,1107,1064,1107,1105,1061,973,1064,1108,1063,1019,1019,973,976,1020,1062,1064,1106,1019,1019,973,1061,1061,1105,973,1107,1107,1062,976,1064,1018,1064,1107,1017,1018,1107,1061,1063,975,975,1106,1064,975,1018,1062,976,1063,1106,1105,1105,1061,976,976,975,1020,1064,1107,1018,1017,1106,1063,1105,1020,1061,975,1106,1061,976,1062,1017,974,1064,1061,1020,1020,1064,1018,973,1017,976,1064,975,974,1020,1017,1018,1106,1106,1018,1064,1018,
974,1017,1019,975,1107,1017,1061,1017,1061,1061,1063,1018,1105,1108,1062,1106,1105,1018,975,1105,1018,1062,973,1062,976,1063,1019,1107,976,1062,1019,1019,1105,1061,1106,1064,1020,975,1063,976,1019,973,1061,1018,976,1063,1106,1106,1105,1063,974,1061,1063,974,1061,1018,1108,1108,973,1018,1019,1061,1106,1106,1107,1106,1106,1108,976,1063,1017,1020,1064,1062,1062,974,975,1061,1064,1062,1105,1020,976,1107,1106,1064,1017,1062,1062,1064,1108,1061,1020,1020,1106,1105,973,1063,1105,1018,1107,1017,973,1018,1062,1020,
1108,974,1061,1061,974,1020,1063,1017,1108,974,1107,974,976,1061,1062,1062,1020,1019,976,974,1064,1062,1064,976,1019,1061,1107,1062,1107,976,1105,1108,974,974,1018,976,1064,1106,973,1105,973,1017,1105,1020,1105,1107,975,1107,1062,1064,1105,976,1106,1064,1064,974,1061,1108,1061,1105,1107,1017,1108,1062,1105,1063,1105,1106,1017,1063,973,1064,1063,974,1018,975,1105,1063,1064,1061,1105,1106,973,1107,974,975,1106,1106,1064,1063,1107,1064,1019,1020,1108,1064,1061,1064,1105,1106,1062,973,1105,1019,974,973,
1064,974,1063,1020,1064,1020,1107,975,1107,1064,973,974,1064,1018,1020,1061,1018,1106,974,1108,1064,1064,1063,1019,1018,1062,975,1106,1063,976,974,1105,1107,1062,1106,973,973,1019,974,1020,1018,1064,1020,975,1107,1064,1063,974,974,975,1107,1108,1018,1020,1062,1062,1020,1107,1063,976,974,1062,1105,1019,1064,1108,974,1063,973,1019,1107,1106,1106,973,975,1063,1107,1108,1105,1062,1064,1062,1061,1019,1108,1018,1061,976,1062,1018,1107,1017,1019,1105,1063,1108,973,1062,1017,1061,1064,1105,1061,1064,976,975,
1061,1106,1108,1061,976,1061,1064,1062,1106,1061,1018,975,976,1107,1018,974,1019,1064,1108,1017,1018,1107,1064,1063,975,1106,1062,975,974,1018,1106,1018,1018,1061,1106,1107,1062,1106,1018,1064,1106,1064,1018,1106,976,975,1017,1062,1020,1106,1018,1062,1019,1105,1105,1019,1017,1062,1105,1017,1062,975,1061,1062,1106,974,1061,975,1020,975,975,1061,1061,1107,1061,1018,1063,1061,974,975,1106,975,1020,1019,1018,1018,973,973,1017,975,1063,1106,1019,1064,1105,1061,976,973,973,1105,1018,1106,1019,1020,1063,1106,
1063,976,1020,974,976,1107,975,1020,1063,1108,1018,1062,1017,1063,1106,973,973,1019,973,975,1108,975,1064,1017,1063,1107,1017,1018,1019,1107,976,1107,1106,1105,1019,973,973,1107,975,1061,1064,973,974,1018,1019,1108,1063,1105,1106,1061,1017,1063,1018,1108,1061,1064,1064,1064,1063,973,1061,1062,976,1105,1061,976,1064,1108,1106,1105,1105,1018,976,974,1063,1062,1063,1019,1020,1061,1062,1020,1061,973,974,1019,976,1020,1020,1064,1108,975,1017,1063,1018,973,1017,1019,975,974,1020,974,973,1062,976,1108,
1108,973,1105,1019,976,973,1106,1106,1063,1064,1063,976,1063,1107,1064,1063,1019,1017,1020,1106,976,1105,973,1018,975,1107,976,976,1017,1108,1064,1105,975,975,973,1061,1017,1019,1106,1063,1061,1064,1017,1017,975,1062,975,1107,1061,973,1019,1062,973,1062,975,975,1018,1107,976,974,974,974,1108,976,1064,1106,976,1017,1019,1019,976,975,1019,1018,976,1107,973,1017,1064,1105,1062,1062,1063,1106,1018,1063,976,1061,1105,1061,974,1106,1020,1018,1105,976,1061,1105,1062,1017,1020,1061,1064,973,1062,1020,
1105,1062,973,1063,976,974,1062,1107,1106,1019,1061,975,1064,1107,1020,976,975,1108,1106,1107,1020,1108,974,973,974,1061,1017,973,975,1062,1064,1106,1062,976,1064,976,1017,1020,1063,975,1019,1062,1107,1105,1020,973,1063,1062,1019,1018,1106,1020,1062,1017,1061,1108,1018,1062,1107,976,975,1105,973,1063,974,1061,976,976,1105,1106,1020,973,1107,1106,1105,1017,1107,1105,1061,1020,1061,973,1017,1107,1105,1107,1105,1105,1062,1064,973,1061,1061,1019,1018,1018,1017,1064,1108,1020,1019,1017,974,973,976,1017,
1107,973,1020,1020,1017,1064,1107,1064,1105,975,1019,976,975,1018,1063,1064,1106,973,1019,1061,1107,1061,1063,1018,1063,1063,1017,1020,975,974,975,1017,1106,1019,1106,974,1108,1108,976,976,1018,1020,1107,974,1108,1064,973,1064,1019,1017,973,1017,1062,1106,1105,1017,1017,1107,1020,976,1064,1020,974,1062,1108,1017,973,1017,974,1061,975,1062,1105,973,1062,1062,976,1061,1018,973,1108,1063,1064,1019,1105,1064,1019,975,1105,1020,973,1108,1020,1106,1017,1019,1105,1106,1018,973,1105,975,1017,1062,1020,1106,
1105,1105,1019,1018,1108,1018,1020,1105,1107,1020,1106,1064,1108,1061,1105,1061,1020,1105,1018,1105,976,975,1064,1064,1062,1019,1063,975,976,1020,1018,1017,973,1062,1062,1108,974,1020,1063,1061,1108,1017,1064,1018,1017,975,1018,1105,1107,1108,1019,1019,1017,1017,1062,1106,1062,973,973,1020,973,1105,1108,973,1107,1020,973,974,976,974,1107,974,974,973,976,1061,1108,1019,1020,1017,1062,1020,1064,1062,1108,1105,975,1107,1019,1062,1018,1017,1061,1018,1017,976,1062,1018,1017,974,1020,1061,975,976,1017,1064,
1107,1105,1020,1062,973,1108,1061,1107,1061,1105,1018,1108,976,1064,1105,1020,973,1017,974,1105,975,1017,975,1017,1062,1019,1017,973,974,1063,1019,1017,1062,1106,1020,1019,1105,1106,976,1106,1105,1062,1108,1020,974,1018,1061,1105,1062,1017,1018,1062,1019,973,975,1061,1062,1063,974,1063,1108,1108,1020,1107,1062,1106,1062,1064,975,1107,1108,1061,976,975,1063,973,1108,973,1062,1062,1107,1020,1018,1061,1063,1018,974,1106,976,975,1106,1020,1019,1061,1061,1019,1106,1017,1108,973,1019,1108,975,1063,1105,1064,
974,1107,976,1018,1017,1061,1062,1062,1017,1018,1106,1061,1061,1062,1018,1063,973,1018,1062,1107,976,1106,1064,1020,1105,1062,1106,1063,1064,1106,1105,1106,976,1018,1108,1062,1018,974,1108,1062,1061,1017,1108,1064,1106,1064,973,1064,1017,973,976,1105,1108,1020,975,1107,1105,1063,1105,1063,1017,974,975,976,1020,1019,1061,1020,1019,975,1106,974,975,975,1108,1061,1017,1107,1018,1107,1062,1017,975,1019,1064,1107,1108,1106,1017,1064,1107,974,1018,1108,1019,1062,1018,974,973,1017,1064,1105,1018,1108,1062,1064,
1018,976,1108,973,1020,1019,1020,1062,1106,1064,1105,1020,1106,1105,974,974,974,976,975,1107,976,1017,1018,1106,1107,1063,973,1018,974,973,1063,973,1064,1062,1019,1108,976,1062,975,1017,1020,1106,1019,1062,1020,975,1020,1018,1105,1062,1107,1063,976,1064,1108,1061,1064,1061,973,1061,1106,1105,1108,1020,975,1017,1063,1106,976,1108,1064,1061,1018,974,1017,974,1018,1061,975,1062,1106,1105,1019,1020,1062,1107,974,1018,1064,1105,975,1063,974,1018,1063,1106,1062,973,1107,1063,1108,975,1106,1105,1106,1106,
1019,1105,1107,1063,1062,1017,1061,973,1019,1061,976,1062,1017,1108,1061,1105,973,976,1064,1020,1020,1018,976,1061,1108,1105,975,973,1062,1061,1018,1107,1019,1063,1108,1064,1105,1019,1107,1062,1020,1108,1020,1106,1020,1020,974,1106,1108,1017,976,1018,975,1108,1108,974,1064,1063,1018,1019,1108,1107,1017,1106,1061,1063,1105,1107,976,976,1018,1105,974,1062,1108,975,1061,976,1020,1106,1020,975,975,1020,1107,1017,1105,1107,1019,975,1062,1108,1019,1017,1107,1108,1064,1061,1018,1062,973,975,975,1064,1108,1020,
1019,974,976,1108,974,1018,1020,1106,973,975,974,1108,1106,974,1108,1019,1105,976,1017,1108,1105,973,1105,975,1062,975,1020,976,1019,1020,974,1062,974,1107,1020,1061,1061,1018,1064,976,1018,1105,1064,1061,1019,974,1108,1020,1020,1063,976,973,974,1064,1019,1107,973,975,975,1105,1107,973,973,1061,1018,1061,1105,1106,974,1108,1020,1106,1108,1020,1061,1018,973,1018,1063,1105,976,1061,1062,1108,975,1017,1020,1061,1062,1108,1062,1020,1020,976,974,1064,1020,1018,1105,1019,1061,973,976,1106,973,1020,
1063,1018,1107,1020,974,1062,1107,1108,976,1062,1106,1017,1020,1106,1064,975,973,1106,1020,1108,1063,1061,1062,976,973,1061,1018,974,974,1020,1063,1018,1062,976,973,1019,1106,976,973,1020,1061,1062,1064,974,1107,1107,1020,1106,973,1017,975,973,1062,1062,1108,1108,1061,973,1019,1018,1019,1107,1019,1019,975,1019,974,1020,974,1105,1105,1018,1064,1105,1064,976,1108,1017,1107,1063,975,974,1106,1063,1018,1020,1107,1108,1107,1063,1018,1062,1106,974,973,973,1019,1107,1017,1019,973,1017,1019,1020,976,1062,
1017,1020,974,1020,1061,1061,1063,1061,1062,1108,973,1062,974,1063,1062,1018,1019,1062,1061,974,1107,1107,1063,1064,1063,1020,1062,1108,976,1108,1106,1017,1020,1107,1107,1106,1061,975,1063,1020,1063,1020,1105,1018,975,1064,1107,1063,1062,1107,1018,1063,1020,1018,974,1062,973,973,976,1108,1105,976,1105,976,974,1018,976,973,1063,1061,1017,1105,1020,1017,1061,1064,975,1061,1108,1062,974,974,1063,1064,976,1106,1064,1017,1107,1064,975,1020,1017,1064,1061,1019,1105,974,1063,1107,1017,975,974,973,1017,974,
1064,1062,1019,1106,1108,1108,1018,1064,974,1018,1106,1062,1020,1062,1019,1063,1019,1020,1018,975,1108,974,1105,1018,1062,974,975,1061,1018,1061,974,1063,973,1061,1108,973,975,1019,1018,1018,974,1107,1064,1063,974,976,1020,1106,1017,976,1018,1061,975,1061,1019,1064,974,1064,1064,976,973,1064,974,1105,1106,1063,1061,1105,1020,1061,1063,1020,1108,1106,1017,1062,1108,975,976,1105,1061,1061,1017,1108,1018,1062,976,1019,976,976,1018,1063,1108,1019,974,1064,1106,976,1107,1063,1105,1063,1018,1105,1018,1018,
1017,976,1017,1107,1064,1105,974,1105,1017,1019,1018,976,1017,1106,1064,973,976,1106,975,1064,1107,1019,1064,1108,1017,1017,1064,1108,976,1063,1019,1106,1105,973,1106,1105,1062,1020,1017,1063,1062,1108,1105,1108,976,1063,1063,1105,1107,1063,1105,1064,1064,1061,1107,1061,1061,974,973,1064,1019,1106,1017,1108,1020,1106,1106,976,1105,975,1019,1061,973,1017,1062,973,976,1019,1107,1108,976,1063,1105,974,976,1106,975,1108,973,1063,1018,1108,1062,974,973,1107,1106,1020,1017,973,1018,1017,1017,974,976,1105,
976,1062,1062,1064,975,973,973,1061,1063,1018,975,1108,1108,1018,1061,1019,1105,1018,1062,1019,974,1064,1106,1106,1020,1018,1017,1061,1018,974,1020,1063,1106,1106,1105,1018,1063,974,1107,974,973,1061,1063,1020,976,1064,976,1108,975,1062,976,1061,1017,1064,1062,973,974,1106,1062,1107,1061,1061,1107,1105,1017,1017,1020,975,1062,975,1106,1105,1107,1061,1108,1108,1107,1106,974,1017,974,1019,973,974,1064,1105,1105,1061,974,1105,974,1106,1105,1063,974,1108,1107,1017,975,1018,1108,975,1020,1105,1105,1105,
975,1106,973,1062,1106,975,1020,973,1062,1018,1107,1063,1108,1020,974,1062,1105,1107,1061,1108,1108,1106,1063,1064,1105,1105,974,1019,975,1062,1105,1062,973,1108,974,973,1106,1105,1062,1108,1017,1020,976,1107,1018,1064,974,1018,1017,1108,974,974,1019,973,1020,1061,973,1105,1064,1062,974,1063,1018,1019,1018,974,1017,1018,1018,975,976,1105,1063,975,1105,1018,1018,1106,1108,1106,1020,1019,1019,973,975,976,1018,975,974,1108,1061,973,1063,1063,975,974,1061,1107,1106,1062,1061,1061,975,974,1108,973,
1061,976,1064,1107,1020,1107,1063,1019,1061,974,1063,1062,1106,1107,1062,1106,1107,1107,1019,1062,976,1061,973,973,1108,1062,1018,974,974,1061,974,1108,1019,1018,1105,1019,1017,1019,1020,1062,1062,976,1108,975,1107,1062,1106,1107,1061,1064,1108,976,975,1107,974,1063,1107,1108,1062,1062,1064,1019,976,1061,1107,1063,1106,1017,974,1018,974,973,1105,975,1019,1064,1063,973,1019,1105,1106,1063,1108,1106,1063,975,1019,1018,1105,1018,1107,1017,1107,1062,1063,1017,1019,1064,973,1106,974,1105,1019,1063,1106,1017,
974,1061,976,974,976,1106,1017,1064,1019,1106,1019,1017,1018,1061,1106,1064,973,1063,1106,1064,1061,1017,1063,1020,1063,974,1018,1063,1106,1107,975,1062,1105,973,1107,1106,1061,1017,1020,1064,1108,1061,973,1064,976,1105,1020,976,974,1105,1107,973,1108,1063,1064,1105,973,1062,1063,1108,1018,1017,1105,1017,1017,974,1063,975,1061,973,973,974,1018,1019,974,975,1017,1107,976,1105,973,973,1105,1063,1020,1108,1017,1108,976,1018,1019,1108,1064,1061,1063,1018,1019,1020,1063,1064,973,1108,1017,1017,1063,1063,
974,1062,1017,974,973,1020,1062,1107,1018,1019,1105,1062,1019,1018,975,1063,1017,973,1061,1064,1017,1017,1063,1061,1107,976,1105,1106,1017,973,1061,1107,1061,1108,1061,973,1061,1063,1105,975,1019,1108,1061,1108,1018,1019,1020,1106,1107,1107,1106,1019,1107,976,1063,1018,1020,975,1063,974,1106,1018,1017,1108,1018,1106,1061,1020,975,1019,1062,975,1018,1062,1020,1020,1107,1018,1063,1106,1020,1017,1018,1105,1061,1107,976,974,1107,1018,1064,1064,1108,1108,1107,975,1019,974,1020,1106,1107,1018,1063,1062,1061,1105,
1020,976,1020,1017,1105,1061,1107,1019,975,1017,1020,1105,1020,1061,1062,1106,1064,1061,973,1064,974,1063,1063,973,1062,973,974,1106,1017,1064,1018,1061,973,1018,1105,974,1017,1020,1107,1019,974,1018,1108,1108,1017,1105,974,976,1019,1061,974,975,1105,1061,1018,976,1064,1061,975,1018,1064,1064,1108,974,1063,1062,1107,1062,1107,974,973,1061,1061,1062,1064,1063,1107,1105,1017,1019,1108,1062,976,1020,975,1019,975,974,974,1105,1064,1064,1107,976,1017,1108,976,976,1105,1105,1106,1062,1105,974,976,1019,
1108,976,1064,1105,1019,1020,1020,1062,1108,1106,1062,1105,975,974,1064,1108,1105,1061,1064,1020,1106,1108,976,1018,1062,1107,1017,976,1019,1106,1018,1105,1017,1108,1062,1018,1107,1107,1019,1061,1105,1063,973,1019,1105,1018,1105,974,1062,1064,1018,1019,1107,1062,1018,1017,1107,1107,1108,1019,973,1105,973,1017,1106,1105,1062,1062,1061,1018,1106,974,1019,1064,975,1062,1062,1017,1105,1106,973,1018,1062,1061,1062,1017,1064,1063,975,1107,974,976,1063,975,1020,976,975,1108,973,1063,975,973,1062,1064,976,1105,
1106,1064,1020,976,1018,975,1062,1061,1063,1108,1017,1020,1017,1063,1020,975,973,1107,1105,1017,1107,1018,1020,1064,973,1107,973,1105,1062,1020,1018,1106,973,1062,976,975,1017,1019,973,976,1106,1106,1105,1105,976,1106,1105,975,973,1062,1105,1106,1019,1106,1105,1105,1064,1064,1105,1017,1063,1063,1018,1062,1020,975,1020,1018,1020,1019,1107,973,975,1107,1019,976,1019,1062,973,1063,974,976,975,976,973,1108,1105,976,975,974,1017,1107,1063,975,1107,1107,1106,1107,1105,1020,1107,974,1063,976,1018,1061,
976,1063,1064,1108,1019,1105,1017,1018,1107,1017,973,1017,1020,1020,1064,1019,1063,1062,1063,974,1105,1061,1108,1017,976,1020,1108,1064,1105,1020,1064,976,1020,976,1019,1063,1019,1017,1061,1019,1064,1019,1063,975,1017,1064,1020,1061,976,1064,1019,1106,1020,1108,1106,1063,1061,1019,1062,976,1063,1017,1020,1105,975,1064,1019,1063,1019,976,1018,1062,975,1105,1064,1105,975,1020,1019,1020,974,973,973,1061,1064,973,1061,1108,1020,974,1107,1017,1105,973,1019,1108,1107,973,1064,1018,1061,1017,974,1019,1018,1018,
1020,1106,974,1018,1019,1106,1017,1063,1017,975,1064,1019,1106,1061,1107,1108,1019,1105,1018,975,1064,1063,974,1062,1107,1108,1064,1108,1108,1108,1019,1105,1061,1061,973,1062,1062,974,1106,1062,973,1062,974,973,1020,973,974,1108,1020,1107,1062,1107,1105,1020,1062,1105,1105,975,976,1018,1108,975,1019,974,1108,1019,1018,1108,1019,1062,1105,1106,1020,973,1064,1019,975,1064,1107,1108,1018,1062,1017,974,1017,1105,1019,976,1107,1019,976,1017,1020,1063,1063,975,975,1017,1063,1106,976,1064,1107,1017,1107,1018,
975,1019,1019,974,1064,1108,1061,1106,973,1105,1062,974,973,975,974,1018,1105,976,1018,1064,1062,1108,1105,974,975,1063,976,973,1105,1107,1108,1105,974,1105,1107,974,976,1105,1108,1063,1061,1107,1107,1018,1018,1063,1062,1020,1061,1108,976,975,1061,974,1063,1063,1018,1019,1106,1018,1019,1061,975,1020,1062,1105,975,1061,1063,974,1019,1018,976,975,1064,1019,1061,974,1020,975,975,1106,1020,1106,976,1064,1020,973,1107,976,1020,1107,1019,1108,1061,974,1108,976,1107,1020,1017,1064,974,1063,1105,1063,
1064,1106,1062,973,1061,1019,1061,1017,974,1062,1107,976,975,1019,1105,975,1108,975,1105,1107,1107,1107,976,1063,1105,1062,1061,1019,973,1017,1106,1108,1062,1017,1019,1063,1063,1108,1064,1062,976,975,973,1064,1017,1064,974,1019,1062,973,1063,1019,1063,1105,1062,1063,1063,975,974,1063,975,1106,1018,975,1019,1019,974,1106,1107,1106,1019,1020,1108,1107,975,1064,1106,1105,1017,1019,1108,1018,1064,973,975,1018,974,1107,973,1062,1063,976,1108,1018,1020,1061,974,1064,1064,976,1061,1064,1017,1106,1063,1105,
1062,973,973,1061,976,975,1062,1017,1106,1020,1105,1106,973,1018,1063,974,1061,1061,1106,1064,973,1064,1020,1105,1063,1106,1018,976,1108,1017,975,1018,1062,1108,1018,975,1020,1064,1018,1018,974,974,973,1107,1106,1018,974,1018,1105,1017,1106,1064,1020,973,1020,974,1107,1106,973,1106,1018,973,976,1107,975,974,1107,1107,1061,1020,1019,1017,1063,1106,1106,1064,1061,1108,1018,974,1018,1017,976,1106,975,1017,1106,1108,973,1063,1017,1061,975,975,1064,1019,1017,1064,1107,1019,1019,1107,1018,976,1062,1064,
1063,1064,1107,1020,1020,1061,1064,1108,1105,973,973,1063,973,1107,976,1062,1108,976,1064,975,1020,1020,1020,1107,1105,1017,1062,1064,1019,1020,1018,1017,1106,1106,973,1107,1107,1062,1017,1019,1061,1061,1107,973,1107,974,1019,1105,975,1020,1107,1106,1105,1106,1105,1064,976,1107,1108,1020,974,1108,974,1105,1063,973,975,1018,1106,973,973,974,974,976,1108,1019,1018,975,976,1106,975,1106,1063,1019,1017,1105,1064,1019,1107,975,1064,973,1020,1062,976,1106,1064,1018,1062,1019,1108,1105,1106,974,975,1019,
1018,1107,1017,1019,1018,1061,1018,1017,1063,1020,1020,1062,1017,973,1105,1018,1062,975,1107,1020,1108,1061,1107,1063,1020,974,975,1017,1020,1107,975,1105,1105,1107,1106,975,1061,1062,1106,1061,975,1105,973,1020,976,1020,1107,1063,1019,1062,973,973,1108,1017,1108,1061,1019,1106,1018,1020,1106,976,1019,974,1020,974,1018,974,1018,1063,976,1061,1108,1064,1105,1018,976,1019,1017,973,1018,1018,974,1018,974,1105,1020,973,1061,976,974,976,1017,1062,1064,973,1019,976,1020,1108,1108,1108,1061,974,1108,1018,
1107,1019,1062,1018,1018,1064,1107,1020,1019,1064,1017,1018,1108,1020,973,1019,1063,1062,1107,1064,1062,1108,1020,1106,1106,1105,973,974,1107,974,1020,1017,973,1064,975,1062,974,1019,976,1020,1061,1107,1106,1062,1017,1020,974,1062,1108,1064,1064,973,1064,1061,976,1018,973,976,973,1061,1108,1062,976,974,1063,1108,1108,1105,1061,974,1106,974,1105,975,1107,975,1061,1106,1062,1064,1020,976,1107,1019,1108,1064,1017,973,1018,1107,1108,1064,1108,1064,1107,973,976,973,1061,1020,1063,1106,1017,974,1018,1061,
1018,1106,974,1019,1018,1061,1106,976,1063,1108,1108,973,1019,973,1019,1106,1064,975,975,1106,1106,1018,1018,1064,1064,975,1105,1020,1061,973,1107,973,1105,1105,1105,1017,1061,1017,1105,1108,974,974,1064,975,973,974,973,1061,1062,1106,1020,1063,976,1020,1018,1106,1017,974,1061,1106,1108,976,1063,973,974,973,1108,975,1062,1019,974,975,1107,1106,1061,1064,1106,973,1019,1107,1061,1020,973,1061,1063,975,1105,976,1062,1019,1017,1018,1020,1061,1064,1108,974,1105,1108,1106,1105,1107,1020,1063,1107,1018,
976,973,1064,1018,1017,1108,1107,1017,1105,1020,1062,1106,974,1106,976,1018,1107,1064,1020,1063,976,975,1106,1020,1018,973,973,1108,1061,974,973,973,1018,973,974,1107,1062,1063,1106,1106,1107,1062,1108,1064,1061,1107,1062,1020,1063,1106,1064,1018,1018,1063,975,1061,1108,1107,1020,974,1017,1018,1105,1018,974,1108,1019,1020,976,974,1018,1062,974,976,1064,1017,974,1018,1106,976,1062,973,975,973,1020,976,1017,975,1105,1061,1105,975,1108,973,1064,1106,1017,975,973,973,1020,974,1105,974,1017,973,
1062,1107,975,1018,1019,1019,1017,975,1019,1108,974,974,1061,1064,1062,1061,1062,975,1107,1061,1108,973,976,974,1064,1062,1017,1017,975,1107,1108,975,1062,975,976,1064,1107,1020,1017,1064,1107,1020,1064,1064,975,1020,1105,1108,1019,1064,975,1108,1108,1062,1064,1105,974,976,973,1062,1106,1107,1107,1064,1062,1019,1108,974,1018,1064,1108,975,1106,975,1019,973,973,1063,1108,1019,1063,1064,1017,1062,1018,1061,1106,1017,1107,1064,1108,1017,976,974,1108,1063,1019,1017,1106,974,975,975,1108,1019,1064,976,
973,1106,1020,975,975,1105,974,975,1061,975,1018,1062,1018,1019,1064,1061,1017,1064,1108,975,1020,1019,1108,1017,974,1020,1064,1106,1061,1063,1017,974,974,1106,1061,1107,1106,1063,976,976,1064,1020,1108,975,1107,1108,976,1061,1062,1061,1105,1106,1063,1064,1020,1108,976,1017,976,975,1107,1064,1063,1063,973,1107,1064,1061,973,1108,973,1020,1107,976,1106,1062,1018,1020,1018,1108,1107,1017,1019,1019,1063,1108,975,1064,1020,1017,1064,1061,1019,1106,1018,1064,1061,1061,973,1062,973,973,1019,1061,1018,1108,
1064,1062,1018,1018,973,975,1019,1064,1107,976,1061,1105,1062,1017,1061,1108,1062,1105,974,1107,976,975,1064,1018,1061,1063,973,1063,1105,1018,1105,1061,1061,975,1063,1019,1062,974,1061,1107,1062,1064,1063,1064,1062,1019,1063,1107,1106,974,976,1105,1062,1105,1018,1106,975,1063,1062,1063,1106,1105,1064,1064,1105,1061,974,976,1106,1062,1061,1108,1108,1106,1020,1061,1062,1108,975,976,975,1020,976,1018,1063,1062,975,1018,1063,1017,974,1064,1018,1018,974,1019,976,1063,1108,1020,1018,974,1061,976,1106,1107,
1018,976,1063,1105,975,1061,1105,1063,1106,1108,1018,975,1105,1018,974,1064,1063,1019,1061,1108,973,1106,975,974,1063,1017,1107,1108,973,975,976,1063,975,974,1019,975,1105,1064,1061,1063,1019,1062,1019,1061,1107,975,1107,1019,1064,1107,1061,973,1019,1107,1063,1106,1062,1017,1063,974,1063,1061,976,1020,974,1063,1018,1018,1020,1106,1018,1061,1107,1105,1062,975,1106,1019,976,1108,1106,1019,1106,976,1017,1105,976,1061,1108,976,1018,1064,974,1061,1018,1018,1106,1061,1064,974,974,1063,974,1108,1062,1062,
1106,973,1063,1063,1062,975,973,1063,1018,1061,976,1107,1018,1105,1019,1061,1108,1106,1061,1062,1105,1063,1061,973,1107,1061,1018,1063,1105,1107,976,974,1064,1017,1107,976,1062,976,976,973,1020,1019,1017,974,976,973,973,976,973,1019,1108,1105,1108,1063,1061,1108,1064,973,1018,1106,1064,1106,976,973,1019,976,1062,1062,974,1019,1106,974,1064,1061,975,1106,1106,1062,1062,975,975,1018,1017,1063,1107,1106,1064,1017,1106,1061,1019,1019,975,1019,1019,1108,1018,1020,1107,976,1017,1020,1106,1064,1105,1106,
1063,976,1018,1020,1108,1108,1064,973,1064,1106,974,1017,974,973,1107,974,1107,975,976,1063,1105,973,973,1063,1020,1105,1020,1019,1107,1020,1061,1063,976,1064,975,1017,1108,976,1106,1106,1018,975,1107,1106,1064,1061,974,1064,1020,1106,975,1105,1105,1017,976,976,1064,1107,1063,1063,1106,1064,1061,1017,1106,1019,1106,1105,1018,1018,976,1107,1106,976,1019,1019,1106,973,974,976,1061,1019,1063,976,1107,1062,1062,1061,973,974,1063,1108,976,974,1064,1064,976,1107,1107,1020,1106,1063,1061,1018,1107,975,
1017,1105,1105,1020,1020,1018,1062,976,1017,1108,1062,973,1062,1062,975,973,1020,1018,1106,1107,1108,1061,1106,976,1064,975,1018,1018,1064,1107,1107,976,1064,1105,1063,973,1106,975,974,975,1063,1019,1019,1020,1107,1063,1105,1064,976,1107,976,974,1020,973,1064,973,1107,1064,1018,1019,975,1017,1018,1018,973,1107,1017,976,1107,1018,1105,973,973,1020,1019,1019,1105,1063,1064,1108,1064,1106,1062,1105,1019,1062,1061,1061,974,1061,974,1107,1019,1018,1061,976,1062,1019,1017,1063,1105,1063,1108,1062,1107,1061,
1106,1017,1107,1064,1063,1108,1106,1063,1061,1106,1064,1106,976,1061,1061,1062,1020,1064,1062,975,1017,1107,1018,1062,1017,1062,974,975,1062,1107,1064,1061,1063,1064,1062,1061,1062,974,973,1105,1017,1105,1106,974,1105,1106,1018,1063,974,975,1017,1107,1020,974,975,1063,1020,1107,976,1018,1061,1106,1063,975,973,975,1063,1019,1020,1061,1063,1061,975,1017,1064,1107,976,1061,1019,973,1063,1064,1018,1064,1017,1107,1018,1107,1062,975,974,1063,1019,975,1062,1105,976,1107,1020,1061,974,1106,975,974,1020,975,
1106,1020,1106,975,1107,1018,1017,1062,1105,1107,973,1105,1017,1061,1107,1018,1064,1018,1062,1017,1105,974,1063,1105,976,973,1017,1108,1019,1063,1107,1061,1064,973,975,1062,1105,976,973,974,1018,1019,1108,1107,1061,1019,973,973,1019,1061,974,974,976,1017,1062,973,1020,975,974,976,1063,1017,1064,1108,1061,1064,1061,1019,1017,1106,1107,1020,1020,1105,1063,1018,975,1018,974,1105,1108,1061,1107,1064,1019,975,1062,1017,974,976,975,1108,973,1064,1017,1063,1106,1061,1062,1019,1063,975,975,1106,1108,1062,
973,974,974,1017,1063,1019,974,1061,976,976,1063,1063,1061,1018,975,1018,1018,973,1105,976,1018,1020,974,974,1105,1061,1062,1063,1106,1018,1061,1018,1105,1106,974,1061,1062,976,1062,1061,975,1106,1064,974,1106,1017,974,976,974,1061,973,974,1018,1108,1063,973,973,1017,1108,973,1061,1019,1107,1108,1061,1018,1018,1107,1106,1107,1019,1017,1017,1107,1105,973,976,1020,973,1063,1064,1019,1064,1020,1064,1105,1019,1018,976,973,1106,1018,1108,976,1107,1108,1062,973,975,974,1064,1020,1105,1064,975,1061,
1018,1019,976,1018,1061,1107,1061,1105,1020,1106,1061,1061,1107,974,1020,1019,1064,1061,1063,1018,975,1064,1064,1018,975,1019,975,975,976,973,976,1018,1105,973,1019,974,976,1108,1020,1018,1020,1061,1062,1108,1062,1017,1018,1020,1061,1063,1064,1017,1106,1062,1019,1019,1064,1064,1106,973,975,1108,1019,1105,1018,973,1018,973,1107,973,1108,1017,1107,1020,1019,976,1061,1061,1106,1064,1018,1061,973,1019,1063,973,1062,1017,1105,1017,1062,1062,1106,1019,1019,1107,1020,1107,1063,1106,1017,1061,1020,1108,1064,1105,
1017,975,1061,973,973,1062,1108,974,1061,976,1062,976,1018,976,1017,1019,1107,1105,1020,974,1063,1017,1019,1061,974,1063,1108,1062,1105,976,1020,1061,975,1018,1107,1018,1108,1106,1105,1063,974,1107,1108,1020,1108,1017,1061,1018,1018,1018,976,1019,1108,1019,974,975,1105,974,1019,1061,1105,1061,1061,1064,975,1106,1105,973,1063,975,1105,1064,1018,976,1108,1106,1061,1017,975,973,1106,974,1106,1061,973,1105,1020,1064,975,976,1062,1018,1108,1017,1105,975,1107,1020,973,973,1061,1062,975,974,975,1018,
1108,1017,1108,1106,973,1064,1063,973,1018,1062,973,973,1061,1020,973,975,1063,974,974,1063,1018,1018,1106,1019,1063,973,1018,1062,1018,1062,1063,1107,1107,974,1061,1019,976,1105,974,1018,1105,1061,1061,975,975,1019,1062,976,1062,974,1062,1107,1062,1018,974,1019,1105,1105,1020,1018,1108,1106,1020,1019,1062,1107,1019,1064,1018,1107,1064,1108,1061,1107,1105,1105,973,1019,1019,1019,1107,1020,973,1108,973,1106,1019,1017,1062,976,976,1061,1017,974,1019,1106,973,1064,1061,1017,1107,974,976,1061,1108,1108,
973,1062,974,1107,1064,1020,976,1108,1105,1017,1019,1063,1105,1107,973,1062,1108,1017,974,1019,1106,1062,1020,1105,1020,974,1061,1018,1108,1019,1108,1106,1064,1108,1105,1106,1063,976,1107,1019,1061,975,974,1108,1020,1107,975,976,1062,1061,974,1061,1064,1017,1064,1105,1063,976,1018,1107,976,1020,1106,1108,1062,1107,1062,1108,1107,1063,1107,975,1018,973,1107,974,975,1017,1061,1020,1017,1106,1105,974,1064,974,976,1061,1020,1105,1063,1063,1064,974,1063,1061,1105,974,1061,1063,1020,1019,1018,974,976,1107,
973,1017,1105,974,1106,1105,1064,1108,1106,1061,1106,1105,1107,1062,1108,1063,1062,1106,1062,1107,1107,973,1062,974,1106,1019,1062,973,976,976,975,1107,1106,1107,1017,1019,1064,976,1020,1107,1018,1020,973,1107,975,975,975,1018,1063,1061,1107,1018,1018,1063,1020,1106,975,973,976,1017,1017,1064,975,1064,976,975,1107,973,1020,1105,1017,1020,1062,1105,1061,1020,974,1107,1064,975,1018,1017,1064,976,1108,1064,1017,1018,1062,974,1064,1020,1017,974,973,1105,1106,976,1105,976,974,1020,1105,975,1107,1062,
1062,973,974,1017,1062,1064,1017,973,1018,1107,1063,973,1017,1017,1063,974,1020,1062,1064,1108,1105,1107,1106,1017,1105,1064,974,1061,974,974,1018,1019,1106,974,1062,1017,1018,1018,1107,1017,1106,1062,1019,1020,974,1063,1018,1062,973,974,1107,976,1064,1108,1062,1018,1061,976,1064,1105,1107,1107,1017,1106,975,975,973,973,1106,973,973,1107,1064,1020,1061,1108,1018,974,975,1107,1018,1019,974,1018,1020,1020,1019,976,1018,1018,1108,974,973,1107,1061,1061,1019,1019,1020,976,1107,1017,1105,1107,975,1020,
1018,975,1018,974,1105,1106,974,1017,1061,1061,974,1105,1106,1107,1108,1018,1017,1062,973,1108,1063,1108,1061,1020,974,1107,1108,1020,1020,1063,973,974,976,1063,1107,975,1061,973,1108,1017,1017,975,1061,973,1017,1018,1063,1063,1017,1061,1017,973,1105,1020,974,975,1062,1107,1107,976,974,1107,1019,975,974,1064,1064,1019,1061,1017,1020,1063,1017,1108,1063,1107,1018,1061,975,1108,1017,1019,973,1108,1062,1020,973,1018,1108,975,1062,1017,973,975,1020,1107,1062,1105,1108,974,1107,1064,1061,1105,1062,1019,
1017,1061,1061,1018,975,1108,1017,975,1105,1064,975,976,1019,974,1061,975,1019,1020,976,1108,1108,974,975,1106,1017,1063,975,1018,1019,1020,973,1105,1063,1064,974,1020,976,1063,976,1105,1017,1105,1063,1061,975,1017,1064,1061,975,974,1108,974,1063,1062,1062,1108,1107,1064,974,975,1064,1019,1105,1063,1108,975,975,1064,1017,1063,1064,975,1063,1106,975,1018,975,1061,1063,1105,1108,1106,1062,1108,1017,1108,975,1062,1018,1106,1105,1061,1064,1106,1018,1063,1107,1106,1061,975,1105,1064,1105,1061,975,1108,
974,1063,1061,973,1019,1017,1107,973,976,1105,1061,1107,1017,1107,1061,1017,1017,1063,973,1063,976,1105,1063,973,1019,1018,973,1061,975,973,1105,1017,975,1105,1108,1064,1108,974,1108,976,1017,1062,1063,1063,1020,1063,974,1020,1108,1064,973,1107,1107,1064,976,1106,1106,974,1108,1020,1019,1018,1019,1108,976,1107,1105,1063,1063,1063,1105,1106,1063,1105,1017,1106,975,976,976,1020,973,1062,1020,1061,1020,1019,1108,1106,973,1061,1064,1017,1062,1020,1108,1108,976,1017,1105,1020,973,1107,1062,1020,1106,1020,
1019,1064,1064,975,976,1019,1019,1017,1108,973,1017,1064,976,976,1020,974,1063,1019,1017,1108,973,1020,1061,973,975,973,1107,1061,1061,976,1062,976,1105,1020,974,1020,1108,1107,1061,1018,1063,1107,1018,1063,1020,1017,1018,1063,1019,1108,1063,1062,1105,1061,1105,1018,1107,974,1061,1017,1017,1061,1106,1107,1063,1062,1064,1108,1108,1106,1017,1105,1063,1105,1017,1064,973,1106,1106,973,1105,1107,975,1020,1020,974,1061,1061,1020,1061,1062,1020,1108,1019,1018,1105,976,1018,1063,1019,1063,1105,1017,975,974,974,
1062,974,974,974,1061,1062,976,976,1106,973,1105,1108,1106,974,1107,1064,1063,1019,975,1105,973,1107,1061,1019,976,1064,1106,1061,1018,1106,1063,1063,975,1018,1105,1105,1019,1018,1063,1064,975,1064,975,1020,1063,975,1018,1105,973,1020,1108,1062,975,1107,1063,1019,1018,973,1106,1020,1064,1107,1106,1018,973,1107,1105,1108,1018,1107,975,1018,1017,1106,976,1105,1062,975,1105,1064,1020,975,1108,975,1017,1061,1106,976,974,1107,1019,1106,1106,1017,1108,976,1019,1105,1064,1063,1019,1108,1105,1105,1106,973,
1018,1019,1064,1063,1064,1108,1017,1062,1062,1108,1020,974,1018,974,1018,1062,1018,1063,1064,973,1108,1062,1020,1061,1061,1061,1062,1018,974,1107,1063,975,1063,974,1061,1019,1019,1107,1017,1108,974,1018,1064,975,1061,1018,1106,1019,1107,1108,973,975,1106,1105,1062,1063,1062,1019,1019,975,1020,1105,1018,1107,1063,1020,1105,976,1018,1064,1017,1105,1019,1063,1106,974,1064,1063,1106,1108,1017,1062,1019,1107,1105,974,1061,1064,1108,975,1062,974,1064,1061,1106,1106,1106,1063,1019,1107,1017,1105,1064,1061,975,1062,
1106,1063,1017,1106,1062,1064,976,1020,1106,973,1062,976,1105,974,1018,973,1018,1062,1061,1108,1064,1107,1105,1017,1019,1063,975,1106,1108,1017,973,1106,1105,976,1061,1063,1020,1107,974,1105,1017,1017,1105,1018,1107,1108,1105,1062,1020,1107,976,975,1064,1019,1106,975,973,975,1107,1105,1061,1020,1020,1064,1106,1062,975,1105,1020,973,1062,1107,975,974,974,1063,1017,1017,1061,1063,1064,1019,976,1107,1107,976,1063,976,1017,975,1020,1018,1017,1105,973,1106,976,974,1105,1062,1107,1064,1019,976,1018,975,
1018,973,1018,1061,1061,976,1064,1108,1018,1106,1063,1020,974,974,1108,1018,1061,1020,1106,1064,1108,1107,1061,975,1017,976,975,1064,1017,1063,973,1020,1062,1108,1063,975,1019,973,1018,1063,1063,1105,1106,1108,1020,1063,1017,974,1017,1020,1062,1105,1020,1062,1105,1017,1063,1107,1106,1108,1105,1064,1018,975,1108,1105,976,1062,1017,1106,1018,975,975,1019,1062,1018,1061,1018,1105,1019,1019,974,1020,975,1064,1017,1061,1107,1017,1019,1019,975,1107,1018,1063,975,974,973,1017,1019,1106,976,1062,1020,1063,1106,
1107,1019,1018,1020,973,976,1064,1063,1017,1061,1106,1106,976,976,1018,1019,976,1107,975,1107,1018,1061,1106,1017,1106,1064,1064,1062,1020,973,1105,976,1106,974,1017,975,1106,1063,1063,976,976,1064,1105,1106,1106,1020,1107,1063,1105,1018,975,1063,974,1064,1061,973,1105,1064,1062,1105,1106,1064,1063,975,974,1020,1061,1061,1020,973,975,1020,976,1108,1062,976,1019,973,1062,1018,1106,1064,1064,1063,1106,1061,973,1108,976,1106,976,1064,1062,1020,976,976,973,1020,976,975,1018,974,1107,1108,976,1064,
974,1108,973,973,1105,1018,1105,1105,1019,1105,1017,976,1108,1107,976,1105,1063,1108,1063,1108,1020,974,1018,1062,974,1106,1019,1061,1062,1108,1106,1063,1020,1017,973,976,1062,1019,974,1064,973,1108,1019,1107,973,1020,1062,976,1063,1105,1017,973,1061,974,1106,974,973,1019,1017,974,1020,1018,1106,1019,1063,1064,1061,973,1020,1064,1105,1064,1018,976,1105,1107,974,1107,1017,1018,1108,1019,1106,1064,1062,976,1107,975,1061,1018,1018,1063,974,974,1105,1107,974,1017,1019,973,1063,973,1107,1108,1061,973,
1061,1019,1020,1108,1064,1061,1017,976,974,1105,976,1063,1106,1064,1019,1019,1108,1019,973,1105,973,1063,1019,1020,975,1106,973,1061,1063,1061,1017,1018,1106,975,1062,1063,1019,1064,973,1061,974,1064,1019,1108,1107,975,1106,1020,1106,1105,1062,976,1020,1062,1062,975,1105,1061,1105,1061,973,974,1106,1062,1105,1064,1062,1064,1105,1020,1063,1061,1108,1064,1105,1017,973,1107,1106,1107,1019,1061,1107,976,973,1061,1020,1064,1020,976,1019,973,1064,1106,1106,1019,1105,975,974,973,1061,1062,973,1062,975,1061,
975,1020,1061,1107,1062,975,1107,1063,1064,975,973,1107,1019,1063,1017,1108,1062,1063,975,1019,976,1106,974,1105,973,1018,1064,1063,1020,974,974,1108,1108,974,1063,1064,1061,973,1107,974,1019,1064,1105,1017,1061,1106,976,1017,975,976,1107,1063,1018,1107,975,1108,1106,1062,974,973,1062,1106,1105,1105,1018,1064,1105,973,1062,1017,1107,1062,1063,1062,1020,1017,1107,1108,1106,976,975,1061,1020,1019,976,976,1064,975,1062,976,976,975,1017,1106,973,1063,1017,1107,975,975,1108,1106,1061,976,1061,1106,
1107,1062,973,974,1106,976,1064,976,1063,1105,1063,1061,1062,1061,973,1105,1106,1107,1105,1108,976,1064,1019,973,1017,1064,973,1106,974,1061,1105,976,1062,975,1064,1062,1064,1106,974,1020,1020,1105,1108,1018,1064,1062,976,1064,1061,1019,1017,976,1108,975,1062,1061,1064,1064,1108,1061,1061,1106,976,1108,976,1106,1108,1108,1019,1061,1063,1063,1105,1017,1017,1063,1106,1020,1061,1063,1063,1017,975,1017,1106,1017,1064,1064,1017,1019,1020,1017,1105,1108,1107,1017,975,1017,1063,975,1020,1017,1106,976,1106,1063,
1106,1062,1105,1063,1018,1106,974,1105,1062,1106,1106,1018,974,973,1105,975,1107,974,974,1061,973,1018,1018,974,1105,1106,975,1064,1105,1019,1064,1105,1062,1062,1061,975,1106,1107,974,1064,976,973,1019,1105,1020,1106,1106,1106,1063,975,1017,1105,976,1108,1061,1106,1020,1019,974,1019,1020,1105,976,1105,974,1017,1061,1020,976,1061,1107,1107,1019,973,1017,1017,1105,973,975,1108,1020,1061,1063,1107,976,1063,1061,975,1106,1108,1061,1107,1107,1063,1020,1064,1020,1061,1019,1063,1108,1019,975,1019,1105,1063,
1061,1063,973,1062,1018,1106,976,1018,1105,973,1064,1019,1019,976,1107,1105,1062,1017,1106,1107,1062,976,1061,1020,974,1106,1106,1063,1018,1064,975,1063,1061,1020,1108,1106,1108,1106,1061,1064,975,1108,976,976,974,1061,973,1063,1106,1064,974,974,1062,1062,1018,1106,1064,1018,1061,1019,1019,973,1105,1106,1018,1061,973,1061,976,1063,1018,1062,1061,1019,976,1105,1062,1061,1106,1106,1062,1019,1020,1061,1019,1019,973,1063,973,1062,1064,1106,1018,1017,974,976,1063,1063,1019,1106,973,1064,1062,1063,1020,1017,
1061,1106,1105,1017,974,1063,1019,1020,1062,974,1018,1017,1064,1019,1061,1062,1020,1064,1063,1106,1063,973,1019,973,1020,1062,1020,1018,1019,1064,1017,1018,974,1063,1105,1063,973,974,1107,1061,1064,1107,1020,1063,1020,1020,1108,1106,1017,976,1019,975,1061,976,1064,973,1108,1061,1107,1062,1108,1064,1061,974,975,1017,1020,1106,1107,1106,1020,1064,1106,1020,974,975,1105,1017,1062,1108,1017,974,1064,1107,973,1020,1019,973,1019,975,1107,1064,1062,974,1108,1105,1106,1062,1019,1020,1020,1106,976,1063,974,1020,
1017,1063,974,1018,975,1019,1019,1018,1063,1019,1062,974,1017,1020,1018,1107,1064,974,976,975,974,973,1107,1019,1063,1017,1106,1019,973,973,1017,1062,976,1017,1018,1107,1107,1107,974,1062,1105,1019,1020,1017,1105,1020,1017,1017,976,1017,1062,1105,1105,1105,1106,976,1106,1105,1106,1064,1018,973,1020,974,976,1020,1106,1018,1106,975,1063,1064,1018,973,974,1020,1017,976,976,975,1064,975,973,1020,973,1106,1061,1107,1063,1020,1106,1064,1064,974,1018,1064,975,1018,1020,1107,1107,974,1061,1107,1017,1107,
1061,1020,1063,1063,1106,1061,1105,975,1062,1105,1018,1017,1020,974,1020,1020,974,1019,1108,1108,1062,974,1106,973,1063,975,1061,1107,974,975,1107,975,1108,1018,1107,1105,1064,1017,1062,1019,975,973,976,1018,1061,1063,1107,1018,1108,1063,1017,1063,1061,1106,1018,1062,973,973,974,1018,976,1107,1061,1107,1106,1017,1106,1017,1019,1106,976,975,976,1107,1108,1108,974,1108,1062,1018,1062,1019,1064,1106,1108,1017,1063,975,973,1019,1062,1064,1063,1106,975,1017,1063,1108,1108,976,1106,1020,1019,1063,1061,975,
1019,1018,1020,1108,1017,976,1064,1061,1017,1106,975,1105,1107,1064,1106,1063,1106,1020,976,976,1062,1107,974,975,1064,1108,974,975,1108,976,1018,1064,1105,1106,974,976,1020,1062,975,1105,1019,1106,973,1019,1018,1062,1020,973,974,1063,1105,976,1017,1064,973,1061,1063,1107,1063,973,973,1019,1107,1106,973,1020,1105,1020,1017,1105,1064,1064,1017,1061,1063,1061,1018,975,1108,1018,1061,1018,1061,1061,1062,1106,1018,1019,1108,1064,1105,1064,1019,1063,1107,1018,1017,1019,1061,1018,973,1017,1018,1106,976,1019,
1108,1106,1106,1106,974,1064,973,1018,1019,976,1108,1107,1063,974,973,1108,1061,1063,1061,1017,1019,1017,1063,1105,1105,1106,975,1063,1107,1020,1018,1018,1063,1020,975,1108,973,1061,1107,1063,1064,973,1105,1107,1061,1061,973,973,1107,1063,974,975,1063,1106,973,1020,1107,1019,973,1063,1017,1019,1108,1061,1108,1106,1062,1062,1064,973,1063,973,1107,1063,1061,1064,1020,1105,1062,1106,1063,1020,975,1106,975,1020,1018,1105,1062,1062,1018,1018,1017,973,974,976,976,1020,1019,1062,1019,1062,974,1107,1063,1020,
1017,973,1019,1018,1020,1108,1107,974,1105,1019,1017,1063,973,1063,1017,1019,974,1107,1106,1020,1063,1017,1063,976,976,1020,1105,1106,973,1107,1064,975,975,1106,975,975,1061,973,1061,1018,1062,975,974,976,1063,1105,974,1061,1020,974,1061,973,1107,1062,973,1061,1017,974,975,1105,1064,1107,974,1020,1063,1019,1106,976,1061,1063,1108,1063,1064,1064,1063,1020,975,974,1064,1106,1062,1061,1020,1105,1106,1064,1017,1108,976,1108,975,1019,1105,976,1017,1019,1108,1019,973,1107,1020,1020,974,1106,973,1063,
974,1062,1063,1064,1064,976,973,1063,1019,1106,1105,975,973,1061,1063,1105,1019,1064,1020,1019,1019,1108,975,1018,1019,975,1106,1064,1105,976,1017,1018,975,1017,1062,1107,1063,1020,973,1019,1061,1019,1106,1063,1018,1063,1020,1106,1105,1106,1020,1105,1063,1018,976,1106,1018,1017,1062,1105,1106,1061,1064,1064,1062,1020,1064,1063,1020,1020,1018,1106,1063,1061,1108,1063,976,1064,974,1108,974,1108,1020,976,1063,974,1017,1063,973,1020,1062,1108,1062,1017,1018,975,1061,975,976,973,1020,1107,1107,1018,1063,1108,
1106,975,1106,1064,1017,976,976,1108,1017,1018,1108,1062,1105,975,1064,1017,1108,976,976,975,976,975,973,1063,1063,1107,973,1062,1020,974,1105,973,973,1105,1019,974,974,1020,1108,975,973,1062,973,1064,1061,1061,1018,1017,1061,1108,975,1019,1061,1018,1107,1061,1020,976,1105,1061,1062,973,974,1105,976,1018,1107,1020,1018,1106,1107,973,973,1105,1107,976,973,1018,1106,1061,1020,1063,1107,1019,974,1107,974,1018,1019,1064,1020,976,1105,1018,1020,1105,1105,1064,973,1107,1107,1017,1106,1064,1063,1108,
973,1018,1064,974,976,1105,1108,1064,1107,1019,1020,1062,975,973,1017,1017,1062,1106,976,1063,1017,1017,1018,1108,1108,1106,1107,1017,1105,1017,973,1105,1061,1018,976,1062,1062,976,1062,1106,974,1062,1019,1105,1107,1018,1020,1107,974,1064,1063,1063,1107,1064,1018,974,1018,1020,1108,1017,1017,974,1106,1063,1064,1017,1020,1020,1017,1020,1064,1064,973,1019,975,1017,1019,1106,1106,1107,1018,1063,976,1064,1061,1019,974,1107,1061,1062,1062,1063,976,1020,1062,974,1062,976,1020,1062,1107,976,1062,974,1019,1064,
1063,1108,1017,974,973,1106,1019,975,1020,975,1063,1020,973,973,1108,975,1108,1106,1017,1062,1061,1019,1062,1018,973,1018,1018,1017,1108,976,1106,974,974,1105,1064,1017,976,1107,1020,1107,1063,1019,1062,1106,1020,1106,973,1108,1017,973,1020,1064,1017,1105,1020,1108,976,973,1017,1018,1018,1063,974,1064,1106,1107,1064,1106,974,974,1018,975,1064,1064,974,1105,1019,1105,975,1018,1064,1105,1018,1017,1106,1019,976,973,976,1062,1105,1061,1017,973,976,1105,1020,1062,976,1106,1063,974,1064,1018,975,1061,
1020,1017,1108,974,975,1062,976,1062,1064,974,976,1019,1107,1106,1061,1107,1061,1106,1062,976,1064,1061,1064,1106,973,1061,1064,973,975,1108,975,1062,1064,976,1063,1062,1064,1106,1064,1106,1061,1020,1062,1018,973,1020,976,1105,973,1061,974,1107,974,1062,1062,976,1019,975,974,975,1063,1106,1105,1106,974,1107,1063,974,1105,1018,1018,1105,974,1105,1105,973,1107,1107,1105,1062,1107,1064,1064,1020,1017,1063,974,1108,974,1105,976,1064,1106,1107,976,1063,1105,974,1061,1062,974,1107,975,1019,1018,1063,
1108,1017,1061,1017,976,1019,1017,1062,1063,1108,1108,1019,1061,976,1105,1019,976,1105,974,974,1017,976,1107,1062,1018,1061,974,1108,1063,1062,1106,1020,1107,1062,973,1108,1064,1017,976,975,1107,1063,975,1064,1019,1064,1107,1108,1108,1017,1108,974,1018,1062,976,1108,1063,1108,1018,1106,1108,1106,1064,1019,976,1107,974,976,973,1106,1020,1064,1018,1020,1105,1107,1062,975,1062,975,1105,974,976,975,974,974,1105,1106,1064,1018,1017,1061,973,1018,1020,1064,975,1062,1061,975,1062,1020,1019,1064,1105,1063,
1107,1017,1062,1017,1107,1018,1020,1019,1105,973,1107,1020,1106,1064,975,1020,1108,976,1019,1020,1108,976,1061,1107,1020,1017,1019,1107,1019,1108,1108,1017,1064,1062,1107,976,1064,974,974,1017,1017,1107,1107,1062,1019,1062,1018,1064,1017,975,1018,1062,1017,1107,1061,976,1062,1017,976,1018,1020,1061,973,973,975,1017,1105,1020,1018,1064,1019,1017,1020,1064,1108,1107,1107,973,1063,973,1020,1063,975,1108,1061,1062,974,974,1062,1108,1106,1064,976,1017,1061,1105,1018,1063,1062,975,1063,1064,1017,974,1105,1106,
973,973,976,1017,1020,1061,1061,1105,1019,1020,1064,976,973,1061,1062,1108,974,1063,976,1064,975,974,976,1106,1106,1064,975,1020,1107,1063,1020,1018,1019,974,1020,973,1062,973,1017,1018,1019,1017,1017,976,1063,1064,1064,1108,1061,1108,1018,1108,1107,1020,1020,1062,1062,1020,976,1062,1019,1017,973,1105,1106,1106,975,1107,1064,1019,1019,973,976,1107,1106,975,1061,1018,976,1062,1017,1063,976,1106,1017,1062,1061,1020,975,1018,973,1064,973,1107,1106,1061,974,1107,1106,1108,1020,1018,1107,1106,1107,1061,
975,1061,1105,1062,1063,1106,1107,1106,1105,1019,975,974,974,1062,973,973,1061,1064,1020,1061,1107,1063,1020,975,1105,973,1018,974,1062,1020,1064,976,976,1106,1061,1108,1019,1063,1062,1018,1105,1062,1062,976,976,976,1108,1019,1020,1064,1018,1020,1108,1020,1106,1106,1106,976,1062,1107,1108,1061,974,1107,1062,1107,1063,1019,1019,1018,1019,975,1108,975,1108,1019,1018,1105,1108,1105,1064,974,1108,1017,1017,1061,1061,1020,1062,1108,1020,1020,975,974,1105,1062,1020,975,1062,1020,1105,975,1020,1020,1108,975,
1064,1062,1063,1019,973,975,1108,1064,1062,1017,974,976,973,1017,1108,1064,973,1018,1107,1018,974,974,1105,1017,1062,1019,1063,1063,1106,1062,1020,974,1063,1107,1106,1018,1108,1061,1107,1019,1020,1106,1018,1107,1019,1019,1105,1107,974,1061,975,1019,1107,973,1062,1063,975,1064,1017,973,1108,975,975,1108,1106,1064,1105,1062,1020,1018,1105,1106,1106,1063,1018,1018,1061,1018,1064,973,1108,1061,1106,1017,1062,1020,1017,1063,1018,1019,1108,1061,973,1064,1018,1105,1064,973,1063,1108,973,976,1105,1017,1064,1107,
1107,1020,974,973,1019,1061,1020,1105,1107,1018,1107,1107,976,1020,1020,976,975,1017,1106,975,1064,973,973,1105,1061,1105,1019,1106,1017,1062,1019,1020,1108,1063,974,1018,973,1108,1018,1061,1064,1062,1018,1018,1108,975,1108,1061,1062,1017,1063,1061,1020,975,1107,1061,1063,1062,1063,1106,1064,975,976,1107,1061,1061,1108,1019,1018,1107,1108,1062,1064,1107,1020,973,1063,974,1105,975,1064,1063,1063,974,975,974,1018,1020,1017,1063,1020,1017,1064,1064,1106,1107,974,1106,1105,1017,975,1105,1106,1020,1064,1062,
1106,1018,974,1064,1061,974,1105,1018,973,1063,973,1108,1062,975,1107,1018,974,1105,1061,1062,973,1019,973,1019,1064,1017,1063,1019,1017,1062,1108,1017,1063,1063,1017,976,1018,973,976,975,976,1105,1019,1064,1062,973,1018,975,1061,1107,1020,974,1107,1105,975,1061,1061,1018,1061,975,1064,1018,976,1062,1063,1017,1018,1062,1061,1063,1061,1061,1018,1019,1061,1017,1063,975,1062,1019,1062,1018,1018,1018,1107,976,974,1064,1107,976,1106,1017,1062,1062,1063,976,1063,1062,1108,1063,1019,1062,1105,1063,973,1019,
1105,1017,1064,975,975,1061,1064,1020,1018,976,1107,1019,1019,1020,975,1020,974,1020,975,976,1062,1017,1017,1018,975,1107,1062,975,1064,1108,1017,976,973,1062,1061,1019,1017,1020,1105,1064,1019,1108,1062,1062,976,976,1019,1064,1017,975,1108,975,974,973,1018,1107,1017,973,974,1061,1106,1017,974,1064,1020,973,973,975,975,1020,1108,1108,1017,976,1063,1106,1107,1063,1019,1064,1018,973,975,1061,1063,974,974,1108,1061,1019,1105,1107,1017,973,973,1106,974,1063,1020,1061,973,1105,973,1064,1019,1064,
976,973,976,975,1062,1107,1106,973,1017,975,1019,1020,1107,1108,975,976,1106,1108,973,975,1020,975,1018,976,1017,1105,973,1019,1105,1062,1064,1017,976,1106,1105,1017,1020,1020,1105,1063,1062,1018,1064,1064,1107,1105,1107,1106,1020,1017,1064,1107,975,1017,1106,973,1108,1107,1020,1061,1108,1106,1107,975,973,1106,973,1018,1107,1106,975,1017,976,1020,975,1064,976,975,1061,1061,1017,1107,1107,1019,1061,975,1019,1107,1061,1108,1017,1019,974,1020,974,1063,1106,1108,1018,974,1108,1019,973,1019,1108,1017
</data>
 </layer>
</map>
